(Projekt 140mm Gear for Roller)
(Erstellt mit Estlcam 12,057)
(Laufzeit ca. 00:09:34 Stunden)

(Benötigte Werkzeuge:)
(4mm Holzfräser Gerade Schneiden)

M03 S24000
G00 Z5.0000

(Nr. 1 Räumen linear: Tasche 5)
G00 X-7.3550 Y-5.4015
G00 Z0.5000
G01 Z0.0000 F200 S24000
G01 X-1.1732 Z-2.2500
G01 X-7.3550 Z-4.5000
G01 X7.3550 F1900
G01 Y-1.8015
G01 X-7.3550
G01 Y1.7985
G01 X7.3550
G01 Y5.3985
G01 X-7.3550
G01 X-7.7000
G03 X-7.8042 Y6.5703 I-2.9434 J0.3289
G03 X-8.0582 Y7.1354 I-2.7188 J-0.8826
G02 X-6.9550 Y7.9635 I0.6479 J0.2858
G03 X-5.8860 Y7.7000 I1.0690 J2.0365
G01 X5.8860
G03 X7.1354 Y8.0582 I-0.0188 J2.4236
G02 X7.9635 Y6.9550 I0.2858 J-0.6479
G03 X7.7000 Y5.8860 I2.0365 J-1.0690
G01 Y-5.8860
G03 X8.0437 Y-7.0997 I2.3322 J0.0048
G02 X7.0106 Y-7.9937 I-0.6228 J-0.3242
G03 X5.8860 Y-7.7000 I-1.1246 J-2.0063
G01 X-5.8860
G03 X-7.1354 Y-8.0582 I0.0188 J-2.4236
G02 X-7.9635 Y-6.9549 I-0.2858 J0.6479
G03 X-7.7000 Y-5.8860 I-2.0365 J1.0689
G01 Y5.3985
G01 X-7.3550
G00 Z5.0000
G00 Y-5.4015
G00 Z-4.0000
G01 Z-4.5000 F200
G01 X-3.9207 Z-5.7500
G01 X-7.3550 Z-7.0000
G01 X7.3550 F1900
G01 Y-1.8015
G01 X-7.3550
G01 Y1.7985
G01 X7.3550
G01 Y5.3985
G01 X-7.3550
G01 X-7.7000
G03 X-7.8042 Y6.5703 I-2.9434 J0.3289
G03 X-8.0582 Y7.1354 I-2.7188 J-0.8826
G02 X-6.9550 Y7.9635 I0.6479 J0.2858
G03 X-5.8860 Y7.7000 I1.0690 J2.0365
G01 X5.8860
G03 X7.1354 Y8.0582 I-0.0188 J2.4236
G02 X7.9635 Y6.9550 I0.2858 J-0.6479
G03 X7.7000 Y5.8860 I2.0365 J-1.0690
G01 Y-5.8860
G03 X8.0437 Y-7.0997 I2.3322 J0.0048
G02 X7.0106 Y-7.9937 I-0.6228 J-0.3242
G03 X5.8860 Y-7.7000 I-1.1246 J-2.0063
G01 X-5.8860
G03 X-7.1354 Y-8.0582 I0.0188 J-2.4236
G02 X-7.9635 Y-6.9549 I-0.2858 J0.6479
G03 X-7.7000 Y-5.8860 I-2.0365 J1.0689
G01 Y5.3985
G01 X-7.3550
G00 X-7.3550 Y5.3985 Z5.0000
G00 X-8.0000
G00 Z0.5000
G01 Z0.0000 F200
G03 X-8.0906 Y6.4810 Z-0.3981 I-2.6741 J0.3213
G03 X-8.3316 Y7.0106 Z-0.6103 I-2.5150 J-0.8247
G02 X-6.8155 Y8.2291 Z-1.5729 I0.9169 J0.4116
G03 X-5.8860 Y8.0000 Z-1.9248 I0.9296 J1.7709
G01 X5.8860 Z-6.2094
G03 X7.0106 Y8.3316 Z-6.6417 I-0.0230 J2.1514
G02 X7.9541 Y8.2675 Z-7.0000 I0.4116 J-0.9169
G02 X8.2291 Y6.8155 I-0.5318 J-0.8528 F1900
G03 X8.0000 Y5.8860 I1.7709 J-0.9296
G01 Y-5.8860
G03 X8.3094 Y-6.9602 I2.0446 J0.0072
G02 X6.8639 Y-8.2554 I-0.8873 J-0.4639
G03 X5.8860 Y-8.0000 I-0.9779 J-1.7446
G01 X-5.8860
G03 X-7.0106 Y-8.3316 I0.0231 J-2.1515
G02 X-8.2291 Y-6.8155 I-0.4116 J0.9169
G03 X-8.0000 Y-5.8860 I-1.7709 J0.9295
G01 Y5.3985
G03 X-8.0906 Y6.4810 I-2.6741 J0.3213
G03 X-8.3316 Y7.0106 I-2.5150 J-0.8247
G02 X-6.8155 Y8.2291 I0.9169 J0.4116
G03 X-5.8860 Y8.0000 I0.9296 J1.7709
G01 X5.8860
G03 X7.0106 Y8.3316 I-0.0230 J2.1514
G02 X7.9541 Y8.2675 I0.4116 J-0.9169
G00 Z5.0000

(Nr. 2 Kreistasche schruppen und schlichten: Kreistasche 1)
G00 X0.4500 Y0.0000 Z5.0000
G00 Z0.5000
G02 X-0.2250 Y-0.3897 Z0.1570 I-0.4500 J0.0000 F901
G02 Y0.3897 Z-0.1861 I0.2250 J0.3897
G02 X0.4500 Y0.0000 Z-0.5291 I0.2250 J-0.3897
G02 X-0.2250 Y-0.3897 Z-0.8721 I-0.4500 J0.0000
G02 Y0.3897 Z-1.2152 I0.2250 J0.3897
G02 X0.4500 Y0.0000 Z-1.5582 I0.2250 J-0.3897
G02 X-0.2250 Y-0.3897 Z-1.9012 I-0.4500 J0.0000
G02 Y0.3897 Z-2.2443 I0.2250 J0.3897
G02 X0.4500 Y0.0000 Z-2.5873 I0.2250 J-0.3897
G02 X-0.2250 Y-0.3897 Z-2.9303 I-0.4500 J0.0000
G02 Y0.3897 Z-3.2734 I0.2250 J0.3897
G02 X0.4500 Y0.0000 Z-3.6164 I0.2250 J-0.3897
G02 X-0.2250 Y-0.3897 Z-3.9594 I-0.4500 J0.0000
G02 Y0.3897 Z-4.3025 I0.2250 J0.3897
G02 X0.4500 Y0.0000 Z-4.6455 I0.2250 J-0.3897
G02 X-0.2250 Y-0.3897 Z-4.9885 I-0.4500 J0.0000
G02 Y0.3897 Z-5.3316 I0.2250 J0.3897
G02 X0.4500 Y0.0000 Z-5.6746 I0.2250 J-0.3897
G02 X-0.2250 Y-0.3897 Z-6.0176 I-0.4500 J0.0000
G02 Y0.3897 Z-6.3607 I0.2250 J0.3897
G02 X0.4500 Y0.0000 Z-6.7037 I0.2250 J-0.3897
G02 X-0.2250 Y-0.3897 Z-7.0467 I-0.4500 J0.0000
G02 Y0.3897 Z-7.3898 I0.2250 J0.3897
G02 X0.4500 Y0.0000 Z-7.7328 I0.2250 J-0.3897
G02 X-0.2250 Y-0.3897 Z-8.0758 I-0.4500 J0.0000
G02 Y0.3897 Z-8.4189 I0.2250 J0.3897
G02 X0.4500 Y0.0000 Z-8.7619 I0.2250 J-0.3897
G02 X-0.2250 Y-0.3897 Z-9.1049 I-0.4500 J0.0000
G02 Y0.3897 Z-9.4480 I0.2250 J0.3897
G02 X0.4500 Y0.0000 Z-9.7910 I0.2250 J-0.3897
G02 X-0.2250 Y-0.3897 Z-10.1340 I-0.4500 J0.0000
G02 Y0.3897 Z-10.4771 I0.2250 J0.3897
G02 X0.4500 Y0.0000 Z-10.8201 I0.2250 J-0.3897
G02 X-0.2250 Y-0.3897 Z-11.1632 I-0.4500 J0.0000
G02 Y0.3897 Z-11.5062 I0.2250 J0.3897
G02 X0.4500 Y0.0000 Z-11.8492 I0.2250 J-0.3897
G02 X-0.1818 Y-0.4116 Z-12.1746 I-0.4500 J0.0000
G02 X-0.3031 Y0.3326 Z-12.5000 I0.1818 J0.4116
G02 X0.4396 Y0.0962 I0.3031 J-0.3326
G02 X-0.1365 Y-0.4288 I-0.4396 J-0.0962
G02 X-0.3031 Y0.3326 I0.1365 J0.4288
G02 X0.0147 Y0.3179 Z-12.4438 I0.1516 J-0.1663 F1900
G00 X0.0147 Y0.3179 Z0.0000
G01 X0.7500 Y0.0000 F1900
G02 X0.0000 Y-0.7500 Z-6.2500 I-0.7500 J0.0000 F1164
G02 X-0.7500 Y0.0000 Z-12.5000 I0.0000 J0.7500
G02 X0.3750 Y0.6495 I0.7500 J0.0000
G02 Y-0.6495 I-0.3750 J-0.6495
G02 X-0.7500 Y0.0000 I-0.3750 J0.6495
G02 X-0.3750 Y0.3750 Z-12.4063 I0.3750 J0.0000 F1900
G00 Z5.0000

(Nr. 3 Räumen linear: Tasche 2)
G00 X20.4633 Y9.6938 Z5.0000
G00 Z0.5000
G01 Z0.0000 F200
G01 X26.6451 Z-2.2500
G01 X20.4633 Z-4.5000
G01 X51.3214 F1900
G03 X51.2901 Y10.5030 I-2.3335 J0.3150
G03 X50.6357 Y13.2938 I-38.7098 J-7.6042
G01 X18.3294
G03 X15.0745 Y16.8938 I-17.8897 J-12.9037
G01 X49.5514
G03 X48.1739 Y20.4938 I-45.8154 J-15.4673
G01 X9.6273
G02 X8.6157 Y21.0098 I1.6186 J4.4223
G02 X7.6450 Y22.9608 I1.3925 J1.9098
G01 Y24.0938
G01 X46.4772
G03 X44.4264 Y27.6938 I-42.7812 J-21.9876
G01 X7.6450
G01 Y31.2938
G01 X41.9720
G03 X39.0271 Y34.8938 I-40.3755 J-30.0236
G01 X7.6450
G01 Y38.4938
G01 X35.4810
G03 X31.1285 Y42.0938 I-34.3815 J-37.1366
G01 X7.6450
G01 Y45.6938
G01 X25.5490
G03 X17.6334 Y49.2938 I-25.2388 J-44.9923
G01 X7.6677
G01 X7.3248 Y49.3319
G02 X10.5678 Y51.6290 I2.6764 J-0.3407
G02 X51.6663 Y10.3432 I-10.5537 J-51.6047
G02 X48.9473 Y7.3000 I-2.6795 J-0.3422
G01 X22.9545
G02 X20.4123 Y8.9776 I-0.0348 J2.7123
G03 X8.9776 Y20.4123 I-20.4009 J-8.9662
G02 X7.3000 Y22.9546 I1.0347 J2.5074
G01 Y48.9473
G01 X7.3089 Y49.1888
G01 X7.3248 Y49.3319
G01 X7.6677 Y49.2938
G00 Z5.0000
G00 X20.4633 Y9.6938
G00 Z-4.0000
G01 Z-4.5000 F200
G01 X26.6451 Z-6.7500
G01 X20.4633 Z-9.0000
G01 X51.3214 F1900
G03 X51.2901 Y10.5030 I-2.3335 J0.3150
G03 X50.6357 Y13.2938 I-38.7098 J-7.6042
G01 X18.3294
G03 X15.0745 Y16.8938 I-17.8897 J-12.9037
G01 X49.5514
G03 X48.1739 Y20.4938 I-45.8154 J-15.4673
G01 X9.6273
G02 X8.6157 Y21.0098 I1.6186 J4.4223
G02 X7.6450 Y22.9608 I1.3925 J1.9098
G01 Y24.0938
G01 X46.4772
G03 X44.4264 Y27.6938 I-42.7812 J-21.9876
G01 X7.6450
G01 Y31.2938
G01 X41.9720
G03 X39.0271 Y34.8938 I-40.3755 J-30.0236
G01 X7.6450
G01 Y38.4938
G01 X35.4810
G03 X31.1285 Y42.0938 I-34.3815 J-37.1366
G01 X7.6450
G01 Y45.6938
G01 X25.5490
G03 X17.6334 Y49.2938 I-25.2388 J-44.9923
G01 X7.6677
G01 X7.3248 Y49.3319
G02 X10.5678 Y51.6290 I2.6764 J-0.3407
G02 X51.6663 Y10.3432 I-10.5537 J-51.6047
G02 X48.9473 Y7.3000 I-2.6795 J-0.3422
G01 X22.9545
G02 X20.4123 Y8.9776 I-0.0348 J2.7123
G03 X8.9776 Y20.4123 I-20.4009 J-8.9662
G02 X7.3000 Y22.9546 I1.0347 J2.5074
G01 Y48.9473
G01 X7.3089 Y49.1888
G01 X7.3248 Y49.3319
G01 X7.6677 Y49.2938
G00 Z5.0000
G00 X20.4633 Y9.6938
G00 Z-8.5000
G01 Z-9.0000 F200
G01 X25.2713 Z-10.7500
G01 X20.4633 Z-12.5000
G01 X51.3214 F1900
G03 X51.2901 Y10.5030 I-2.3335 J0.3150
G03 X50.6357 Y13.2938 I-38.7098 J-7.6042
G01 X18.3294
G03 X15.0745 Y16.8938 I-17.8897 J-12.9037
G01 X49.5514
G03 X48.1739 Y20.4938 I-45.8154 J-15.4673
G01 X9.6273
G02 X8.6157 Y21.0098 I1.6186 J4.4223
G02 X7.6450 Y22.9608 I1.3925 J1.9098
G01 Y24.0938
G01 X46.4772
G03 X44.4264 Y27.6938 I-42.7812 J-21.9876
G01 X7.6450
G01 Y31.2938
G01 X41.9720
G03 X39.0271 Y34.8938 I-40.3755 J-30.0236
G01 X7.6450
G01 Y38.4938
G01 X35.4810
G03 X31.1285 Y42.0938 I-34.3815 J-37.1366
G01 X7.6450
G01 Y45.6938
G01 X25.5490
G03 X17.6334 Y49.2938 I-25.2388 J-44.9923
G01 X7.6677
G01 X7.3248 Y49.3319
G02 X10.5678 Y51.6290 I2.6764 J-0.3407
G02 X51.6663 Y10.3432 I-10.5537 J-51.6047
G02 X48.9473 Y7.3000 I-2.6795 J-0.3422
G01 X22.9545
G02 X20.4123 Y8.9776 I-0.0348 J2.7123
G03 X8.9776 Y20.4123 I-20.4009 J-8.9662
G02 X7.3000 Y22.9546 I1.0347 J2.5074
G01 Y48.9473
G01 X7.3089 Y49.1888
G01 X7.3248 Y49.3319
G01 X7.6677 Y49.2938
G00 X7.6677 Y49.2938 Z5.0000
G00 X7.0267 Y49.3651
G00 Z0.5000
G01 Z0.0000 F200
G02 X10.6242 Y51.9238 Z-1.8061 I2.9742 J-0.3733
G02 X36.3661 Y38.5556 Z-12.5000 I-10.6093 J-51.8980
G02 X51.9641 Y10.3814 I-36.3513 J-38.5298 F1900
G02 X48.9529 Y7.0000 I-2.9768 J-0.3806
G01 X22.9491
G02 X20.1407 Y8.8501 I-0.0305 J3.0103
G03 X8.8501 Y20.1407 I-20.1307 J-8.8400
G02 X7.0000 Y22.9491 I1.1602 J2.7779
G01 Y48.9529
G01 X7.0095 Y49.2110
G01 X7.0267 Y49.3651
G02 X10.6242 Y51.9238 I2.9742 J-0.3733
G02 X36.3661 Y38.5556 I-10.6093 J-51.8980
G00 Z5.0000

(Nr. 4 Räumen linear: Tasche 3)
G00 X7.6677 Y-49.2938 Z5.0000
G00 Z0.5000
G01 Z0.0000 F200
G01 X13.8495 Z-2.2500
G01 X7.6677 Z-4.5000
G01 X17.6334 F1900
G03 X25.5490 Y-45.6938 I-17.3236 J48.5931
G01 X7.6450
G01 Y-42.0938
G01 X31.1285
G03 X35.4810 Y-38.4938 I-29.7235 J40.3672
G01 X7.6450
G01 Y-34.8938
G01 X39.0271
G03 X41.9720 Y-31.2938 I-37.4355 J33.6275
G01 X7.6450
G01 Y-27.6938
G01 X44.4264
G03 X46.4772 Y-24.0938 I-40.7273 J25.5859
G01 X7.6450
G02 X7.6714 Y-22.5730 I7.3831 J0.6324
G02 X9.1242 Y-20.7246 I2.3435 J-0.3467
G01 X9.6273 Y-20.4938
G01 X48.1739
G03 X49.5514 Y-16.8938 I-44.4320 J19.0650
G01 X15.0744
G03 X18.3294 Y-13.2938 I-14.6459 J16.5139
G01 X50.6357
G03 X51.3239 Y-10.2993 I-40.5439 J10.8935
G03 X51.3214 Y-9.6938 I-2.2260 J0.2935
G01 X20.4633
G01 X20.1497 Y-9.5499
G02 X20.7307 Y-8.4126 I4.9627 J-1.8182
G02 X22.9546 Y-7.3000 I2.1879 J-1.5943
G01 X48.9473
G02 X51.6290 Y-10.5678 I0.0390 J-2.7023
G02 X10.3432 Y-51.6663 I-51.6047 J10.5537
G02 X7.3000 Y-48.9473 I-0.3422 J2.6795
G01 Y-22.9546
G02 X8.9776 Y-20.4123 I2.7123 J0.0349
G03 X20.1497 Y-9.5499 I-8.9603 J20.3923
G01 X20.4633 Y-9.6938
G00 Z5.0000
G00 X7.6677 Y-49.2938
G00 Z-4.0000
G01 Z-4.5000 F200
G01 X13.8495 Z-6.7500
G01 X7.6677 Z-9.0000
G01 X17.6334 F1900
G03 X25.5490 Y-45.6938 I-17.3236 J48.5931
G01 X7.6450
G01 Y-42.0938
G01 X31.1285
G03 X35.4810 Y-38.4938 I-29.7235 J40.3672
G01 X7.6450
G01 Y-34.8938
G01 X39.0271
G03 X41.9720 Y-31.2938 I-37.4355 J33.6275
G01 X7.6450
G01 Y-27.6938
G01 X44.4264
G03 X46.4772 Y-24.0938 I-40.7273 J25.5859
G01 X7.6450
G02 X7.6714 Y-22.5730 I7.3831 J0.6324
G02 X9.1242 Y-20.7246 I2.3435 J-0.3467
G01 X9.6273 Y-20.4938
G01 X48.1739
G03 X49.5514 Y-16.8938 I-44.4320 J19.0650
G01 X15.0744
G03 X18.3294 Y-13.2938 I-14.6459 J16.5139
G01 X50.6357
G03 X51.3239 Y-10.2993 I-40.5439 J10.8935
G03 X51.3214 Y-9.6938 I-2.2260 J0.2935
G01 X20.4633
G01 X20.1497 Y-9.5499
G02 X20.7307 Y-8.4126 I4.9627 J-1.8182
G02 X22.9546 Y-7.3000 I2.1879 J-1.5943
G01 X48.9473
G02 X51.6290 Y-10.5678 I0.0390 J-2.7023
G02 X10.3432 Y-51.6663 I-51.6047 J10.5537
G02 X7.3000 Y-48.9473 I-0.3422 J2.6795
G01 Y-22.9546
G02 X8.9776 Y-20.4123 I2.7123 J0.0349
G03 X20.1497 Y-9.5499 I-8.9603 J20.3923
G01 X20.4633 Y-9.6938
G00 Z5.0000
G00 X7.6677 Y-49.2938
G00 Z-8.5000
G01 Z-9.0000 F200
G01 X12.4758 Z-10.7500
G01 X7.6677 Z-12.5000
G01 X17.6334 F1900
G03 X25.5490 Y-45.6938 I-17.3236 J48.5931
G01 X7.6450
G01 Y-42.0938
G01 X31.1285
G03 X35.4810 Y-38.4938 I-29.7235 J40.3672
G01 X7.6450
G01 Y-34.8938
G01 X39.0271
G03 X41.9720 Y-31.2938 I-37.4355 J33.6275
G01 X7.6450
G01 Y-27.6938
G01 X44.4264
G03 X46.4772 Y-24.0938 I-40.7273 J25.5859
G01 X7.6450
G02 X7.6714 Y-22.5730 I7.3831 J0.6324
G02 X9.1242 Y-20.7246 I2.3435 J-0.3467
G01 X9.6273 Y-20.4938
G01 X48.1739
G03 X49.5514 Y-16.8938 I-44.4320 J19.0650
G01 X15.0744
G03 X18.3294 Y-13.2938 I-14.6459 J16.5139
G01 X50.6357
G03 X51.3239 Y-10.2993 I-40.5439 J10.8935
G03 X51.3214 Y-9.6938 I-2.2260 J0.2935
G01 X20.4633
G01 X20.1497 Y-9.5499
G02 X20.7307 Y-8.4126 I4.9627 J-1.8182
G02 X22.9546 Y-7.3000 I2.1879 J-1.5943
G01 X48.9473
G02 X51.6290 Y-10.5678 I0.0390 J-2.7023
G02 X10.3432 Y-51.6663 I-51.6047 J10.5537
G02 X7.3000 Y-48.9473 I-0.3422 J2.6795
G01 Y-22.9546
G02 X8.9776 Y-20.4123 I2.7123 J0.0349
G03 X20.1497 Y-9.5499 I-8.9603 J20.3923
G01 X20.4633 Y-9.6938
G00 X20.4633 Y-9.6938 Z5.0000
G00 X19.8770 Y-9.4247
G00 Z0.5000
G01 Z0.0000 F200
G02 X20.4879 Y-8.2360 Z-0.4876 I5.1961 J-1.9189
G02 X22.9491 Y-7.0000 Z-1.5289 I2.4298 J-1.7698
G01 X48.9529 Z-10.9935
G02 X51.9271 Y-9.3955 Z-12.5000 I0.0340 J-3.0019
G02 X51.9238 Y-10.6242 I-2.9402 J-0.6065 F1900
G02 X10.3813 Y-51.9641 I-51.8980 J10.6093
G02 X7.0000 Y-48.9529 I-0.3805 J2.9768
G01 Y-22.9491
G02 X8.8501 Y-20.1407 I3.0103 J0.0305
G03 X19.8770 Y-9.4247 I-8.8340 J20.1219
G02 X20.4879 Y-8.2360 I5.1961 J-1.9189
G02 X22.9491 Y-7.0000 I2.4298 J-1.7698
G01 X48.9529
G02 X51.9271 Y-9.3955 I0.0340 J-3.0019
G00 Z5.0000

(Nr. 5 Räumen linear: Tasche 4)
G00 X-17.6334 Y-49.2938 Z5.0000
G00 Z0.5000
G01 Z0.0000 F200
G01 X-11.4516 Z-2.2500
G01 X-17.6334 Z-4.5000
G01 X-7.6677 F1900
G01 X-7.6532 Y-49.1634
G01 X-7.6450 Y-48.9410
G01 Y-45.6938
G01 X-25.5490
G02 X-31.1285 Y-42.0938 I24.9141 J44.7373
G01 X-7.6450
G01 Y-38.4938
G01 X-35.4810
G02 X-39.0271 Y-34.8938 I33.3291 J36.3768
G01 X-7.6450
G01 Y-31.2938
G01 X-41.9720
G02 X-44.4264 Y-27.6938 I39.6659 J29.6803
G01 X-7.6450
G01 Y-24.0938
G01 X-46.4772
G02 X-48.1739 Y-20.4938 I42.5826 J22.2685
G01 X-9.6273
G02 X-15.0745 Y-16.8938 I9.4442 J20.2110
G01 X-49.5514
G02 X-50.6357 Y-13.2938 I45.4967 J15.6671
G01 X-18.3294
G02 X-20.4633 Y-9.6938 I17.6867 J12.9157
G01 X-51.3214
G01 X-51.6634 Y-9.6487
G02 X-48.9473 Y-7.3000 I2.6756 J-0.3493
G01 X-22.9546
G02 X-20.4123 Y-8.9776 I0.0348 J-2.7123
G03 X-8.9776 Y-20.4123 I20.4009 J8.9662
G02 X-7.3000 Y-22.9545 I-1.0347 J-2.5074
G01 Y-48.9473
G02 X-10.5678 Y-51.6290 I-2.7023 J-0.0390
G02 X-51.6663 Y-10.3432 I10.5537 J51.6048
G02 X-51.6634 Y-9.6487 I2.5531 J0.3365
G01 X-51.3214 Y-9.6938
G00 Z5.0000
G00 X-17.6334 Y-49.2938
G00 Z-4.0000
G01 Z-4.5000 F200
G01 X-11.4516 Z-6.7500
G01 X-17.6334 Z-9.0000
G01 X-7.6677 F1900
G01 X-7.6532 Y-49.1634
G01 X-7.6450 Y-48.9410
G01 Y-45.6938
G01 X-25.5490
G02 X-31.1285 Y-42.0938 I24.9141 J44.7373
G01 X-7.6450
G01 Y-38.4938
G01 X-35.4810
G02 X-39.0271 Y-34.8938 I33.3291 J36.3768
G01 X-7.6450
G01 Y-31.2938
G01 X-41.9720
G02 X-44.4264 Y-27.6938 I39.6659 J29.6803
G01 X-7.6450
G01 Y-24.0938
G01 X-46.4772
G02 X-48.1739 Y-20.4938 I42.5826 J22.2685
G01 X-9.6273
G02 X-15.0745 Y-16.8938 I9.4442 J20.2110
G01 X-49.5514
G02 X-50.6357 Y-13.2938 I45.4967 J15.6671
G01 X-18.3294
G02 X-20.4633 Y-9.6938 I17.6867 J12.9157
G01 X-51.3214
G01 X-51.6634 Y-9.6487
G02 X-48.9473 Y-7.3000 I2.6756 J-0.3493
G01 X-22.9546
G02 X-20.4123 Y-8.9776 I0.0348 J-2.7123
G03 X-8.9776 Y-20.4123 I20.4009 J8.9662
G02 X-7.3000 Y-22.9545 I-1.0347 J-2.5074
G01 Y-48.9473
G02 X-10.5678 Y-51.6290 I-2.7023 J-0.0390
G02 X-51.6663 Y-10.3432 I10.5537 J51.6048
G02 X-51.6634 Y-9.6487 I2.5531 J0.3365
G01 X-51.3214 Y-9.6938
G00 Z5.0000
G00 X-17.6334 Y-49.2938
G00 Z-8.5000
G01 Z-9.0000 F200
G01 X-12.8253 Z-10.7500
G01 X-17.6334 Z-12.5000
G01 X-7.6677 F1900
G01 X-7.6532 Y-49.1634
G01 X-7.6450 Y-48.9410
G01 Y-45.6938
G01 X-25.5490
G02 X-31.1285 Y-42.0938 I24.9141 J44.7373
G01 X-7.6450
G01 Y-38.4938
G01 X-35.4810
G02 X-39.0271 Y-34.8938 I33.3291 J36.3768
G01 X-7.6450
G01 Y-31.2938
G01 X-41.9720
G02 X-44.4264 Y-27.6938 I39.6659 J29.6803
G01 X-7.6450
G01 Y-24.0938
G01 X-46.4772
G02 X-48.1739 Y-20.4938 I42.5826 J22.2685
G01 X-9.6273
G02 X-15.0745 Y-16.8938 I9.4442 J20.2110
G01 X-49.5514
G02 X-50.6357 Y-13.2938 I45.4967 J15.6671
G01 X-18.3294
G02 X-20.4633 Y-9.6938 I17.6867 J12.9157
G01 X-51.3214
G01 X-51.6634 Y-9.6487
G02 X-48.9473 Y-7.3000 I2.6756 J-0.3493
G01 X-22.9546
G02 X-20.4123 Y-8.9776 I0.0348 J-2.7123
G03 X-8.9776 Y-20.4123 I20.4009 J8.9662
G02 X-7.3000 Y-22.9545 I-1.0347 J-2.5074
G01 Y-48.9473
G02 X-10.5678 Y-51.6290 I-2.7023 J-0.0390
G02 X-51.6663 Y-10.3432 I10.5537 J51.6048
G02 X-51.6634 Y-9.6487 I2.5531 J0.3365
G01 X-51.3214 Y-9.6938
G00 X-51.3214 Y-9.6938 Z5.0000
G00 X-51.9608 Y-9.6095
G00 Z0.5000
G01 Z0.0000 F200
G02 X-48.9529 Y-7.0000 Z-1.5852 I2.9724 J-0.3878
G01 X-22.9491 Z-11.0498
G02 X-20.1407 Y-8.8501 Z-12.3485 I0.0305 J-3.0103
G03 X-19.9698 Y-9.2295 Z-12.5000 I20.1307 J8.8400
G03 X-8.8501 Y-20.1407 I19.9598 J9.2195 F1900
G02 X-7.0000 Y-22.9491 I-1.1602 J-2.7779
G01 Y-48.9529
G02 X-10.6242 Y-51.9238 I-3.0019 J-0.0340
G02 X-51.9641 Y-10.3813 I10.6094 J51.8980
G02 X-51.9608 Y-9.6095 I2.8372 J0.3740
G02 X-48.9529 Y-7.0000 I2.9724 J-0.3878
G01 X-22.9491
G02 X-20.1407 Y-8.8501 I0.0305 J-3.0103
G03 X-19.9698 Y-9.2295 I20.1307 J8.8400
G00 Z5.0000

(Nr. 6 Räumen linear: Tasche 1)
G00 X-51.3214 Y9.6938 Z5.0000
G00 Z0.5000
G01 Z0.0000 F200
G01 X-45.1395 Z-2.2500
G01 X-51.3214 Z-4.5000
G01 X-20.4633 F1900
G02 X-18.3294 Y13.2938 I19.9135 J-9.3709
G01 X-50.6357
G02 X-49.5514 Y16.8938 I46.5938 J-12.0709
G01 X-15.0745
G02 X-9.6273 Y20.4938 I14.8945 J-16.6159
G01 X-48.1739
G02 X-46.4773 Y24.0938 I44.2887 J-18.6729
G01 X-7.6450
G01 Y27.6938
G01 X-44.4264
G02 X-41.9720 Y31.2938 I42.6814 J-26.4629
G01 X-7.6450
G01 Y34.8938
G01 X-39.0271
G02 X-35.4810 Y38.4938 I37.0462 J-32.9453
G01 X-7.6450
G01 Y42.0938
G01 X-31.1285
G02 X-25.5490 Y45.6938 I30.1181 J-40.5554
G01 X-7.6450
G01 Y48.9410
G01 X-7.6532 Y49.1634
G01 X-7.6677 Y49.2938
G01 X-17.6334
G01 X-17.7469 Y49.6196
G02 X-10.3432 Y51.6663 I17.0703 J-47.3338
G02 X-7.3000 Y48.9473 I0.3422 J-2.6795
G01 Y22.9545
G02 X-8.9776 Y20.4123 I-2.7123 J-0.0348
G03 X-20.4123 Y8.9776 I8.9662 J-20.4010
G02 X-22.9545 Y7.3000 I-2.5074 J1.0347
G01 X-48.9473
G02 X-51.6290 Y10.5678 I-0.0390 J2.7023
G02 X-17.7469 Y49.6196 I51.6205 J-10.5627
G01 X-17.6334 Y49.2938
G00 Z5.0000
G00 X-51.3214 Y9.6938
G00 Z-4.0000
G01 Z-4.5000 F200
G01 X-45.1395 Z-6.7500
G01 X-51.3214 Z-9.0000
G01 X-20.4633 F1900
G02 X-18.3294 Y13.2938 I19.9135 J-9.3709
G01 X-50.6357
G02 X-49.5514 Y16.8938 I46.5938 J-12.0709
G01 X-15.0745
G02 X-9.6273 Y20.4938 I14.8945 J-16.6159
G01 X-48.1739
G02 X-46.4773 Y24.0938 I44.2887 J-18.6729
G01 X-7.6450
G01 Y27.6938
G01 X-44.4264
G02 X-41.9720 Y31.2938 I42.6814 J-26.4629
G01 X-7.6450
G01 Y34.8938
G01 X-39.0271
G02 X-35.4810 Y38.4938 I37.0462 J-32.9453
G01 X-7.6450
G01 Y42.0938
G01 X-31.1285
G02 X-25.5490 Y45.6938 I30.1181 J-40.5554
G01 X-7.6450
G01 Y48.9410
G01 X-7.6532 Y49.1634
G01 X-7.6677 Y49.2938
G01 X-17.6334
G01 X-17.7469 Y49.6196
G02 X-10.3432 Y51.6663 I17.0703 J-47.3338
G02 X-7.3000 Y48.9473 I0.3422 J-2.6795
G01 Y22.9545
G02 X-8.9776 Y20.4123 I-2.7123 J-0.0348
G03 X-20.4123 Y8.9776 I8.9662 J-20.4010
G02 X-22.9545 Y7.3000 I-2.5074 J1.0347
G01 X-48.9473
G02 X-51.6290 Y10.5678 I-0.0390 J2.7023
G02 X-17.7469 Y49.6196 I51.6205 J-10.5627
G01 X-17.6334 Y49.2938
G00 Z5.0000
G00 X-51.3214 Y9.6938
G00 Z-8.5000
G01 Z-9.0000 F200
G01 X-46.5133 Z-10.7500
G01 X-51.3214 Z-12.5000
G01 X-20.4633 F1900
G02 X-18.3294 Y13.2938 I19.9135 J-9.3709
G01 X-50.6357
G02 X-49.5514 Y16.8938 I46.5938 J-12.0709
G01 X-15.0745
G02 X-9.6273 Y20.4938 I14.8945 J-16.6159
G01 X-48.1739
G02 X-46.4773 Y24.0938 I44.2887 J-18.6729
G01 X-7.6450
G01 Y27.6938
G01 X-44.4264
G02 X-41.9720 Y31.2938 I42.6814 J-26.4629
G01 X-7.6450
G01 Y34.8938
G01 X-39.0271
G02 X-35.4810 Y38.4938 I37.0462 J-32.9453
G01 X-7.6450
G01 Y42.0938
G01 X-31.1285
G02 X-25.5490 Y45.6938 I30.1181 J-40.5554
G01 X-7.6450
G01 Y48.9410
G01 X-7.6532 Y49.1634
G01 X-7.6677 Y49.2938
G01 X-17.6334
G01 X-17.7469 Y49.6196
G02 X-10.3432 Y51.6663 I17.0703 J-47.3338
G02 X-7.3000 Y48.9473 I0.3422 J-2.6795
G01 Y22.9545
G02 X-8.9776 Y20.4123 I-2.7123 J-0.0348
G03 X-20.4123 Y8.9776 I8.9662 J-20.4010
G02 X-22.9545 Y7.3000 I-2.5074 J1.0347
G01 X-48.9473
G02 X-51.6290 Y10.5678 I-0.0390 J2.7023
G02 X-17.7469 Y49.6196 I51.6205 J-10.5627
G01 X-17.6334 Y49.2938
G00 X-17.6334 Y49.2938 Z5.0000
G00 X-17.8455 Y49.9029
G00 Z0.5000
G01 Z0.0000 F200
G02 X-10.3813 Y51.9641 Z-2.8212 I17.1358 J-47.5076
G02 X-7.0000 Y48.9529 Z-4.6883 I0.3805 J-2.9768
G01 Y27.4905 Z-12.5000
G01 Y22.9491 F1900
G02 X-8.8501 Y20.1407 I-3.0103 J-0.0305
G03 X-20.1408 Y8.8501 I8.8401 J-20.1308
G02 X-22.9491 Y7.0000 I-2.7779 J1.1602
G01 X-48.9529
G02 X-51.9238 Y10.6242 I-0.0340 J3.0019
G02 X-17.8455 Y49.9029 I51.9152 J-10.6192
G02 X-10.3813 Y51.9641 I17.1358 J-47.5076
G02 X-7.0000 Y48.9529 I0.3805 J-2.9768
G01 Y27.4905
G00 Z5.0000

(Nr. 7 Teil schruppen und schlichten: Teil 1)
G00 X-20.9612 Y64.4958 Z5.0000
G00 Z0.5000
G01 Z0.0000 F200
G03 X-26.0342 Y70.2228 Z-2.7940 I-22.6004 J-14.9093
G03 X-28.5694 Y70.7494 Z-3.7935 I-1.6605 J-1.6283
G03 X-30.3602 Y70.0004 Z-4.5000 I24.6388 J-61.4288
G03 X-31.5084 Y69.4873 I26.4296 J-60.6798 F1900
G03 X-32.7654 Y67.3458 I1.0711 J-2.0683
G03 X-32.1782 Y59.9101 I27.2401 J-1.5898
G01 X-32.1406 Y59.7166
G03 X-38.1546 Y64.4457 I-19.5750 J-18.7051
G03 X-40.7431 Y64.5111 I-1.3431 J-1.8986
G03 X-43.4095 Y62.7446 I35.2007 J-56.0260
G03 X-44.2639 Y60.4130 I1.4232 J-1.8438
G03 X-42.3584 Y53.2017 I27.0867 J3.2997
G01 X-42.2868 Y53.0179
G03 X-49.0487 Y56.5973 I-15.9204 J-21.8995
G03 X-51.6073 Y56.1994 I-0.9824 J-2.1080
G03 X-53.9153 Y53.9852 I44.6692 J-48.8722
G03 X-54.3397 Y51.5385 I1.7296 J-1.5601
G03 X-51.1772 Y44.7834 I26.0619 J8.0832
G01 X-51.0740 Y44.6153
G03 X-58.3663 Y46.9297 I-11.7542 J-24.3904
G03 X-60.8127 Y46.0815 I-0.5902 J-2.2495
G03 X-62.6883 Y43.4907 I52.6620 J-40.0993
G03 X-62.6690 Y41.0076 I1.9803 J-1.2262
G03 X-58.3511 Y34.9256 I24.1995 J12.6066
G01 X-58.2195 Y34.7787
G03 X-65.8079 Y35.7538 I-7.2103 J-26.0967
G03 X-68.0636 Y34.4824 I-0.1791 J-2.3187
G03 X-69.4465 Y31.5983 I58.9588 J-30.0434
G03 X-68.9841 Y29.1586 I2.1674 J-0.8529
G03 X-63.6496 Y23.9453 I21.5598 J16.7251
G01 X-63.4940 Y23.8243
G03 X-71.1345 Y23.4288 I-2.4346 J-26.9651
G03 X-73.1268 Y21.7750 I0.2378 J-2.3135
G03 X-73.9725 Y18.6904 I63.3762 J-19.0333
G03 X-73.0819 Y16.3724 I2.2849 J-0.4522
G03 X-66.9024 Y12.1955 I18.2268 J20.3058
G01 X-66.7275 Y12.1042
G03 X-74.1747 Y10.3507 I2.4195 J-26.9670
G03 X-75.8397 Y8.3678 I0.6471 J-2.2338
G03 X-76.1210 Y5.1817 I65.7396 J-7.4098
G03 X-74.8309 Y3.0600 I2.3290 J-0.0369
G03 X-68.0048 Y0.0536 I14.3083 J23.2345
G01 X-67.8165 Y-0.0050
G03 X-74.8309 Y-3.0600 I7.1957 J-26.1017
G03 X-76.1151 Y-5.3084 I1.0356 J-2.0824
G03 X-75.8230 Y-8.4935 I66.0234 J4.4492
G03 X-74.1747 Y-10.3507 I2.2981 J0.3795
G03 X-66.9215 Y-12.0900 I9.9297 J25.4160
G01 X-66.7258 Y-12.1140
G03 X-73.0819 Y-16.3724 I11.7405 J-24.3968
G03 X-73.9440 Y-18.8140 I1.3907 J-1.8640
G03 X-73.0879 Y-21.8957 I64.1892 J16.1725
G03 X-71.1345 Y-23.4288 I2.1934 J0.7838
G03 X-63.6873 Y-23.8450 I5.2320 J26.7809
G01 X-63.4904 Y-23.8337
G03 X-68.9841 Y-29.1586 I15.9083 J-21.9088
G03 X-69.3964 Y-31.7148 I1.7012 J-1.5857
G03 X-68.0037 Y-34.5942 I60.2403 J27.3596
G03 X-65.8080 Y-35.7538 I2.0182 J1.1628
G03 X-58.4061 Y-34.8336 I0.3661 J27.2839
G01 X-58.2144 Y-34.7873
G03 X-62.6690 Y-41.0076 I19.5634 J-18.7154
G03 X-62.6182 Y-43.5964 I1.9570 J-1.2565
G03 X-60.7338 Y-46.1808 I54.4106 J37.6936
G03 X-58.3663 Y-46.9297 I1.7782 J1.5045
G03 X-51.2478 Y-44.7026 I-4.5116 J26.9108
G01 X-51.0673 Y-44.6228
G03 X-54.3397 Y-51.5385 I22.5917 J-14.9219
G03 X-53.8275 Y-54.0767 I2.1499 J-0.8869
G03 X-51.5119 Y-56.2831 I46.8070 J46.8044
G03 X-49.0487 Y-56.5973 I1.4809 J1.7978
G03 X-42.4422 Y-53.1349 I-9.2439 J25.6724
G01 X-42.2790 Y-53.0242
G03 X-44.2639 Y-60.4130 I24.8932 J-10.6481
G03 X-43.3067 Y-62.8189 I2.2737 J-0.4887
G03 X-40.6343 Y-64.5764 I37.6839 J54.3896
G03 X-38.1546 Y-64.4457 I1.1361 J2.0334
G03 X-32.2725 Y-59.8593 I-13.6800 J23.6099
G01 X-32.1317 Y-59.7213
G03 X-32.7654 Y-67.3458 I26.3939 J-6.0322
G03 X-31.3940 Y-69.5421 I2.3244 J-0.0749
G03 X-28.4508 Y-70.7942 I27.3658 J60.2422
G03 X-26.0343 Y-70.2228 I0.7548 J2.2036
G03 X-21.0656 Y-64.6599 I-17.6763 J20.7883
G01 X-20.9517 Y-64.4987
G03 X-20.2138 Y-72.1140 I27.0468 J-1.2226
G03 X-18.4723 Y-74.0301 I2.3005 J0.3414
G03 X-15.3528 Y-74.7366 I16.1720 J64.1719
G03 X-13.0771 Y-73.7429 I0.3492 J2.3029
G03 X-9.1816 Y-67.3821 I-21.1034 J17.2976
G01 X-9.0983 Y-67.2035
G03 X-7.0125 Y-74.5644 I26.8314 J3.6270
G03 X-4.9569 Y-76.1388 I2.2026 J0.7466
G03 X-1.7613 Y-76.2769 I4.4536 J66.0200
G03 X0.3003 Y-74.8928 I-0.0676 J2.3282
G03 X2.9975 Y-67.9387 I-23.8528 J13.2515
G01 X3.0476 Y-67.7480
G03 X6.4142 Y-74.6183 I25.7523 J8.3594
G03 X8.7179 Y-75.8003 I2.0338 J1.1279
G03 X11.8867 Y-75.3656 I-7.4104 J65.7842
G03 X13.6681 Y-73.6356 I-0.4822 J2.2788
G03 X15.0802 Y-66.3117 I-25.8354 J8.7793
G01 X15.0955 Y-66.1151
G03 X19.6347 Y-72.2738 I23.8459 J12.8234
G03 X22.1125 Y-73.0255 I1.7998 J1.4729
G03 X25.1528 Y-72.0319 I-19.0319 J63.3862
G03 X26.5966 Y-70.0118 I-0.8814 J2.1560
G03 X26.6783 Y-62.5533 I-26.9887 J4.0252
G01 X26.6581 Y-62.3571
G03 X32.2242 Y-67.6064 I21.1723 J16.8743
G03 X34.7964 Y-67.9036 I1.5079 J1.7706
G03 X37.6103 Y-66.3832 I-30.0444 J58.9701
G03 X38.6703 Y-64.1376 I-1.2522 J1.9640
G03 X37.4189 Y-56.7846 I-27.2734 J-0.8584
G01 X37.3641 Y-56.5951
G03 X43.7779 Y-60.7661 I17.8197 J20.3849
G03 X46.3618 Y-60.5992 I1.1674 J2.0114
G03 X48.8591 Y-58.6008 I-40.1031 J52.6724
G03 X49.5011 Y-56.2021 I-1.5827 J1.7089
G03 X46.9568 Y-49.1905 I-26.6820 J-5.7146
G01 X46.8691 Y-49.0140
G03 X53.9246 Y-51.9727 I13.8934 J23.2386
G03 X56.4372 Y-51.3472 I0.7895 J2.1875
G03 X58.5375 Y-48.9349 I-48.8700 J44.6710
G03 X58.7408 Y-46.4601 I-1.8624 J1.3988
G03 X54.9855 Y-40.0156 I-25.2324 J-10.3867
G01 X54.8676 Y-39.8575
G03 X62.3381 Y-41.5089 I9.5207 J25.3456
G03 X64.6986 Y-40.4448 I0.3862 J2.2934
G03 X66.3344 Y-37.6962 I-56.0442 J35.2172
G03 X66.0926 Y-35.2249 I-2.0823 J1.0438
G03 X61.2469 Y-29.5545 I-22.9723 J-14.7253
G01 X61.1027 Y-29.4200
G03 X68.7480 Y-29.7109 I4.8419 J26.6380
G03 X70.8805 Y-28.2424 I-0.0295 J2.3255
G03 X71.9993 Y-25.2460 I-61.4292 J24.6431
G03 X71.3201 Y-22.8575 I-2.2352 J0.6552
G03 X65.5398 Y-18.1434 I-19.9738 J-18.5905
G01 X65.3740 Y-18.0369
G03 X72.9482 Y-16.9580 I0.0075 J27.0754
G03 X74.7843 Y-15.1323 I-0.4442 J2.2828
G03 X75.3501 Y-11.9843 I-64.8534 J13.2804
G03 X74.2553 Y-9.7555 I-2.3162 J0.2455
G03 X67.7262 Y-6.1493 I-16.3333 J-21.8582
G01 X67.5439 Y-6.0740
G03 X74.8040 Y-3.6601 I-4.8267 J26.6409
G03 X76.2845 Y-1.5359 I-0.8447 J2.1668
G03 X76.2791 Y1.6626 I-66.1521 J1.4871
G03 X74.8039 Y3.6601 I-2.3229 J-0.1720
G03 X67.7358 Y6.0425 I-12.1679 J-24.4234
G01 X67.5430 Y6.0840
G03 X74.2554 Y9.7555 I-9.5057 J25.3503
G03 X75.3328 Y12.1099 I-1.2180 J1.9812
G03 X74.7564 Y15.2560 I-65.3841 J-10.3541
G03 X72.9483 Y16.9580 I-2.2548 J-0.5840
G03 X65.5683 Y18.0401 I-7.6115 J-26.2036
G01 X65.3713 Y18.0465
G03 X71.3201 Y22.8575 I-13.8798 J23.2459
G03 X71.9599 Y25.3665 I-1.5522 J1.7318
G03 X70.8309 Y28.3591 I-62.4513 J-21.8501
G03 X68.7480 Y29.7109 I-2.1143 J-0.9772
G03 X61.2934 Y29.4579 I-2.8103 J-27.1414
G01 X61.0984 Y29.4290
G03 X66.0926 Y35.2249 I-17.8075 J20.3942
G03 X66.2741 Y37.8078 I-1.8365 J1.4269
G03 X64.6289 Y40.5507 I-57.5508 J-32.6530
G03 X62.3381 Y41.5089 I-1.9058 J-1.3391
G03 X55.0485 Y39.9289 I2.0811 J-27.2071
G01 X54.8617 Y39.8656
G03 X58.7408 Y46.4601 I-21.1633 J16.8870
G03 X58.4582 Y49.0339 I-2.0618 J1.0760
G03 X56.3497 Y51.4390 I-50.8089 J-42.4157
G03 X53.9246 Y51.9727 I-1.6361 J-1.6578
G03 X47.0343 Y49.1165 I6.9057 J-26.3983
G01 X46.8618 Y49.0209
G03 X49.5011 Y56.2021 I-23.8385 J12.8367
G03 X48.7634 Y58.6840 I-2.2208 J0.6906
G03 X46.2594 Y60.6740 I-42.4290 J-50.8193
G03 X43.7779 Y60.7661 I-1.3138 J-1.9233
G03 X37.5084 Y56.7255 I11.5084 J-24.7411
G01 X37.3557 Y56.6006
G03 X38.6703 Y64.1376 I-25.7473 J8.3739
G03 X37.5013 Y66.4480 I-2.3084 J0.2830
G03 X34.6822 Y67.9589 I-32.6591 J-57.5528
G03 X32.2242 Y67.6064 I-0.9493 J-2.1270
G03 X26.7768 Y62.5112 I15.7413 J-22.2887
G01 X26.6490 Y62.3611
G03 X26.5966 Y70.0118 I-26.8288 J3.6420
G03 X25.0339 Y72.0763 I-2.3218 J-0.1338
G03 X21.9903 Y73.0595 I-21.8687 J-62.4927
G03 X19.6347 Y72.2738 I-0.5542 J-2.2623
G03 X15.1847 Y66.2879 I19.4685 J-19.1201
G01 X15.0857 Y66.1173
G03 X13.6681 Y73.6356 I-27.0475 J-1.2070
G03 X11.7619 Y75.3879 I-2.2606 J-0.5462
G03 X8.5916 Y75.8119 I-10.3559 J-65.3707
G03 X6.4142 Y74.6182 I-0.1414 J-2.3249
G03 X3.1045 Y67.9339 I22.5696 J-15.3366
G01 X3.0376 Y67.7484
G03 X0.3003 Y74.8928 I-26.3971 J-6.0170
G03 X-1.8881 Y76.2766 I-2.1267 J-0.9411
G03 X-5.0832 Y76.1277 I1.4831 J-66.1717
G03 X-7.0125 Y74.5644 I0.2760 J-2.3128
G03 X-9.0754 Y67.3966 I24.9452 J-11.0601
G01 X-9.1082 Y67.2020
G03 X-13.0771 Y73.7429 I-24.8987 J-10.6337
G03 X-15.4775 Y74.7137 I-1.9245 J-1.3057
G03 X-18.5946 Y73.9967 I13.2767 J-64.8518
G03 X-20.2138 Y72.1140 I0.6846 J-2.2264
G03 X-20.9637 Y64.6929 I26.5190 J-6.4282
G01 X-20.9612 Y64.4958
G03 X-26.0342 Y70.2228 Z-7.2940 I-22.6004 J-14.9093 F200
G03 X-28.5694 Y70.7494 Z-8.2935 I-1.6605 J-1.6283
G03 X-30.3602 Y70.0004 Z-9.0000 I24.6388 J-61.4288
G03 X-31.5084 Y69.4873 I26.4296 J-60.6798 F1900
G03 X-32.7654 Y67.3458 I1.0711 J-2.0683
G03 X-32.1782 Y59.9101 I27.2401 J-1.5898
G01 X-32.1406 Y59.7166
G03 X-38.1546 Y64.4457 I-19.5750 J-18.7051
G03 X-40.7431 Y64.5111 I-1.3431 J-1.8986
G03 X-43.4095 Y62.7446 I35.2007 J-56.0260
G03 X-44.2639 Y60.4130 I1.4232 J-1.8438
G03 X-42.3584 Y53.2017 I27.0867 J3.2997
G01 X-42.2868 Y53.0179
G03 X-49.0487 Y56.5973 I-15.9204 J-21.8995
G03 X-51.6073 Y56.1994 I-0.9824 J-2.1080
G03 X-53.9153 Y53.9852 I44.6692 J-48.8722
G03 X-54.3397 Y51.5385 I1.7296 J-1.5601
G03 X-51.1772 Y44.7834 I26.0619 J8.0832
G01 X-51.0740 Y44.6153
G03 X-58.3663 Y46.9297 I-11.7542 J-24.3904
G03 X-60.8127 Y46.0815 I-0.5902 J-2.2495
G03 X-62.6883 Y43.4907 I52.6620 J-40.0993
G03 X-62.6690 Y41.0076 I1.9803 J-1.2262
G03 X-58.3511 Y34.9256 I24.1995 J12.6066
G01 X-58.2195 Y34.7787
G03 X-65.8079 Y35.7538 I-7.2103 J-26.0967
G03 X-68.0636 Y34.4824 I-0.1791 J-2.3187
G03 X-69.4465 Y31.5983 I58.9588 J-30.0434
G03 X-68.9841 Y29.1586 I2.1674 J-0.8529
G03 X-63.6496 Y23.9453 I21.5598 J16.7251
G01 X-63.4940 Y23.8243
G03 X-71.1345 Y23.4288 I-2.4346 J-26.9651
G03 X-73.1268 Y21.7750 I0.2378 J-2.3135
G03 X-73.9725 Y18.6904 I63.3762 J-19.0333
G03 X-73.0819 Y16.3724 I2.2849 J-0.4522
G03 X-66.9024 Y12.1955 I18.2268 J20.3058
G01 X-66.7275 Y12.1042
G03 X-74.1747 Y10.3507 I2.4195 J-26.9670
G03 X-75.8397 Y8.3678 I0.6471 J-2.2338
G03 X-76.1210 Y5.1817 I65.7396 J-7.4098
G03 X-74.8309 Y3.0600 I2.3290 J-0.0369
G03 X-68.0048 Y0.0536 I14.3083 J23.2345
G01 X-67.8165 Y-0.0050
G03 X-74.8309 Y-3.0600 I7.1957 J-26.1017
G03 X-76.1151 Y-5.3084 I1.0356 J-2.0824
G03 X-75.8230 Y-8.4935 I66.0234 J4.4492
G03 X-74.1747 Y-10.3507 I2.2981 J0.3795
G03 X-66.9215 Y-12.0900 I9.9297 J25.4160
G01 X-66.7258 Y-12.1140
G03 X-73.0819 Y-16.3724 I11.7405 J-24.3968
G03 X-73.9440 Y-18.8140 I1.3907 J-1.8640
G03 X-73.0879 Y-21.8957 I64.1892 J16.1725
G03 X-71.1345 Y-23.4288 I2.1934 J0.7838
G03 X-63.6873 Y-23.8450 I5.2320 J26.7809
G01 X-63.4904 Y-23.8337
G03 X-68.9841 Y-29.1586 I15.9083 J-21.9088
G03 X-69.3964 Y-31.7148 I1.7012 J-1.5857
G03 X-68.0037 Y-34.5942 I60.2403 J27.3596
G03 X-65.8080 Y-35.7538 I2.0182 J1.1628
G03 X-58.4061 Y-34.8336 I0.3661 J27.2839
G01 X-58.2144 Y-34.7873
G03 X-62.6690 Y-41.0076 I19.5634 J-18.7154
G03 X-62.6182 Y-43.5964 I1.9570 J-1.2565
G03 X-60.7338 Y-46.1808 I54.4106 J37.6936
G03 X-58.3663 Y-46.9297 I1.7782 J1.5045
G03 X-51.2478 Y-44.7026 I-4.5116 J26.9108
G01 X-51.0673 Y-44.6228
G03 X-54.3397 Y-51.5385 I22.5917 J-14.9219
G03 X-53.8275 Y-54.0767 I2.1499 J-0.8869
G03 X-51.5119 Y-56.2831 I46.8070 J46.8044
G03 X-49.0487 Y-56.5973 I1.4809 J1.7978
G03 X-42.4422 Y-53.1349 I-9.2439 J25.6724
G01 X-42.2790 Y-53.0242
G03 X-44.2639 Y-60.4130 I24.8932 J-10.6481
G03 X-43.3067 Y-62.8189 I2.2737 J-0.4887
G03 X-40.6343 Y-64.5764 I37.6839 J54.3896
G03 X-38.1546 Y-64.4457 I1.1361 J2.0334
G03 X-32.2725 Y-59.8593 I-13.6800 J23.6099
G01 X-32.1317 Y-59.7213
G03 X-32.7654 Y-67.3458 I26.3939 J-6.0322
G03 X-31.3940 Y-69.5421 I2.3244 J-0.0749
G03 X-28.4508 Y-70.7942 I27.3658 J60.2422
G03 X-26.0343 Y-70.2228 I0.7548 J2.2036
G03 X-21.0656 Y-64.6599 I-17.6763 J20.7883
G01 X-20.9517 Y-64.4987
G03 X-20.2138 Y-72.1140 I27.0468 J-1.2226
G03 X-18.4723 Y-74.0301 I2.3005 J0.3414
G03 X-15.3528 Y-74.7366 I16.1720 J64.1719
G03 X-13.0771 Y-73.7429 I0.3492 J2.3029
G03 X-9.1816 Y-67.3821 I-21.1034 J17.2976
G01 X-9.0983 Y-67.2035
G03 X-7.0125 Y-74.5644 I26.8314 J3.6270
G03 X-4.9569 Y-76.1388 I2.2026 J0.7466
G03 X-1.7613 Y-76.2769 I4.4536 J66.0200
G03 X0.3003 Y-74.8928 I-0.0676 J2.3282
G03 X2.9975 Y-67.9387 I-23.8528 J13.2515
G01 X3.0476 Y-67.7480
G03 X6.4142 Y-74.6183 I25.7523 J8.3594
G03 X8.7179 Y-75.8003 I2.0338 J1.1279
G03 X11.8867 Y-75.3656 I-7.4104 J65.7842
G03 X13.6681 Y-73.6356 I-0.4822 J2.2788
G03 X15.0802 Y-66.3117 I-25.8354 J8.7793
G01 X15.0955 Y-66.1151
G03 X19.6347 Y-72.2738 I23.8459 J12.8234
G03 X22.1125 Y-73.0255 I1.7998 J1.4729
G03 X25.1528 Y-72.0319 I-19.0319 J63.3862
G03 X26.5966 Y-70.0118 I-0.8814 J2.1560
G03 X26.6783 Y-62.5533 I-26.9887 J4.0252
G01 X26.6581 Y-62.3571
G03 X32.2242 Y-67.6064 I21.1723 J16.8743
G03 X34.7964 Y-67.9036 I1.5079 J1.7706
G03 X37.6103 Y-66.3832 I-30.0444 J58.9701
G03 X38.6703 Y-64.1376 I-1.2522 J1.9640
G03 X37.4189 Y-56.7846 I-27.2734 J-0.8584
G01 X37.3641 Y-56.5951
G03 X43.7779 Y-60.7661 I17.8197 J20.3849
G03 X46.3618 Y-60.5992 I1.1674 J2.0114
G03 X48.8591 Y-58.6008 I-40.1031 J52.6724
G03 X49.5011 Y-56.2021 I-1.5827 J1.7089
G03 X46.9568 Y-49.1905 I-26.6820 J-5.7146
G01 X46.8691 Y-49.0140
G03 X53.9246 Y-51.9727 I13.8934 J23.2386
G03 X56.4372 Y-51.3472 I0.7895 J2.1875
G03 X58.5375 Y-48.9349 I-48.8700 J44.6710
G03 X58.7408 Y-46.4601 I-1.8624 J1.3988
G03 X54.9855 Y-40.0156 I-25.2324 J-10.3867
G01 X54.8676 Y-39.8575
G03 X62.3381 Y-41.5089 I9.5207 J25.3456
G03 X64.6986 Y-40.4448 I0.3862 J2.2934
G03 X66.3344 Y-37.6962 I-56.0442 J35.2172
G03 X66.0926 Y-35.2249 I-2.0823 J1.0438
G03 X61.2469 Y-29.5545 I-22.9723 J-14.7253
G01 X61.1027 Y-29.4200
G03 X68.7480 Y-29.7109 I4.8419 J26.6380
G03 X70.8805 Y-28.2424 I-0.0295 J2.3255
G03 X71.9993 Y-25.2460 I-61.4292 J24.6431
G03 X71.3201 Y-22.8575 I-2.2352 J0.6552
G03 X65.5398 Y-18.1434 I-19.9738 J-18.5905
G01 X65.3740 Y-18.0369
G03 X72.9482 Y-16.9580 I0.0075 J27.0754
G03 X74.7843 Y-15.1323 I-0.4442 J2.2828
G03 X75.3501 Y-11.9843 I-64.8534 J13.2804
G03 X74.2553 Y-9.7555 I-2.3162 J0.2455
G03 X67.7262 Y-6.1493 I-16.3333 J-21.8582
G01 X67.5439 Y-6.0740
G03 X74.8040 Y-3.6601 I-4.8267 J26.6409
G03 X76.2845 Y-1.5359 I-0.8447 J2.1668
G03 X76.2791 Y1.6626 I-66.1521 J1.4871
G03 X74.8039 Y3.6601 I-2.3229 J-0.1720
G03 X67.7358 Y6.0425 I-12.1679 J-24.4234
G01 X67.5430 Y6.0840
G03 X74.2554 Y9.7555 I-9.5057 J25.3503
G03 X75.3328 Y12.1099 I-1.2180 J1.9812
G03 X74.7564 Y15.2560 I-65.3841 J-10.3541
G03 X72.9483 Y16.9580 I-2.2548 J-0.5840
G03 X65.5683 Y18.0401 I-7.6115 J-26.2036
G01 X65.3713 Y18.0465
G03 X71.3201 Y22.8575 I-13.8798 J23.2459
G03 X71.9599 Y25.3665 I-1.5522 J1.7318
G03 X70.8309 Y28.3591 I-62.4513 J-21.8501
G03 X68.7480 Y29.7109 I-2.1143 J-0.9772
G03 X61.2934 Y29.4579 I-2.8103 J-27.1414
G01 X61.0984 Y29.4290
G03 X66.0926 Y35.2249 I-17.8075 J20.3942
G03 X66.2741 Y37.8078 I-1.8365 J1.4269
G03 X64.6289 Y40.5507 I-57.5508 J-32.6530
G03 X62.3381 Y41.5089 I-1.9058 J-1.3391
G03 X55.0485 Y39.9289 I2.0811 J-27.2071
G01 X54.8617 Y39.8656
G03 X58.7408 Y46.4601 I-21.1633 J16.8870
G03 X58.4582 Y49.0339 I-2.0618 J1.0760
G03 X56.3497 Y51.4390 I-50.8089 J-42.4157
G03 X53.9246 Y51.9727 I-1.6361 J-1.6578
G03 X47.0343 Y49.1165 I6.9057 J-26.3983
G01 X46.8618 Y49.0209
G03 X49.5011 Y56.2021 I-23.8385 J12.8367
G03 X48.7634 Y58.6840 I-2.2208 J0.6906
G03 X46.2594 Y60.6740 I-42.4290 J-50.8193
G03 X43.7779 Y60.7661 I-1.3138 J-1.9233
G03 X37.5084 Y56.7255 I11.5084 J-24.7411
G01 X37.3557 Y56.6006
G03 X38.6703 Y64.1376 I-25.7473 J8.3739
G03 X37.5013 Y66.4480 I-2.3084 J0.2830
G03 X34.6822 Y67.9589 I-32.6591 J-57.5528
G03 X32.2242 Y67.6064 I-0.9493 J-2.1270
G03 X26.7768 Y62.5112 I15.7413 J-22.2887
G01 X26.6490 Y62.3611
G03 X26.5966 Y70.0118 I-26.8288 J3.6420
G03 X25.0339 Y72.0763 I-2.3218 J-0.1338
G03 X21.9903 Y73.0595 I-21.8687 J-62.4927
G03 X19.6347 Y72.2738 I-0.5542 J-2.2623
G03 X15.1847 Y66.2879 I19.4685 J-19.1201
G01 X15.0857 Y66.1173
G03 X13.6681 Y73.6356 I-27.0475 J-1.2070
G03 X11.7619 Y75.3879 I-2.2606 J-0.5462
G03 X8.5916 Y75.8119 I-10.3559 J-65.3707
G03 X6.4142 Y74.6182 I-0.1414 J-2.3249
G03 X3.1045 Y67.9339 I22.5696 J-15.3366
G01 X3.0376 Y67.7484
G03 X0.3003 Y74.8928 I-26.3971 J-6.0170
G03 X-1.8881 Y76.2766 I-2.1267 J-0.9411
G03 X-5.0832 Y76.1277 I1.4831 J-66.1717
G03 X-7.0125 Y74.5644 I0.2760 J-2.3128
G03 X-9.0754 Y67.3966 I24.9452 J-11.0601
G01 X-9.1082 Y67.2020
G03 X-13.0771 Y73.7429 I-24.8987 J-10.6337
G03 X-15.4775 Y74.7137 I-1.9245 J-1.3057
G03 X-18.5946 Y73.9967 I13.2767 J-64.8518
G03 X-20.2138 Y72.1140 I0.6846 J-2.2264
G03 X-20.9637 Y64.6929 I26.5190 J-6.4282
G01 X-20.9612 Y64.4958
G03 X-26.0342 Y70.2228 Z-11.7940 I-22.6004 J-14.9093 F200
G03 X-27.7852 Y70.9184 Z-12.5000 I-1.6605 J-1.6283
G03 X-28.5694 Y70.7494 I0.0904 J-2.3239 F1900
G03 X-31.5084 Y69.4873 I24.6388 J-61.4288
G03 X-32.7654 Y67.3458 I1.0711 J-2.0683
G03 X-32.1782 Y59.9101 I27.2401 J-1.5898
G01 X-32.1406 Y59.7166
G03 X-38.1546 Y64.4457 I-19.5750 J-18.7051
G03 X-40.7431 Y64.5111 I-1.3431 J-1.8986
G03 X-43.4095 Y62.7446 I35.2007 J-56.0260
G03 X-44.2639 Y60.4130 I1.4232 J-1.8438
G03 X-42.3584 Y53.2017 I27.0867 J3.2997
G01 X-42.2868 Y53.0179
G03 X-49.0487 Y56.5973 I-15.9204 J-21.8995
G03 X-51.6073 Y56.1994 I-0.9824 J-2.1080
G03 X-53.9153 Y53.9852 I44.6692 J-48.8722
G03 X-54.3397 Y51.5385 I1.7296 J-1.5601
G03 X-51.1772 Y44.7834 I26.0619 J8.0832
G01 X-51.0740 Y44.6153
G03 X-58.3663 Y46.9297 I-11.7542 J-24.3904
G03 X-60.8127 Y46.0815 I-0.5902 J-2.2495
G03 X-62.6883 Y43.4907 I52.6620 J-40.0993
G03 X-62.6690 Y41.0076 I1.9803 J-1.2262
G03 X-58.3511 Y34.9256 I24.1995 J12.6066
G01 X-58.2195 Y34.7787
G03 X-65.8079 Y35.7538 I-7.2103 J-26.0967
G03 X-68.0636 Y34.4824 I-0.1791 J-2.3187
G03 X-69.4465 Y31.5983 I58.9588 J-30.0434
G03 X-68.9841 Y29.1586 I2.1674 J-0.8529
G03 X-63.6496 Y23.9453 I21.5598 J16.7251
G01 X-63.4940 Y23.8243
G03 X-71.1345 Y23.4288 I-2.4346 J-26.9651
G03 X-73.1268 Y21.7750 I0.2378 J-2.3135
G03 X-73.9725 Y18.6904 I63.3762 J-19.0333
G03 X-73.0819 Y16.3724 I2.2849 J-0.4522
G03 X-66.9024 Y12.1955 I18.2268 J20.3058
G01 X-66.7275 Y12.1042
G03 X-74.1747 Y10.3507 I2.4195 J-26.9670
G03 X-75.8397 Y8.3678 I0.6471 J-2.2338
G03 X-76.1210 Y5.1817 I65.7396 J-7.4098
G03 X-74.8309 Y3.0600 I2.3290 J-0.0369
G03 X-68.0048 Y0.0536 I14.3083 J23.2345
G01 X-67.8165 Y-0.0050
G03 X-74.8309 Y-3.0600 I7.1957 J-26.1017
G03 X-76.1151 Y-5.3084 I1.0356 J-2.0824
G03 X-75.8230 Y-8.4935 I66.0234 J4.4492
G03 X-74.1747 Y-10.3507 I2.2981 J0.3795
G03 X-66.9215 Y-12.0900 I9.9297 J25.4160
G01 X-66.7258 Y-12.1140
G03 X-73.0819 Y-16.3724 I11.7405 J-24.3968
G03 X-73.9440 Y-18.8140 I1.3907 J-1.8640
G03 X-73.0879 Y-21.8957 I64.1892 J16.1725
G03 X-71.1345 Y-23.4288 I2.1934 J0.7838
G03 X-63.6873 Y-23.8450 I5.2320 J26.7809
G01 X-63.4904 Y-23.8337
G03 X-68.9841 Y-29.1586 I15.9083 J-21.9088
G03 X-69.3964 Y-31.7148 I1.7012 J-1.5857
G03 X-68.0037 Y-34.5942 I60.2403 J27.3596
G03 X-65.8080 Y-35.7538 I2.0182 J1.1628
G03 X-58.4061 Y-34.8336 I0.3661 J27.2839
G01 X-58.2144 Y-34.7873
G03 X-62.6690 Y-41.0076 I19.5634 J-18.7154
G03 X-62.6182 Y-43.5964 I1.9570 J-1.2565
G03 X-60.7338 Y-46.1808 I54.4106 J37.6936
G03 X-58.3663 Y-46.9297 I1.7782 J1.5045
G03 X-51.2478 Y-44.7026 I-4.5116 J26.9108
G01 X-51.0673 Y-44.6228
G03 X-54.3397 Y-51.5385 I22.5917 J-14.9219
G03 X-53.8275 Y-54.0767 I2.1499 J-0.8869
G03 X-51.5119 Y-56.2831 I46.8070 J46.8044
G03 X-49.0487 Y-56.5973 I1.4809 J1.7978
G03 X-42.4422 Y-53.1349 I-9.2439 J25.6724
G01 X-42.2790 Y-53.0242
G03 X-44.2639 Y-60.4130 I24.8932 J-10.6481
G03 X-43.3067 Y-62.8189 I2.2737 J-0.4887
G03 X-40.6343 Y-64.5764 I37.6839 J54.3896
G03 X-38.1546 Y-64.4457 I1.1361 J2.0334
G03 X-32.2725 Y-59.8593 I-13.6800 J23.6099
G01 X-32.1317 Y-59.7213
G03 X-32.7654 Y-67.3458 I26.3939 J-6.0322
G03 X-31.3940 Y-69.5421 I2.3244 J-0.0749
G03 X-28.4508 Y-70.7942 I27.3658 J60.2422
G03 X-26.0343 Y-70.2228 I0.7548 J2.2036
G03 X-21.0656 Y-64.6599 I-17.6763 J20.7883
G01 X-20.9517 Y-64.4987
G03 X-20.2138 Y-72.1140 I27.0468 J-1.2226
G03 X-18.4723 Y-74.0301 I2.3005 J0.3414
G03 X-15.3528 Y-74.7366 I16.1720 J64.1719
G03 X-13.0771 Y-73.7429 I0.3492 J2.3029
G03 X-9.1816 Y-67.3821 I-21.1034 J17.2976
G01 X-9.0983 Y-67.2035
G03 X-7.0125 Y-74.5644 I26.8314 J3.6270
G03 X-4.9569 Y-76.1388 I2.2026 J0.7466
G03 X-1.7613 Y-76.2769 I4.4536 J66.0200
G03 X0.3003 Y-74.8928 I-0.0676 J2.3282
G03 X2.9975 Y-67.9387 I-23.8528 J13.2515
G01 X3.0476 Y-67.7480
G03 X6.4142 Y-74.6183 I25.7523 J8.3594
G03 X8.7179 Y-75.8003 I2.0338 J1.1279
G03 X11.8867 Y-75.3656 I-7.4104 J65.7842
G03 X13.6681 Y-73.6356 I-0.4822 J2.2788
G03 X15.0802 Y-66.3117 I-25.8354 J8.7793
G01 X15.0955 Y-66.1151
G03 X19.6347 Y-72.2738 I23.8459 J12.8234
G03 X22.1125 Y-73.0255 I1.7998 J1.4729
G03 X25.1528 Y-72.0319 I-19.0319 J63.3862
G03 X26.5966 Y-70.0118 I-0.8814 J2.1560
G03 X26.6783 Y-62.5533 I-26.9887 J4.0252
G01 X26.6581 Y-62.3571
G03 X32.2242 Y-67.6064 I21.1723 J16.8743
G03 X34.7964 Y-67.9036 I1.5079 J1.7706
G03 X37.6103 Y-66.3832 I-30.0444 J58.9701
G03 X38.6703 Y-64.1376 I-1.2522 J1.9640
G03 X37.4189 Y-56.7846 I-27.2734 J-0.8584
G01 X37.3641 Y-56.5951
G03 X43.7779 Y-60.7661 I17.8197 J20.3849
G03 X46.3618 Y-60.5992 I1.1674 J2.0114
G03 X48.8591 Y-58.6008 I-40.1031 J52.6724
G03 X49.5011 Y-56.2021 I-1.5827 J1.7089
G03 X46.9568 Y-49.1905 I-26.6820 J-5.7146
G01 X46.8691 Y-49.0140
G03 X53.9246 Y-51.9727 I13.8934 J23.2386
G03 X56.4372 Y-51.3472 I0.7895 J2.1875
G03 X58.5375 Y-48.9349 I-48.8700 J44.6710
G03 X58.7408 Y-46.4601 I-1.8624 J1.3988
G03 X54.9855 Y-40.0156 I-25.2324 J-10.3867
G01 X54.8676 Y-39.8575
G03 X62.3381 Y-41.5089 I9.5207 J25.3456
G03 X64.6986 Y-40.4448 I0.3862 J2.2934
G03 X66.3344 Y-37.6962 I-56.0442 J35.2172
G03 X66.0926 Y-35.2249 I-2.0823 J1.0438
G03 X61.2469 Y-29.5545 I-22.9723 J-14.7253
G01 X61.1027 Y-29.4200
G03 X68.7480 Y-29.7109 I4.8419 J26.6380
G03 X70.8805 Y-28.2424 I-0.0295 J2.3255
G03 X71.9993 Y-25.2460 I-61.4292 J24.6431
G03 X71.3201 Y-22.8575 I-2.2352 J0.6552
G03 X65.5398 Y-18.1434 I-19.9738 J-18.5905
G01 X65.3740 Y-18.0369
G03 X72.9482 Y-16.9580 I0.0075 J27.0754
G03 X74.7843 Y-15.1323 I-0.4442 J2.2828
G03 X75.3501 Y-11.9843 I-64.8534 J13.2804
G03 X74.2553 Y-9.7555 I-2.3162 J0.2455
G03 X67.7262 Y-6.1493 I-16.3333 J-21.8582
G01 X67.5439 Y-6.0740
G03 X74.8040 Y-3.6601 I-4.8267 J26.6409
G03 X76.2845 Y-1.5359 I-0.8447 J2.1668
G03 X76.2791 Y1.6626 I-66.1521 J1.4871
G03 X74.8039 Y3.6601 I-2.3229 J-0.1720
G03 X67.7358 Y6.0425 I-12.1679 J-24.4234
G01 X67.5430 Y6.0840
G03 X74.2554 Y9.7555 I-9.5057 J25.3503
G03 X75.3328 Y12.1099 I-1.2180 J1.9812
G03 X74.7564 Y15.2560 I-65.3841 J-10.3541
G03 X72.9483 Y16.9580 I-2.2548 J-0.5840
G03 X65.5683 Y18.0401 I-7.6115 J-26.2036
G01 X65.3713 Y18.0465
G03 X71.3201 Y22.8575 I-13.8798 J23.2459
G03 X71.9599 Y25.3665 I-1.5522 J1.7318
G03 X70.8309 Y28.3591 I-62.4513 J-21.8501
G03 X68.7480 Y29.7109 I-2.1143 J-0.9772
G03 X61.2934 Y29.4579 I-2.8103 J-27.1414
G01 X61.0984 Y29.4290
G03 X66.0926 Y35.2249 I-17.8075 J20.3942
G03 X66.2741 Y37.8078 I-1.8365 J1.4269
G03 X64.6289 Y40.5507 I-57.5508 J-32.6530
G03 X62.3381 Y41.5089 I-1.9058 J-1.3391
G03 X55.0485 Y39.9289 I2.0811 J-27.2071
G01 X54.8617 Y39.8656
G03 X58.7408 Y46.4601 I-21.1633 J16.8870
G03 X58.4582 Y49.0339 I-2.0618 J1.0760
G03 X56.3497 Y51.4390 I-50.8089 J-42.4157
G03 X53.9246 Y51.9727 I-1.6361 J-1.6578
G03 X47.0343 Y49.1165 I6.9057 J-26.3983
G01 X46.8618 Y49.0209
G03 X49.5011 Y56.2021 I-23.8385 J12.8367
G03 X48.7634 Y58.6840 I-2.2208 J0.6906
G03 X46.2594 Y60.6740 I-42.4290 J-50.8193
G03 X43.7779 Y60.7661 I-1.3138 J-1.9233
G03 X37.5084 Y56.7255 I11.5084 J-24.7411
G01 X37.3557 Y56.6006
G03 X38.6703 Y64.1376 I-25.7473 J8.3739
G03 X37.5013 Y66.4480 I-2.3084 J0.2830
G03 X34.6822 Y67.9589 I-32.6591 J-57.5528
G03 X32.2242 Y67.6064 I-0.9493 J-2.1270
G03 X26.7768 Y62.5112 I15.7413 J-22.2887
G01 X26.6490 Y62.3611
G03 X26.5966 Y70.0118 I-26.8288 J3.6420
G03 X25.0339 Y72.0763 I-2.3218 J-0.1338
G03 X21.9903 Y73.0595 I-21.8687 J-62.4927
G03 X19.6347 Y72.2738 I-0.5542 J-2.2623
G03 X15.1847 Y66.2879 I19.4685 J-19.1201
G01 X15.0857 Y66.1173
G03 X13.6681 Y73.6356 I-27.0475 J-1.2070
G03 X11.7619 Y75.3879 I-2.2606 J-0.5462
G03 X8.5916 Y75.8119 I-10.3559 J-65.3707
G03 X6.4142 Y74.6182 I-0.1414 J-2.3249
G03 X3.1045 Y67.9339 I22.5696 J-15.3366
G01 X3.0376 Y67.7484
G03 X0.3003 Y74.8928 I-26.3971 J-6.0170
G03 X-1.8881 Y76.2766 I-2.1267 J-0.9411
G03 X-5.0832 Y76.1277 I1.4831 J-66.1717
G03 X-7.0125 Y74.5644 I0.2760 J-2.3128
G03 X-9.0754 Y67.3966 I24.9452 J-11.0601
G01 X-9.1082 Y67.2020
G03 X-13.0771 Y73.7429 I-24.8987 J-10.6337
G03 X-15.4775 Y74.7137 I-1.9245 J-1.3057
G03 X-18.5946 Y73.9967 I13.2767 J-64.8518
G03 X-20.2138 Y72.1140 I0.6846 J-2.2264
G03 X-20.9637 Y64.6929 I26.5190 J-6.4282
G01 X-20.9612 Y64.4958
G03 X-26.0342 Y70.2228 I-22.6004 J-14.9093
G03 X-27.7852 Y70.9184 I-1.6605 J-1.6283
G01 X-27.7761 Y70.6187 Z-12.5000 F1900
G03 X-28.4557 Y70.4717 I0.0720 J-1.9777
G03 X-31.3714 Y69.2204 I24.9038 J-62.0488
G03 X-32.4657 Y67.3321 I0.9363 J-1.8038
G03 X-31.8346 Y59.7693 I26.7108 J-1.5787
G03 X-31.3474 Y58.2579 I11.1452 J2.7583
G03 X-34.6662 Y61.6635 I-14.6822 J-10.9884
G03 X-38.6818 Y64.3951 I-18.6252 J-23.0622
G03 X-40.5817 Y64.2583 I-0.8236 J-1.8225
G03 X-43.2270 Y62.5064 I35.5717 J-56.5882
G03 X-43.9666 Y60.4531 I1.2434 J-1.6077
G03 X-41.9952 Y53.1245 I26.5639 J3.2161
G03 X-41.2460 Y51.7244 I10.4729 J4.7038
G03 X-45.1196 Y54.4826 I-12.4843 J-13.4334
G03 X-49.5584 Y56.4534 I-14.2072 J-26.0158
G03 X-51.4033 Y55.9795 I-0.4849 J-1.9403
G03 X-53.6933 Y53.7835 I45.1357 J-49.3602
G03 X-54.0543 Y51.6310 I1.5104 J-1.3598
G03 X-50.8061 Y44.7722 I25.5626 J7.9076
G03 X-49.8189 Y43.5284 I9.4622 J6.4960
G03 X-54.1227 Y45.5507 I-9.8849 J-15.4462
G03 X-58.8421 Y46.6971 I-9.3336 J-28.1343
G03 X-60.5727 Y45.9015 I-0.1307 J-1.9957
G03 X-62.4338 Y43.3318 I53.2076 J-40.4958
G03 X-62.4047 Y41.1495 I1.7289 J-1.0683
G03 X-57.9840 Y34.9810 I23.7394 J12.3446
G03 X-56.7906 Y33.9334 I8.1498 J8.0808
G03 X-61.3863 Y35.1547 I-6.9681 J-16.9634
G03 X-66.2345 Y35.4401 I-4.1602 J-29.3496
G03 X-67.7953 Y34.3481 I0.2278 J-1.9870
G03 X-69.1677 Y31.4875 I59.5659 J-30.3358
G03 X-68.7494 Y29.3455 I1.8919 J-0.7424
G03 X-63.2983 Y24.0654 I21.1540 J16.3852
G03 X-61.9370 Y23.2477 I6.5759 J9.4059
G03 X-66.6770 Y23.6288 I-3.8271 J-17.9345
G03 X-71.4982 Y23.0439 I1.1471 J-29.6188
G03 X-72.8389 Y21.6908 I0.5789 J-1.9144
G03 X-73.6784 Y18.6311 I64.0258 J-19.2126
G03 X-72.8844 Y16.5982 I1.9941 J-0.3926
G03 X-66.5780 Y12.3763 I17.8881 J19.8988
G03 X-65.0926 Y11.8148 I4.7912 J10.4305
G03 X-69.8245 Y11.3434 I-0.5633 J-18.3297
G03 X-74.4639 Y9.9070 I6.4177 J-28.9391
G03 X-75.5414 Y8.3364 I0.9115 J-1.7802
G03 X-75.8211 Y5.1759 I66.4101 J-7.4701
G03 X-74.6768 Y3.3174 I2.0322 J-0.0303
G03 X-67.7180 Y0.2894 I14.0478 J22.7737
G03 X-66.1562 Y0.0022 I2.8523 J11.1204
G03 X-70.7278 Y-1.3065 I2.7186 J-18.1356
G03 X-75.0362 Y-3.5482 I11.4818 J-27.3280
G03 X-75.8159 Y-5.2860 I1.2147 J-1.5889
G03 X-75.5268 Y-8.4457 I66.6944 J4.5095
G03 X-74.0691 Y-10.0699 I2.0049 J0.3331
G03 X-66.6814 Y-11.8068 I9.7557 J24.9161
G03 X-65.0934 Y-11.8105 I0.8208 J11.4469
G03 X-69.3579 Y-13.9145 I5.9131 J-17.3587
G03 X-73.1967 Y-16.8894 I16.1762 J-24.8379
G03 X-73.6537 Y-18.7386 I1.4788 J-1.3465
G03 X-72.8050 Y-21.7958 I64.8395 J16.3520
G03 X-71.0807 Y-23.1337 I1.9132 J0.6857
G03 X-63.5016 Y-23.5234 I5.1500 J26.2580
G03 X-61.9385 Y-23.2436 I-1.2369 J11.4121
G03 X-65.7588 Y-26.0752 I8.9175 J-16.0238
G03 X-69.0047 Y-29.6878 I20.3510 J-21.5502
G03 X-69.1241 Y-31.5888 I1.6955 J-1.0608
G03 X-67.7432 Y-34.4454 I60.8471 J27.6518
G03 X-65.8077 Y-35.4538 I1.7600 J1.0163
G03 X-58.2809 Y-34.4841 I0.3788 J26.7553
G03 X-56.7929 Y-33.9296 I-3.2539 J11.0056
G03 X-60.0461 Y-37.3978 I11.6363 J-14.1747
G03 X-62.5948 Y-41.5319 I23.8729 J-17.5707
G03 X-62.3729 Y-43.4237 I1.8577 J-0.7410
G03 X-60.5041 Y-45.9878 I54.9562 J38.0900
G03 X-58.4196 Y-46.6345 I1.5503 J1.3142
G03 X-51.1869 Y-44.3363 I-4.4046 J26.3925
G03 X-49.8218 Y-43.5251 I-5.1676 J10.2494
G03 X-52.4035 Y-47.5185 I13.9797 J-11.8688
G03 X-54.1731 Y-52.0412 I26.6271 J-13.0259
G03 X-53.6169 Y-53.8630 I1.9601 J-0.3974
G03 X-51.3204 Y-56.0522 I47.2731 J47.2919
G03 X-49.1539 Y-56.3163 I1.2907 J1.5699
G03 X-42.4477 Y-52.7636 I-9.0461 J25.1814
G03 X-41.2494 Y-51.7216 I-6.9147 J9.1619
G03 X-43.0766 Y-56.1118 I15.8744 J-9.1820
G03 X-44.0102 Y-60.8779 I28.5243 J-8.0619
G03 X-43.1377 Y-62.5711 I1.9996 J-0.0410
G03 X-40.4871 Y-64.3150 I38.0550 J54.9518
G03 X-38.3083 Y-64.1880 I0.9896 J1.7752
G03 X-32.3443 Y-59.4950 I-13.3976 J23.1621
G03 X-31.3513 Y-58.2558 I-8.4405 J7.7808
G03 X-32.3652 Y-62.9017 I17.2592 J-6.2000
G03 X-32.4328 Y-67.7578 I29.5056 J-2.8392
G03 X-31.2719 Y-69.2681 I1.9748 J0.3166
G03 X-28.3525 Y-70.5107 I27.6305 J60.8616
G03 X-26.2314 Y-69.9967 I0.6567 J1.9233
G03 X-21.2013 Y-64.3142 I-17.3188 J20.3984
G03 X-20.4455 Y-62.9176 I-9.6967 J6.1500
G03 X-20.6135 Y-67.6699 I18.0883 J-3.0187
G03 X-19.8129 Y-72.4601 I29.5381 J2.4749
G03 X-18.4011 Y-73.7387 I1.8865 J0.6642
G03 X-15.3068 Y-74.4401 I16.3220 J64.8289
G03 X-13.3115 Y-73.5557 I0.3028 J2.0097
G03 X-9.3768 Y-67.0663 I-20.6815 J16.9774
G03 X-8.8826 Y-65.5572 I-10.6381 J4.3195
G03 X-8.1993 Y-70.2631 I18.3365 J0.2596
G03 X-6.5563 Y-74.8334 I28.6201 J7.7089
G03 X-4.9388 Y-75.8393 I1.7375 J0.9904
G03 X-1.7690 Y-75.9770 I4.4839 J66.6930
G03 X0.0363 Y-74.7505 I-0.0609 J2.0314
G03 X2.7490 Y-67.6628 I-23.3807 J13.0119
G03 X2.9659 Y-66.0897 I-11.2358 J2.3502
G03 X4.4784 Y-70.5980 I17.9960 J3.5298
G03 X6.9111 Y-74.8014 I26.7861 J12.6966
G03 X8.6822 Y-75.5024 I1.5328 J1.2847
G03 X11.8257 Y-75.0719 I-7.5010 J66.4528
G03 X13.3829 Y-73.5427 I-0.4227 J1.9879
G03 X14.7865 Y-66.0845 I-25.3283 J8.6279
G03 X14.7190 Y-64.4980 I-11.4740 J0.3063
G03 X17.0122 Y-68.6638 I17.0771 J6.6866
G03 X20.1563 Y-72.3653 I24.0889 J17.2757
G03 X22.0241 Y-72.7388 I1.2788 J1.5378
G03 X25.0402 Y-71.7539 I-19.2401 J64.0273
G03 X26.2994 Y-69.9712 I-0.7708 J1.8805
G03 X26.3487 Y-62.3823 I-26.4623 J3.9667
G03 X25.9990 Y-60.8333 I-11.3424 J-1.7470
G03 X28.9992 Y-64.5227 I15.6086 J9.6283
G03 X32.7537 Y-67.6033 I20.6167 J21.2988
G03 X34.6582 Y-67.6373 I0.9837 J1.7414
G03 X37.4500 Y-66.1296 I-30.3639 J59.5638
G03 X38.3706 Y-64.1508 I-1.0942 J1.7126
G03 X37.0641 Y-56.6750 I-26.7452 J-0.8220
G03 X36.4434 Y-55.2134 I-10.8510 J-3.7454
G03 X40.0542 Y-58.3078 I13.6378 J12.2596
G03 X44.2985 Y-60.6685 I16.4815 J24.6365
G03 X46.1784 Y-60.3619 I0.6569 J1.8891
G03 X48.6560 Y-58.3800 I-40.5238 J53.2000
G03 X49.2085 Y-56.2686 I-1.3824 J1.4897
G03 X46.5882 Y-49.1462 I-26.1688 J-5.5844
G03 X45.7165 Y-47.8189 I-10.0051 J-5.6210
G03 X49.8217 Y-50.2188 I11.2300 J14.4985
G03 X54.4193 Y-51.7837 I11.8178 J27.1839
G03 X56.2143 Y-51.1464 I0.3090 J1.9760
G03 X58.2982 Y-48.7539 I-49.3784 J45.1152
G03 X58.4649 Y-46.5778 I-1.6262 J1.2190
G03 X54.6149 Y-40.0378 I-24.7510 J-10.1672
G03 X53.5202 Y-38.8874 I-8.8409 J-7.3172
G03 X57.9880 Y-40.5158 I8.4605 J16.2702
G03 X62.7911 Y-41.2346 I6.7738 J28.8560
G03 X64.4434 Y-40.2870 I-0.0488 J1.9994
G03 X66.0667 Y-37.5609 I-56.6232 J35.5631
G03 X65.8421 Y-35.3899 I-1.8177 J0.9090
G03 X60.8863 Y-29.6425 I-22.5379 J-14.4234
G03 X59.6037 Y-28.7061 I-7.3933 J-8.7797
G03 X64.2904 Y-29.5105 I5.4193 J17.5192
G03 X69.1447 Y-29.3602 I1.5125 J29.6044
G03 X70.6013 Y-28.1328 I-0.4050 J1.9586
G03 X71.7117 Y-25.1606 I-62.0604 J24.8800
G03 X71.1031 Y-23.0646 I-1.9509 J0.5698
G03 X65.2007 Y-18.2945 I-19.6001 J-18.2157
G03 X63.7716 Y-17.6021 I-5.7069 J-9.9589
G03 X68.5266 Y-17.5568 I2.2039 J18.2057
G03 X73.2760 Y-16.5421 I-3.7979 J29.3990
G03 X74.4900 Y-15.0743 I-0.7482 J1.8548
G03 X75.0519 Y-11.9516 I-65.5173 J13.4009
G03 X74.0788 Y-9.9980 I-2.0212 J0.2123
G03 X67.4195 Y-6.3585 I-16.0324 J-21.4224
G03 X65.8897 Y-5.9324 I-3.8364 J-10.8155
G03 X70.5602 Y-5.0387 I-1.0821 J18.3065
G03 X75.0522 Y-3.1922 I-8.9855 J28.2463
G03 X75.9845 Y-1.5313 I-1.0674 J1.6913
G03 X75.9798 Y1.6415 I-66.8257 J1.4871
G03 X74.6735 Y3.3899 I-2.0267 J-0.1520
G03 X67.4713 Y5.7820 I-11.9499 J-23.9415
G03 X65.8900 Y5.9280 I-1.8436 J-11.3280
G03 X70.3260 Y7.6413 I-4.3334 J17.8192
G03 X74.4160 Y10.2601 I-13.8848 J26.1883
G03 X75.0369 Y12.0609 I-1.3522 J1.4736
G03 X74.4657 Y15.1818 I-66.0479 J-10.4746
G03 X72.8682 Y16.6689 I-1.9670 J-0.5114
G03 X65.3546 Y17.7365 I-7.4829 J-25.6898
G03 X63.7727 Y17.5978 I0.2089 J-11.4765
G03 X67.8314 Y20.0757 I-7.4454 J16.7588
G03 X71.3881 Y23.3827 I-18.3375 J23.2879
G03 X71.6774 Y25.2654 I-1.5936 J1.2085
G03 X70.5582 Y28.2342 I-63.0818 J-22.0867
G03 X68.7209 Y29.4122 I-1.8440 J-0.8544
G03 X61.1374 Y29.1210 I-2.7755 J-26.6132
G03 X59.6057 Y28.7021 I2.2543 J-11.2534
G03 X63.1567 Y31.8648 I-10.3181 J15.1600
G03 X66.0657 Y35.7538 I-22.2010 J19.6393
G03 X66.0143 Y37.6579 I-1.7838 J0.9045
G03 X64.3829 Y40.3792 I-58.1291 J-32.9985
G03 X62.3648 Y41.2101 I-1.6618 J-1.1700
G03 X54.9551 Y39.5695 I2.0210 J-26.6808
G03 X53.5228 Y38.8839 I4.2270 J-10.6690
G03 X56.4520 Y42.6297 I-12.8598 J13.0743
G03 X58.6199 Y46.9757 I-25.3510 J15.3597
G03 X58.2293 Y48.8400 I-1.9166 J0.5715
G03 X56.1382 Y51.2262 I-51.3166 J-42.8593
G03 X54.0042 Y51.6835 I-1.4262 J-1.4479
G03 X47.0065 Y48.7462 I6.7527 J-25.8915
G03 X45.7197 Y47.8158 I6.0656 J-9.7448
G03 X47.9330 Y52.0246 I-14.9866 J10.5677
G03 X49.2901 Y56.6878 I-27.6854 J10.5860
G03 X48.5728 Y58.4523 I-1.9879 J0.2201
G03 X46.0893 Y60.4269 I-42.8497 J-51.3468
G03 X43.9079 Y60.4957 I-1.1448 J-1.6793
G03 X37.5472 Y56.3562 I11.2673 J-24.2697
G03 X36.4471 Y55.2110 I7.7083 J-8.5053
G03 X37.8734 Y59.7473 I-16.6333 J7.7220
G03 X38.3760 Y64.5778 I-29.1328 J5.4726
G03 X37.3552 Y66.1860 I-1.9952 J-0.1384
G03 X34.5589 Y67.6854 I-32.9784 J-58.1462
G03 X32.4003 Y67.3636 I-0.8265 J-1.8567
G03 X26.8810 Y62.1548 I15.4197 J-21.8678
G03 X26.0031 Y60.8316 I9.1032 J-6.9924
G03 X26.5964 Y65.5497 I-17.7449 J4.6279
G03 X26.2284 Y70.3924 I-29.6408 J0.1829
G03 X24.9369 Y71.7924 I-1.9384 J-0.4925
G03 X21.9179 Y72.7684 I-22.0773 J-63.1348
G03 X19.8514 Y72.0663 I-0.4817 J-1.9744
G03 X15.3508 Y65.9557 I19.0773 J-18.7636
G03 X14.7233 Y64.4970 I10.2054 J-5.2545
G03 X14.4647 Y69.2452 I-18.2853 J1.3851
G03 X13.2379 Y73.9444 I-29.1963 J-5.1124
G03 X11.7171 Y75.0913 I-1.8193 J-0.8307
G03 X8.5724 Y75.5125 I-10.4464 J-66.0389
G03 X6.6644 Y74.4528 I-0.1214 J-2.0287
G03 X3.3273 Y67.6368 I22.1207 J-15.0555
G03 X2.9703 Y66.0895 I10.9789 J-3.3477
G03 X1.8680 Y70.7152 I-18.2401 J-1.9024
G03 X-0.1781 Y75.1198 I-27.8149 J-10.2437
G03 X-1.8792 Y75.9767 I-1.6418 J-1.1422
G03 X-5.0487 Y75.8297 I1.5134 J-66.8453
G03 X-6.7367 Y74.4463 I0.2428 J-2.0178
G03 X-8.8032 Y67.1440 I24.4538 J-10.8638
G03 X-8.8782 Y65.5578 I11.4014 J-1.3336
G03 X-10.7887 Y69.9124 I-17.6067 J-5.1285
G03 X-13.5885 Y73.8808 I-25.5386 J-15.0456
G03 X-15.4152 Y74.4202 I-1.4114 J-1.4170
G03 X-18.5074 Y73.7096 I13.4268 J-65.5095
G03 X-19.9213 Y72.0470 I0.5992 J-1.9420
G03 X-20.6508 Y64.4931 I25.9997 J-6.3228
G03 X-20.4413 Y62.9190 I11.4548 J0.7234
G03 X-23.0987 Y66.8624 I-16.4088 J-8.1905
G03 X-26.5619 Y70.2671 I-22.4429 J-19.3649
G03 X-27.7761 Y70.6187 I-1.1329 J-1.6400
G00 Z5.0000
G00 X0.0000 Y0.0000

M05
