(Projekt 140mm Gear)
(Erstellt mit Estlcam 12,057)
(Laufzeit ca. 00:10:38 Stunden)

(Benötigte Werkzeuge:)
(4mm Holzfräser Gerade Schneiden)

M03 S24000
G00 Z5.0000

(Nr. 1 Kreistasche schruppen und schlichten: Kreistasche 1)
G00 X1.2750 Y0.0000 Z5.0000
G00 Z0.5000
G02 X0.0000 Y-1.2750 Z0.2500 I-1.2750 J0.0000 F200 S24000
G02 X-1.2750 Y0.0000 Z0.0000 I0.0000 J1.2750
G02 X0.6375 Y1.1042 Z-0.9719 I1.2750 J0.0000
G02 Y-1.1042 Z-1.9439 I-0.6375 J-1.1042
G02 X-1.2750 Y0.0000 Z-2.9158 I-0.6375 J1.1042
G02 X0.6375 Y1.1042 Z-3.4439 I1.2750 J0.0000
G02 Y-1.1042 Z-3.9719 I-0.6375 J-1.1042
G02 X-1.2750 Y0.0000 Z-4.5000 I-0.6375 J1.1042
G02 X2.7000 I1.9875 J0.0000 F1900
G02 X-1.3500 Y-2.3383 I-2.7000 J0.0000
G02 Y2.3383 I1.3500 J2.3383
G02 X2.7000 Y0.0000 I1.3500 J-2.3383
G02 X-1.2750 I-1.9875 J0.0000
G02 X0.6375 Y1.1042 Z-5.4719 I1.2750 J0.0000 F200
G02 Y-1.1042 Z-6.4439 I-0.6375 J-1.1042
G02 X-1.2750 Y0.0000 Z-7.4158 I-0.6375 J1.1042
G02 X0.6375 Y1.1042 Z-7.9439 I1.2750 J0.0000
G02 Y-1.1042 Z-8.4719 I-0.6375 J-1.1042
G02 X-1.2750 Y0.0000 Z-9.0000 I-0.6375 J1.1042
G02 X2.7000 I1.9875 J0.0000 F1900
G02 X-1.3500 Y-2.3383 I-2.7000 J0.0000
G02 Y2.3383 I1.3500 J2.3383
G02 X2.7000 Y0.0000 I1.3500 J-2.3383
G02 X-1.2750 I-1.9875 J0.0000
G02 X0.6375 Y1.1042 Z-9.9719 I1.2750 J0.0000 F200
G02 Y-1.1042 Z-10.9439 I-0.6375 J-1.1042
G02 X-1.2750 Y0.0000 Z-11.9158 I-0.6375 J1.1042
G02 X0.0000 Y1.2750 Z-12.2079 I1.2750 J0.0000
G02 X1.2750 Y0.0000 Z-12.5000 I0.0000 J-1.2750
G02 X-0.6375 Y-1.1042 I-1.2750 J0.0000 F1900
G02 Y1.1042 I0.6375 J1.1042
G02 X1.2750 Y0.0000 I0.6375 J-1.1042
G02 X-2.7000 I-1.9875 J0.0000
G02 X1.3500 Y2.3383 I2.7000 J0.0000
G02 Y-2.3383 I-1.3500 J-2.3383
G02 X-2.7000 Y0.0000 I-1.3500 J2.3383
G02 X-1.7000 Y1.0000 Z-12.2500 I1.0000 J0.0000
G00 X-1.7000 Y1.0000 Z0.0000
G01 X3.0000 Y0.0000 F1900
G02 X0.0000 Y-3.0000 Z-6.2500 I-3.0000 J0.0000 F200
G02 X-3.0000 Y0.0000 Z-12.5000 I0.0000 J3.0000
G02 X1.5000 Y2.5981 I3.0000 J0.0000
G02 Y-2.5981 I-1.5000 J-2.5981
G02 X-3.0000 Y0.0000 I-1.5000 J2.5981
G02 X-2.0000 Y1.0000 Z-12.2500 I1.0000 J0.0000 F1900
G00 Z5.0000

(Nr. 2 Räumen linear: Tasche 2)
G00 X7.6574 Y10.9680 Z5.0000
G00 Z0.5000
G01 Z0.0000 F200
G01 X13.8392 Z-2.2500
G01 X7.6574 Z-4.5000
G01 X53.7430 F1900
G03 X52.8832 Y14.5680 I-49.4150 J-9.9002
G01 X7.6450
G01 Y18.1680
G01 X51.7572
G03 X50.3473 Y21.7680 I-48.5478 J-16.9360
G01 X7.6450
G01 Y25.3680
G01 X48.6325
G03 X46.5784 Y28.9680 I-44.7237 J-23.1318
G01 X7.6450
G01 Y32.5680
G01 X44.1393
G03 X41.2371 Y36.1680 I-41.8236 J-30.7472
G01 X7.6450
G01 Y39.7680
G01 X37.7821
G03 X33.5869 Y43.3680 I-36.9158 J-38.7749
G01 X7.6450
G01 Y46.9680
G01 X28.3331
G03 X21.2488 Y50.5680 I-27.7775 J-45.8916
G01 X7.3000
G02 X7.3668 Y52.1285 I5.5975 J0.5421
G02 X10.5417 Y54.1835 I2.6351 J-0.5910
G02 X54.2184 Y10.3182 I-10.5282 J-54.1602
G02 X51.4966 Y7.3000 I-2.6826 J-0.3173
G01 X11.2207
G02 X9.1299 Y8.2416 I-0.0319 J2.7212
G03 X8.2416 Y9.1299 I-8.7885 J-7.9002
G02 X7.3000 Y11.2207 I1.7796 J2.0589
G01 Y50.5680
G01 X7.6450
G00 Z5.0000
G00 X7.6574 Y10.9680
G00 Z-4.0000
G01 Z-4.5000 F200
G01 X13.8392 Z-6.7500
G01 X7.6574 Z-9.0000
G01 X53.7430 F1900
G03 X52.8832 Y14.5680 I-49.4150 J-9.9002
G01 X7.6450
G01 Y18.1680
G01 X51.7572
G03 X50.3473 Y21.7680 I-48.5478 J-16.9360
G01 X7.6450
G01 Y25.3680
G01 X48.6325
G03 X46.5784 Y28.9680 I-44.7237 J-23.1318
G01 X7.6450
G01 Y32.5680
G01 X44.1393
G03 X41.2371 Y36.1680 I-41.8236 J-30.7472
G01 X7.6450
G01 Y39.7680
G01 X37.7821
G03 X33.5869 Y43.3680 I-36.9158 J-38.7749
G01 X7.6450
G01 Y46.9680
G01 X28.3331
G03 X21.2488 Y50.5680 I-27.7775 J-45.8916
G01 X7.3000
G02 X7.3668 Y52.1285 I5.5975 J0.5421
G02 X10.5417 Y54.1835 I2.6351 J-0.5910
G02 X54.2184 Y10.3182 I-10.5282 J-54.1602
G02 X51.4966 Y7.3000 I-2.6826 J-0.3173
G01 X11.2207
G02 X9.1299 Y8.2416 I-0.0319 J2.7212
G03 X8.2416 Y9.1299 I-8.7885 J-7.9002
G02 X7.3000 Y11.2207 I1.7796 J2.0589
G01 Y50.5680
G01 X7.6450
G00 Z5.0000
G00 X7.6574 Y10.9680
G00 Z-8.5000
G01 Z-9.0000 F200
G01 X12.4655 Z-10.7500
G01 X7.6574 Z-12.5000
G01 X53.7430 F1900
G03 X52.8832 Y14.5680 I-49.4150 J-9.9002
G01 X7.6450
G01 Y18.1680
G01 X51.7572
G03 X50.3473 Y21.7680 I-48.5478 J-16.9360
G01 X7.6450
G01 Y25.3680
G01 X48.6325
G03 X46.5784 Y28.9680 I-44.7237 J-23.1318
G01 X7.6450
G01 Y32.5680
G01 X44.1393
G03 X41.2371 Y36.1680 I-41.8236 J-30.7472
G01 X7.6450
G01 Y39.7680
G01 X37.7821
G03 X33.5869 Y43.3680 I-36.9158 J-38.7749
G01 X7.6450
G01 Y46.9680
G01 X28.3331
G03 X21.2488 Y50.5680 I-27.7775 J-45.8916
G01 X7.3000
G02 X7.3668 Y52.1285 I5.5975 J0.5421
G02 X10.5417 Y54.1835 I2.6351 J-0.5910
G02 X54.2184 Y10.3182 I-10.5282 J-54.1602
G02 X51.4966 Y7.3000 I-2.6826 J-0.3173
G01 X11.2207
G02 X9.1299 Y8.2416 I-0.0319 J2.7212
G03 X8.2416 Y9.1299 I-8.7885 J-7.9002
G02 X7.3000 Y11.2207 I1.7796 J2.0589
G01 Y50.5680
G01 X7.6450
G00 X7.6450 Y50.5680 Z5.0000
G00 X7.0000
G00 Z0.5000
G01 Z0.0000 F200
G02 X7.0738 Y52.1941 Z-0.5944 I5.8506 J0.5491
G02 X10.5952 Y54.4788 Z-2.2864 I2.9278 J-0.6564
G02 X35.6565 Y42.5316 Z-12.5000 I-10.5811 J-54.4540
G02 X54.5165 Y10.3536 I-35.6423 J-42.5067 F1900
G02 X51.5021 Y7.0000 I-2.9802 J-0.3528
G01 X11.2154
G02 X8.9113 Y8.0362 I-0.0279 J3.0179
G03 X8.0362 Y8.9113 I-8.6126 J-7.7375
G02 X7.0000 Y11.2154 I1.9817 J2.2762
G01 Y50.5680
G02 X7.0738 Y52.1941 I5.8506 J0.5491
G02 X10.5952 Y54.4788 I2.9278 J-0.6564
G02 X35.6565 Y42.5316 I-10.5811 J-54.4540
G00 Z5.0000

(Nr. 3 Räumen linear: Tasche 1)
G00 X-53.7430 Y10.9680 Z5.0000
G00 Z0.5000
G01 Z0.0000 F200
G01 X-47.5612 Z-2.2500
G01 X-53.7430 Z-4.5000
G01 X-7.6574 F1900
G01 X-7.6524 Y11.0155
G01 X-7.6450 Y11.2267
G01 Y14.5680
G01 X-52.8832
G02 X-51.7572 Y18.1680 I50.0818 J-13.6883
G01 X-7.6450
G01 Y21.7680
G01 X-50.3473
G02 X-48.6325 Y25.3680 I46.0779 J-19.7411
G01 X-7.6450
G01 Y28.9680
G01 X-46.5784
G02 X-44.1393 Y32.5680 I44.2129 J-27.3290
G01 X-7.6450
G01 Y36.1680
G01 X-41.2371
G02 X-37.7821 Y39.7680 I40.0163 J-34.9464
G01 X-7.6450
G01 Y43.3680
G01 X-33.5869
G02 X-28.3331 Y46.9680 I32.8028 J-42.2386
G01 X-7.6450
G01 Y50.5680
G01 X-21.2488
G01 X-21.3838 Y50.8855
G02 X-10.3182 Y54.2184 I20.9995 J-49.6847
G02 X-7.3000 Y51.4966 I0.3173 J-2.6826
G01 Y11.2207
G02 X-8.2416 Y9.1299 I-2.7212 J-0.0319
G03 X-9.1299 Y8.2416 I7.9002 J-8.7885
G02 X-11.2207 Y7.3000 I-2.0589 J1.7796
G01 X-51.4966
G02 X-54.1835 Y10.5417 I-0.0388 J2.7023
G02 X-21.3838 Y50.8855 I54.1676 J-10.5334
G01 X-21.2488 Y50.5680
G00 Z5.0000
G00 X-53.7430 Y10.9680
G00 Z-4.0000
G01 Z-4.5000 F200
G01 X-47.5612 Z-6.7500
G01 X-53.7430 Z-9.0000
G01 X-7.6574 F1900
G01 X-7.6524 Y11.0155
G01 X-7.6450 Y11.2267
G01 Y14.5680
G01 X-52.8832
G02 X-51.7572 Y18.1680 I50.0818 J-13.6883
G01 X-7.6450
G01 Y21.7680
G01 X-50.3473
G02 X-48.6325 Y25.3680 I46.0779 J-19.7411
G01 X-7.6450
G01 Y28.9680
G01 X-46.5784
G02 X-44.1393 Y32.5680 I44.2129 J-27.3290
G01 X-7.6450
G01 Y36.1680
G01 X-41.2371
G02 X-37.7821 Y39.7680 I40.0163 J-34.9464
G01 X-7.6450
G01 Y43.3680
G01 X-33.5869
G02 X-28.3331 Y46.9680 I32.8028 J-42.2386
G01 X-7.6450
G01 Y50.5680
G01 X-21.2488
G01 X-21.3838 Y50.8855
G02 X-10.3182 Y54.2184 I20.9995 J-49.6847
G02 X-7.3000 Y51.4966 I0.3173 J-2.6826
G01 Y11.2207
G02 X-8.2416 Y9.1299 I-2.7212 J-0.0319
G03 X-9.1299 Y8.2416 I7.9002 J-8.7885
G02 X-11.2207 Y7.3000 I-2.0589 J1.7796
G01 X-51.4966
G02 X-54.1835 Y10.5417 I-0.0388 J2.7023
G02 X-21.3838 Y50.8855 I54.1676 J-10.5334
G01 X-21.2488 Y50.5680
G00 Z5.0000
G00 X-53.7430 Y10.9680
G00 Z-8.5000
G01 Z-9.0000 F200
G01 X-48.9349 Z-10.7500
G01 X-53.7430 Z-12.5000
G01 X-7.6574 F1900
G01 X-7.6524 Y11.0155
G01 X-7.6450 Y11.2267
G01 Y14.5680
G01 X-52.8832
G02 X-51.7572 Y18.1680 I50.0818 J-13.6883
G01 X-7.6450
G01 Y21.7680
G01 X-50.3473
G02 X-48.6325 Y25.3680 I46.0779 J-19.7411
G01 X-7.6450
G01 Y28.9680
G01 X-46.5784
G02 X-44.1393 Y32.5680 I44.2129 J-27.3290
G01 X-7.6450
G01 Y36.1680
G01 X-41.2371
G02 X-37.7821 Y39.7680 I40.0163 J-34.9464
G01 X-7.6450
G01 Y43.3680
G01 X-33.5869
G02 X-28.3331 Y46.9680 I32.8028 J-42.2386
G01 X-7.6450
G01 Y50.5680
G01 X-21.2488
G01 X-21.3838 Y50.8855
G02 X-10.3182 Y54.2184 I20.9995 J-49.6847
G02 X-7.3000 Y51.4966 I0.3173 J-2.6826
G01 Y11.2207
G02 X-8.2416 Y9.1299 I-2.7212 J-0.0319
G03 X-9.1299 Y8.2416 I7.9002 J-8.7885
G02 X-11.2207 Y7.3000 I-2.0589 J1.7796
G01 X-51.4966
G02 X-54.1835 Y10.5417 I-0.0388 J2.7023
G02 X-21.3838 Y50.8855 I54.1676 J-10.5334
G01 X-21.2488 Y50.5680
G00 X-21.2488 Y50.5680 Z5.0000
G00 X-21.5012 Y51.1616
G00 Z0.5000
G01 Z0.0000 F200
G02 X-10.3536 Y54.5165 Z-4.2453 I21.0979 J-49.9053
G02 X-7.0000 Y51.5021 Z-6.1023 I0.3528 J-2.9802
G01 Y33.9244 Z-12.5000
G01 Y11.2154 F1900
G02 X-8.0362 Y8.9113 I-3.0179 J-0.0279
G03 X-8.9113 Y8.0362 I7.7375 J-8.6126
G02 X-11.2154 Y7.0000 I-2.2762 J1.9817
G01 X-51.5021
G02 X-54.4788 Y10.5952 I-0.0338 J3.0019
G02 X-21.5012 Y51.1616 I54.4629 J-10.5871
G02 X-10.3536 Y54.5165 I21.0979 J-49.9053
G02 X-7.0000 Y51.5021 I0.3528 J-2.9802
G01 Y33.9244
G00 Z5.0000

(Nr. 4 Räumen linear: Tasche 4)
G00 X-21.2489 Y-50.5680 Z5.0000
G00 Z0.5000
G01 Z0.0000 F200
G01 X-15.0670 Z-2.2500
G01 X-21.2489 Z-4.5000
G01 X-7.6450 F1900
G01 Y-46.9680
G01 X-28.3331
G02 X-33.5869 Y-43.3680 I27.6333 J45.9617
G01 X-7.6450
G01 Y-39.7680
G01 X-37.7821
G02 X-41.2371 Y-36.1680 I36.1944 J38.1941
G01 X-7.6450
G01 Y-32.5680
G01 X-44.1393
G02 X-46.5784 Y-28.9680 I41.7760 J30.9305
G01 X-7.6450
G01 Y-25.3680
G01 X-48.6325
G02 X-50.3473 Y-21.7680 I44.3504 J23.3351
G01 X-7.6450
G01 Y-18.1680
G01 X-51.7572
G02 X-52.8832 Y-14.5680 I48.7912 J17.2368
G01 X-7.6450
G01 Y-11.2267
G01 X-7.6524 Y-11.0155
G01 X-7.6574 Y-10.9680
G01 X-53.7430
G01 X-54.0809 Y-11.0379
G02 X-54.2232 Y-9.7250 I3.2580 J1.0174
G02 X-51.4966 Y-7.3000 I2.6878 J-0.2767
G01 X-11.2207
G02 X-9.1299 Y-8.2416 I0.0319 J-2.7212
G03 X-8.2416 Y-9.1299 I8.7885 J7.9002
G02 X-7.3000 Y-11.2207 I-1.7796 J-2.0589
G01 Y-51.4966
G02 X-10.5417 Y-54.1835 I-2.7023 J-0.0388
G02 X-54.0809 Y-11.0379 I10.5348 J54.1719
G01 X-53.7430 Y-10.9680
G00 Z5.0000
G00 X-21.2489 Y-50.5680
G00 Z-4.0000
G01 Z-4.5000 F200
G01 X-15.0670 Z-6.7500
G01 X-21.2489 Z-9.0000
G01 X-7.6450 F1900
G01 Y-46.9680
G01 X-28.3331
G02 X-33.5869 Y-43.3680 I27.6333 J45.9617
G01 X-7.6450
G01 Y-39.7680
G01 X-37.7821
G02 X-41.2371 Y-36.1680 I36.1944 J38.1941
G01 X-7.6450
G01 Y-32.5680
G01 X-44.1393
G02 X-46.5784 Y-28.9680 I41.7760 J30.9305
G01 X-7.6450
G01 Y-25.3680
G01 X-48.6325
G02 X-50.3473 Y-21.7680 I44.3504 J23.3351
G01 X-7.6450
G01 Y-18.1680
G01 X-51.7572
G02 X-52.8832 Y-14.5680 I48.7912 J17.2368
G01 X-7.6450
G01 Y-11.2267
G01 X-7.6524 Y-11.0155
G01 X-7.6574 Y-10.9680
G01 X-53.7430
G01 X-54.0809 Y-11.0379
G02 X-54.2232 Y-9.7250 I3.2580 J1.0174
G02 X-51.4966 Y-7.3000 I2.6878 J-0.2767
G01 X-11.2207
G02 X-9.1299 Y-8.2416 I0.0319 J-2.7212
G03 X-8.2416 Y-9.1299 I8.7885 J7.9002
G02 X-7.3000 Y-11.2207 I-1.7796 J-2.0589
G01 Y-51.4966
G02 X-10.5417 Y-54.1835 I-2.7023 J-0.0388
G02 X-54.0809 Y-11.0379 I10.5348 J54.1719
G01 X-53.7430 Y-10.9680
G00 Z5.0000
G00 X-21.2489 Y-50.5680
G00 Z-8.5000
G01 Z-9.0000 F200
G01 X-16.4408 Z-10.7500
G01 X-21.2489 Z-12.5000
G01 X-7.6450 F1900
G01 Y-46.9680
G01 X-28.3331
G02 X-33.5869 Y-43.3680 I27.6333 J45.9617
G01 X-7.6450
G01 Y-39.7680
G01 X-37.7821
G02 X-41.2371 Y-36.1680 I36.1944 J38.1941
G01 X-7.6450
G01 Y-32.5680
G01 X-44.1393
G02 X-46.5784 Y-28.9680 I41.7760 J30.9305
G01 X-7.6450
G01 Y-25.3680
G01 X-48.6325
G02 X-50.3473 Y-21.7680 I44.3504 J23.3351
G01 X-7.6450
G01 Y-18.1680
G01 X-51.7572
G02 X-52.8832 Y-14.5680 I48.7912 J17.2368
G01 X-7.6450
G01 Y-11.2267
G01 X-7.6524 Y-11.0155
G01 X-7.6574 Y-10.9680
G01 X-53.7430
G01 X-54.0809 Y-11.0379
G02 X-54.2232 Y-9.7250 I3.2580 J1.0174
G02 X-51.4966 Y-7.3000 I2.6878 J-0.2767
G01 X-11.2207
G02 X-9.1299 Y-8.2416 I0.0319 J-2.7212
G03 X-8.2416 Y-9.1299 I8.7885 J7.9002
G02 X-7.3000 Y-11.2207 I-1.7796 J-2.0589
G01 Y-51.4966
G02 X-10.5417 Y-54.1835 I-2.7023 J-0.0388
G02 X-54.0809 Y-11.0379 I10.5348 J54.1719
G01 X-53.7430 Y-10.9680
G00 X-53.7430 Y-10.9680 Z5.0000
G00 X-54.3746 Y-11.0987
G00 Z0.5000
G01 Z0.0000 F200
G02 X-54.5219 Y-9.6944 Z-0.5171 I3.5218 J1.0791
G02 X-51.5021 Y-7.0000 Z-2.1336 I2.9859 J-0.3071
G01 X-23.0207 Z-12.5000
G01 X-11.2154 F1900
G02 X-8.9113 Y-8.0362 I0.0279 J-3.0179
G03 X-8.0362 Y-8.9113 I8.6126 J7.7375
G02 X-7.0000 Y-11.2154 I-1.9817 J-2.2762
G01 Y-51.5021
G02 X-10.5952 Y-54.4788 I-3.0019 J-0.0338
G02 X-54.3746 Y-11.0987 I10.5885 J54.4672
G02 X-54.5219 Y-9.6944 I3.5218 J1.0791
G02 X-51.5021 Y-7.0000 I2.9859 J-0.3071
G01 X-23.0207
G00 Z5.0000

(Nr. 5 Räumen linear: Tasche 3)
G00 X7.6450 Y-50.5680 Z5.0000
G00 Z0.5000
G01 Z0.0000 F200
G01 X13.8268 Z-2.2500
G01 X7.6450 Z-4.5000
G01 X21.2488 F1900
G03 X28.3331 Y-46.9680 I-20.6952 J49.4955
G01 X7.6450
G01 Y-43.3680
G01 X33.5869
G03 X37.7821 Y-39.7680 I-33.0302 J42.7358
G01 X7.6450
G01 Y-36.1680
G01 X41.2371
G03 X44.1393 Y-32.5680 I-39.4861 J34.8025
G01 X7.6450
G01 Y-28.9680
G01 X46.5784
G03 X48.6325 Y-25.3680 I-42.6696 J26.7318
G01 X7.6450
G01 Y-21.7680
G01 X50.3473
G03 X51.7572 Y-18.1680 I-47.1388 J20.5363
G01 X7.6450
G01 Y-14.5680
G01 X52.8832
G03 X53.7430 Y-10.9680 I-48.5552 J13.5002
G01 X7.6574
G01 X7.3143 Y-10.9318
G02 X8.2416 Y-9.1299 I2.6958 J-0.2477
G03 X9.1299 Y-8.2416 I-7.9002 J8.7885
G02 X11.2207 Y-7.3000 I2.0589 J-1.7796
G01 X51.4966
G02 X54.1835 Y-10.5417 I0.0388 J-2.7023
G02 X10.3182 Y-54.2184 I-54.1601 J10.5282
G02 X7.3000 Y-51.4966 I-0.3173 J2.6826
G01 Y-11.2207
G01 X7.3080 Y-10.9913
G01 X7.3143 Y-10.9318
G01 X7.6574 Y-10.9680
G00 Z5.0000
G00 X7.6450 Y-50.5680
G00 Z-4.0000
G01 Z-4.5000 F200
G01 X13.8268 Z-6.7500
G01 X7.6450 Z-9.0000
G01 X21.2488 F1900
G03 X28.3331 Y-46.9680 I-20.6952 J49.4955
G01 X7.6450
G01 Y-43.3680
G01 X33.5869
G03 X37.7821 Y-39.7680 I-33.0302 J42.7358
G01 X7.6450
G01 Y-36.1680
G01 X41.2371
G03 X44.1393 Y-32.5680 I-39.4861 J34.8025
G01 X7.6450
G01 Y-28.9680
G01 X46.5784
G03 X48.6325 Y-25.3680 I-42.6696 J26.7318
G01 X7.6450
G01 Y-21.7680
G01 X50.3473
G03 X51.7572 Y-18.1680 I-47.1388 J20.5363
G01 X7.6450
G01 Y-14.5680
G01 X52.8832
G03 X53.7430 Y-10.9680 I-48.5552 J13.5002
G01 X7.6574
G01 X7.3143 Y-10.9318
G02 X8.2416 Y-9.1299 I2.6958 J-0.2477
G03 X9.1299 Y-8.2416 I-7.9002 J8.7885
G02 X11.2207 Y-7.3000 I2.0589 J-1.7796
G01 X51.4966
G02 X54.1835 Y-10.5417 I0.0388 J-2.7023
G02 X10.3182 Y-54.2184 I-54.1601 J10.5282
G02 X7.3000 Y-51.4966 I-0.3173 J2.6826
G01 Y-11.2207
G01 X7.3080 Y-10.9913
G01 X7.3143 Y-10.9318
G01 X7.6574 Y-10.9680
G00 Z5.0000
G00 X7.6450 Y-50.5680
G00 Z-8.5000
G01 Z-9.0000 F200
G01 X12.4531 Z-10.7500
G01 X7.6450 Z-12.5000
G01 X21.2488 F1900
G03 X28.3331 Y-46.9680 I-20.6952 J49.4955
G01 X7.6450
G01 Y-43.3680
G01 X33.5869
G03 X37.7821 Y-39.7680 I-33.0302 J42.7358
G01 X7.6450
G01 Y-36.1680
G01 X41.2371
G03 X44.1393 Y-32.5680 I-39.4861 J34.8025
G01 X7.6450
G01 Y-28.9680
G01 X46.5784
G03 X48.6325 Y-25.3680 I-42.6696 J26.7318
G01 X7.6450
G01 Y-21.7680
G01 X50.3473
G03 X51.7572 Y-18.1680 I-47.1388 J20.5363
G01 X7.6450
G01 Y-14.5680
G01 X52.8832
G03 X53.7430 Y-10.9680 I-48.5552 J13.5002
G01 X7.6574
G01 X7.3143 Y-10.9318
G02 X8.2416 Y-9.1299 I2.6958 J-0.2477
G03 X9.1299 Y-8.2416 I-7.9002 J8.7885
G02 X11.2207 Y-7.3000 I2.0589 J-1.7796
G01 X51.4966
G02 X54.1835 Y-10.5417 I0.0388 J-2.7023
G02 X10.3182 Y-54.2184 I-54.1601 J10.5282
G02 X7.3000 Y-51.4966 I-0.3173 J2.6826
G01 Y-11.2207
G01 X7.3080 Y-10.9913
G01 X7.3143 Y-10.9318
G01 X7.6574 Y-10.9680
G00 X7.6574 Y-10.9680 Z5.0000
G00 X7.0160 Y-10.9004
G00 Z0.5000
G01 Z0.0000 F200
G02 X8.0362 Y-8.9113 Z-0.8337 I2.9902 J-0.2775
G03 X8.9113 Y-8.0362 Z-1.2844 I-7.7375 J8.6126
G02 X11.2154 Y-7.0000 Z-2.2331 I2.2762 J-1.9817
G01 X39.4234 Z-12.5000
G01 X51.5021 F1900
G02 X54.4788 Y-10.5952 I0.0338 J-3.0019
G02 X10.3536 Y-54.5165 I-54.4540 J10.5811
G02 X7.0000 Y-51.5021 I-0.3528 J2.9802
G01 Y-11.2154
G01 X7.0086 Y-10.9703
G01 X7.0160 Y-10.9004
G02 X8.0362 Y-8.9113 I2.9902 J-0.2775
G03 X8.9113 Y-8.0362 I-7.7375 J8.6126
G02 X11.2154 Y-7.0000 I2.2762 J-1.9817
G01 X39.4234
G00 Z5.0000

(Nr. 6 Teil schruppen und schlichten: Teil 1)
G00 X67.4250 Y-6.0685 Z5.0000
G00 Z0.5000
G01 Z0.0000 F200
G03 X74.6120 Y-3.7260 Z-2.7606 I-4.5704 J26.2195
G03 X75.6964 Y-3.0114 Z-3.2378 I-0.9299 J2.5912
G03 X76.2850 Y-1.5089 Z-3.8379 I-1.7111 J1.5369
G03 X76.3002 Y0.3101 Z-4.5000 I-65.8491 J1.4593
G03 X76.2797 Y1.6355 I-65.8643 J-0.3596 F1900
G03 X74.8052 Y3.6334 I-2.3229 J-0.1714
G03 X67.4251 Y6.0683 I-11.9818 J-23.9146
G03 X74.0782 Y9.6564 I-9.1790 J24.9824
G03 X75.0177 Y10.5531 I-1.3777 J2.3836
G03 X75.3285 Y12.1366 I-1.9581 J1.2067
G03 X74.7618 Y15.2295 I-65.0841 J-10.3280
G03 X72.9544 Y16.9320 I-2.2550 J-0.5834
G03 X65.2579 Y18.0099 I-7.5186 J-25.6670
G03 X71.1636 Y22.7283 I-13.4915 J22.9413
G03 X71.9278 Y23.7785 I-1.7811 J2.0992
G03 X71.9509 Y25.3920 I-2.1421 J0.8376
G03 X70.8410 Y28.3340 I-62.1709 J-21.7742
G03 X68.7586 Y29.6864 I-2.1146 J-0.9766
G03 X60.9934 Y29.3728 I-2.8148 J-26.5992
G03 X65.9616 Y35.0699 I-17.3712 J20.1636
G03 X66.5260 Y36.2396 I-2.1272 J1.7474
G03 X66.2607 Y37.8313 I-2.2572 J0.4417
G03 X64.6433 Y40.5278 I-57.2836 J-32.5254
G03 X62.3529 Y41.4866 I-1.9062 J-1.3385
G03 X54.7685 Y39.7916 I1.9800 J-26.6747
G03 X58.6396 Y46.2841 I-20.6923 J16.7377
G03 X58.9861 Y47.5358 I-2.4050 J1.3396
G03 X58.4408 Y49.0546 I-2.2998 J0.0316
G03 X56.3680 Y51.4190 I-50.5698 J-42.2438
G03 X53.9432 Y51.9535 I-1.6366 J-1.6574
G03 X46.7833 Y48.9313 I6.7104 J-25.8905
G03 X49.4329 Y56.0109 I-23.3486 J12.7742
G03 X49.5503 Y57.3043 I-2.6057 J0.8886
G03 X48.7426 Y58.7013 I-2.2685 J-0.3796
G03 X46.2809 Y60.6576 I-42.2251 J-50.6078
G03 X43.7996 Y60.7505 I-1.3144 J-1.9230
G03 X37.2945 Y56.4985 I11.2258 J-24.2768
G03 X38.6374 Y63.9373 I-25.2546 J8.3998
G03 X38.5220 Y65.2310 I-2.7224 J0.4091
G03 X37.4778 Y66.4613 I-2.1642 J-0.7786
G03 X34.7063 Y67.9466 I-32.4864 J-57.2906
G03 X32.2484 Y67.5949 I-0.9498 J-2.1267
G03 X26.6069 Y62.2497 I15.3796 J-21.8815
G03 X26.6000 Y69.8088 I-26.3482 J3.7555
G03 X26.2555 Y71.0610 I-2.7517 J-0.0836
G03 X25.0084 Y72.0851 I-1.9904 J-1.1525
G03 X22.0162 Y73.0517 I-21.7373 J-62.1778
G03 X19.6605 Y72.2668 I-0.5548 J-2.2622
G03 X15.0642 Y66.0003 I19.0421 J-18.7859
G03 X13.7077 Y73.4366 I-26.5960 J-1.0097
G03 X13.1451 Y74.6071 I-2.6926 J-0.5737
G03 X11.7352 Y75.3921 I-1.7527 J-1.4893
G03 X8.6185 Y75.8089 I-10.2871 J-65.0704
G03 X6.4409 Y74.6160 I-0.1420 J-2.3249
G03 X3.0373 Y67.6294 I22.0900 J-15.0837
G03 X0.3748 Y74.7040 I-25.9872 J-5.7420
G03 X-0.3878 Y75.7554 I-2.5468 J-1.0451
G03 X-1.9152 Y76.2759 I-1.4585 J-1.7784
G03 X-5.0562 Y76.1295 I1.4977 J-65.8720
G03 X-6.9858 Y74.5669 I0.2754 J-2.3129
G03 X-9.0872 Y67.0848 I24.4261 J-10.8961
G03 X-12.9701 Y73.5704 I-24.5447 J-10.2900
G03 X-13.9082 Y74.4687 I-2.3193 J-1.4831
G03 X-15.5040 Y74.7082 I-1.1175 J-2.0102
G03 X-18.5684 Y74.0032 I13.2288 J-64.5167
G03 X-20.1880 Y72.1212 I0.6840 J-2.2265
G03 X-20.9196 Y64.3842 I25.9780 J-6.3594
G03 X-25.8982 Y70.0722 I-22.3131 J-14.5074
G03 X-26.9815 Y70.7885 I-2.0172 J-1.8734
G03 X-28.5945 Y70.7392 I-0.7407 J-2.1775
G03 X-31.4837 Y69.4985 I24.5471 J-61.1434
G03 X-32.7413 Y67.3575 I1.0705 J-2.0687
G03 X-32.0796 Y59.6142 I26.6971 J-1.6186
G03 X-37.9939 Y64.3218 I-19.3639 J-18.2583
G03 X-39.1878 Y64.8332 I-1.6503 J-2.2034
G03 X-40.7660 Y64.4967 I-0.3399 J-2.2747
G03 X-43.3872 Y62.7599 I35.0584 J-55.7602
G03 X-44.2423 Y60.4288 I1.4227 J-1.8442
G03 X-42.2086 Y52.9281 I26.5579 J3.1745
G03 X-48.8684 Y56.5041 I-15.7924 J-21.4220
G03 X-50.1344 Y56.7940 I-1.2303 J-2.4627
G03 X-51.6272 Y56.1812 I0.0716 J-2.2989
G03 X-53.8962 Y54.0043 I44.4846 J-48.6391
G03 X-54.3213 Y51.5580 I1.7291 J-1.5606
G03 X-50.9810 Y44.5409 I25.5645 J7.8657
G03 X-58.1723 Y46.8702 I-11.7136 J-23.8979
G03 X-59.4697 Y46.9295 I-0.7708 J-2.6428
G03 X-60.8290 Y46.0599 I0.4811 J-2.2491
G03 X-62.6729 Y43.5129 I52.4489 J-39.9104
G03 X-62.6544 Y41.0300 I1.9800 J-1.2268
G03 X-58.1149 Y34.7221 I23.7499 J12.3044
G03 X-65.6064 Y35.7299 I-7.2582 J-25.6053
G03 X-66.8936 Y35.5566 I-0.2865 J-2.7380
G03 X-68.0758 Y34.4583 I0.8749 J-2.1271
G03 X-69.4352 Y31.6229 I58.6937 J-29.8853
G03 X-68.9737 Y29.1832 I2.1672 J-0.8535
G03 X-63.3808 Y23.7873 I21.1715 J16.3476
G03 X-70.9320 Y23.4413 I-2.5695 J-26.4906
G03 X-72.1674 Y23.0409 I0.2070 J-2.7452
G03 X-73.1345 Y21.7491 I1.2406 J-1.9367
G03 X-73.9659 Y18.7166 I63.0839 J-18.9239
G03 X-73.0761 Y16.3985 I2.2848 J-0.4528
G03 X-66.6097 Y12.0880 I17.9123 J19.8653
G03 X-73.9777 Y10.3992 I2.2018 J-26.5234
G03 X-75.1217 Y9.7846 I0.6938 J-2.6641
G03 X-75.8427 Y8.3409 I1.5665 J-1.6841
G03 X-76.1192 Y5.2087 I65.4736 J-7.3579
G03 X-74.8298 Y3.0867 I2.3289 J-0.0376
G03 X-67.6975 Y0.0001 I14.0763 J22.7424
G03 X-74.6456 Y-2.9772 I6.9021 J-25.7037
G03 X-75.6617 Y-3.7861 I1.1584 J-2.4974
G03 X-76.1132 Y-5.3354 I1.8420 J-1.3773
G03 X-75.8260 Y-8.4666 I65.7040 J4.4482
G03 X-74.1784 Y-10.3242 I2.2982 J0.3789
G03 X-66.6096 Y-12.0878 I9.7893 J24.8906
G03 X-72.9144 Y-16.2578 I11.3809 J-24.0584
G03 X-73.7697 Y-17.2352 I1.5857 J-2.2504
G03 X-73.9374 Y-18.8401 I2.0583 J-1.0263
G03 X-73.0957 Y-21.8698 I63.8956 J16.1202
G03 X-71.1428 Y-23.4034 I2.1936 J0.7832
G03 X-63.3809 Y-23.7871 I5.1877 J26.2396
G03 X-68.8398 Y-29.0159 I15.4939 J-21.6396
G03 X-69.5067 Y-30.1303 I1.9620 J-1.9311
G03 X-69.3851 Y-31.7394 I2.2085 J-0.6423
G03 X-68.0160 Y-34.5701 I59.9706 J27.2607
G03 X-65.8207 Y-35.7303 I2.0185 J1.1623
G03 X-58.1149 Y-34.7220 I0.4192 J26.7440
G03 X-62.5524 Y-40.8414 I19.1090 J-18.5255
G03 X-63.0098 Y-42.0570 I2.2753 J-1.5498
G03 X-62.6028 Y-43.6185 I2.2877 J-0.2376
G03 X-60.7502 Y-46.1593 I54.1358 J37.5282
G03 X-58.3831 Y-46.9089 I1.7786 J1.5040
G03 X-50.9812 Y-44.5408 I-4.3630 J26.3892
G03 X-54.2547 Y-51.3543 I22.1101 J-14.8159
G03 X-54.4876 Y-52.6319 I2.5155 J-1.1186
G03 X-53.8083 Y-54.0957 I2.2934 J0.1747
G03 X-51.5319 Y-56.2648 I46.5709 J46.5978
G03 X-49.0689 Y-56.5797 I1.4814 J1.7974
G03 X-42.2088 Y-52.9281 I-9.0052 J25.1869
G03 X-44.2131 Y-60.2165 I24.3999 J-10.6298
G03 X-44.2142 Y-61.5153 I2.6749 J-0.6515
G03 X-43.2845 Y-62.8342 I2.2253 J0.5814
G03 X-40.6572 Y-64.5620 I37.4825 J54.1346
G03 X-38.1777 Y-64.4321 I1.1367 J2.0331
G03 X-32.0798 Y-59.6141 I-13.3570 J23.1732
G03 X-32.7505 Y-67.1433 I25.9047 J-6.1021
G03 X-32.5196 Y-68.4215 I2.7481 J-0.1634
G03 X-31.3694 Y-69.5532 I2.0857 J0.9694
G03 X-28.4759 Y-70.7841 I27.2311 J59.9975
G03 X-26.0593 Y-70.2135 I0.7554 J2.2034
G03 X-20.9198 Y-64.3842 I-17.2799 J20.4155
G03 X-20.2353 Y-71.9122 I26.5788 J-1.3785
G03 X-19.7799 Y-73.1285 I2.7331 J0.3299
G03 X-18.4460 Y-74.0367 I1.8791 J1.3262
G03 X-15.3793 Y-74.7311 I16.0777 J63.8834
G03 X-13.1035 Y-73.7383 I0.3498 J2.3028
G03 X-9.0874 Y-67.0848 I-20.6465 J17.0013
G03 X-7.0697 Y-74.3697 I26.3983 J3.3896
G03 X-6.4045 Y-75.4851 I2.6303 J0.8127
G03 X-4.9298 Y-76.1405 I1.6121 J1.6404
G03 X-1.7884 Y-76.2762 I4.4133 J65.7451
G03 X0.2736 Y-74.8929 I-0.0670 J2.3283
G03 X3.0371 Y-67.6293 I-23.3504 J13.0415
G03 X6.3231 Y-74.4369 I25.3686 J8.0485
G03 X7.1769 Y-75.4156 I2.4429 J1.2693
G03 X8.7448 Y-75.7972 I1.2933 J1.9020
G03 X11.8600 Y-75.3698 I-7.3979 J65.4843
G03 X13.6418 Y-73.6405 I-0.4816 J2.2789
G03 X15.0640 Y-66.0003 I-25.3063 J8.6632
G03 X19.5127 Y-72.1116 I23.5231 J12.4485
G03 X20.5275 Y-72.9222 I2.1770 J1.6850
G03 X22.1384 Y-73.0177 I0.9329 J2.1023
G03 X25.1272 Y-72.0409 I-18.9573 J63.0668
G03 X26.5716 Y-70.0212 I-0.8808 J2.1563
G03 X26.6067 Y-62.2498 I-26.4445 J4.0052
G03 X32.0752 Y-67.4686 I20.9233 J16.4496
G03 X33.2183 Y-68.0849 I1.8412 J2.0468
G03 X34.8204 Y-67.8913 I0.5426 J2.2351
G03 X37.5868 Y-66.3965 I-29.9160 J58.6728
G03 X38.6474 Y-64.1514 I-1.2517 J1.9644
G03 X37.2943 Y-56.4986 I-26.7363 J-0.7812
G03 X43.6067 Y-60.6571 I17.6490 J19.9201
G03 X44.8417 Y-61.0594 I1.4461 J2.3425
G03 X46.3833 Y-60.5828 I0.1346 J2.2961
G03 X48.8383 Y-58.6181 I-39.9305 J52.4118
G03 X49.4810 Y-56.2197 I-1.5823 J1.7093
G03 X46.7831 Y-48.9315 I-26.1645 J-5.5418
G03 X53.7366 Y-51.8961 I13.8088 J22.7517
G03 X55.0235 Y-52.0714 I1.0046 J2.5631
G03 X56.4554 Y-51.3272 I-0.2774 J2.2832
G03 X58.5201 Y-48.9557 I-48.6559 J44.4472
G03 X58.7242 Y-46.4810 I-1.8621 J1.3993
G03 X54.7684 Y-39.7917 I-24.7568 J-10.1258
G03 X62.1395 Y-41.4670 I9.5243 J24.8517
G03 X63.4370 Y-41.4097 I0.5308 J2.7013
G03 X64.7129 Y-40.4218 I-0.6807 J2.1970
G03 X66.3211 Y-37.7197 I-55.7610 J35.0156
G03 X66.0800 Y-35.2485 I-2.0820 J1.0443
G03 X60.9934 Y-29.3730 I-22.5516 J-14.3841
G03 X68.5451 Y-29.7052 I4.9338 J26.1535
G03 X69.8115 Y-29.4172 I0.0399 J2.7527
G03 X70.8906 Y-28.2173 I-1.0620 J2.0401
G03 X71.9904 Y-25.2715 I-61.1139 J24.4950
G03 X71.3120 Y-22.8830 I-2.2350 J0.6558
G03 X65.2579 Y-18.0101 I-19.6206 J-18.1794
G03 X72.7476 Y-16.9886 I0.1846 J26.6138
G03 X73.9423 Y-16.4791 I-0.4522 J2.7155
G03 X74.7897 Y-15.1058 I-1.4092 J1.8177
G03 X75.3459 Y-12.0110 I-64.5305 J13.1938
G03 X74.2518 Y-9.7820 I-2.3162 J0.2462
G03 X67.4250 Y-6.0685 I-16.0585 J-21.3895
G03 X74.6120 Y-3.7260 Z-7.2606 I-4.5704 J26.2195 F200
G03 X75.6964 Y-3.0114 Z-7.7378 I-0.9299 J2.5912
G03 X76.2850 Y-1.5089 Z-8.3379 I-1.7111 J1.5369
G03 X76.3002 Y0.3101 Z-9.0000 I-65.8491 J1.4593
G03 X76.2797 Y1.6355 I-65.8643 J-0.3596 F1900
G03 X74.8052 Y3.6334 I-2.3229 J-0.1714
G03 X67.4251 Y6.0683 I-11.9818 J-23.9146
G03 X74.0782 Y9.6564 I-9.1790 J24.9824
G03 X75.0177 Y10.5531 I-1.3777 J2.3836
G03 X75.3285 Y12.1366 I-1.9581 J1.2067
G03 X74.7618 Y15.2295 I-65.0841 J-10.3280
G03 X72.9544 Y16.9320 I-2.2550 J-0.5834
G03 X65.2579 Y18.0099 I-7.5186 J-25.6670
G03 X71.1636 Y22.7283 I-13.4915 J22.9413
G03 X71.9278 Y23.7785 I-1.7811 J2.0992
G03 X71.9509 Y25.3920 I-2.1421 J0.8376
G03 X70.8410 Y28.3340 I-62.1709 J-21.7742
G03 X68.7586 Y29.6864 I-2.1146 J-0.9766
G03 X60.9934 Y29.3728 I-2.8148 J-26.5992
G03 X65.9616 Y35.0699 I-17.3712 J20.1636
G03 X66.5260 Y36.2396 I-2.1272 J1.7474
G03 X66.2607 Y37.8313 I-2.2572 J0.4417
G03 X64.6433 Y40.5278 I-57.2836 J-32.5254
G03 X62.3529 Y41.4866 I-1.9062 J-1.3385
G03 X54.7685 Y39.7916 I1.9800 J-26.6747
G03 X58.6396 Y46.2841 I-20.6923 J16.7377
G03 X58.9861 Y47.5358 I-2.4050 J1.3396
G03 X58.4408 Y49.0546 I-2.2998 J0.0316
G03 X56.3680 Y51.4190 I-50.5698 J-42.2438
G03 X53.9432 Y51.9535 I-1.6366 J-1.6574
G03 X46.7833 Y48.9313 I6.7104 J-25.8905
G03 X49.4329 Y56.0109 I-23.3486 J12.7742
G03 X49.5503 Y57.3043 I-2.6057 J0.8886
G03 X48.7426 Y58.7013 I-2.2685 J-0.3796
G03 X46.2809 Y60.6576 I-42.2251 J-50.6078
G03 X43.7996 Y60.7505 I-1.3144 J-1.9230
G03 X37.2945 Y56.4985 I11.2258 J-24.2768
G03 X38.6374 Y63.9373 I-25.2546 J8.3998
G03 X38.5220 Y65.2310 I-2.7224 J0.4091
G03 X37.4778 Y66.4613 I-2.1642 J-0.7786
G03 X34.7063 Y67.9466 I-32.4864 J-57.2906
G03 X32.2484 Y67.5949 I-0.9498 J-2.1267
G03 X26.6069 Y62.2497 I15.3796 J-21.8815
G03 X26.6000 Y69.8088 I-26.3482 J3.7555
G03 X26.2555 Y71.0610 I-2.7517 J-0.0836
G03 X25.0084 Y72.0851 I-1.9904 J-1.1525
G03 X22.0162 Y73.0517 I-21.7373 J-62.1778
G03 X19.6605 Y72.2668 I-0.5548 J-2.2622
G03 X15.0642 Y66.0003 I19.0421 J-18.7859
G03 X13.7077 Y73.4366 I-26.5960 J-1.0097
G03 X13.1451 Y74.6071 I-2.6926 J-0.5737
G03 X11.7352 Y75.3921 I-1.7527 J-1.4893
G03 X8.6185 Y75.8089 I-10.2871 J-65.0704
G03 X6.4409 Y74.6160 I-0.1420 J-2.3249
G03 X3.0373 Y67.6294 I22.0900 J-15.0837
G03 X0.3748 Y74.7040 I-25.9872 J-5.7420
G03 X-0.3878 Y75.7554 I-2.5468 J-1.0451
G03 X-1.9152 Y76.2759 I-1.4585 J-1.7784
G03 X-5.0562 Y76.1295 I1.4977 J-65.8720
G03 X-6.9858 Y74.5669 I0.2754 J-2.3129
G03 X-9.0872 Y67.0848 I24.4261 J-10.8961
G03 X-12.9701 Y73.5704 I-24.5447 J-10.2900
G03 X-13.9082 Y74.4687 I-2.3193 J-1.4831
G03 X-15.5040 Y74.7082 I-1.1175 J-2.0102
G03 X-18.5684 Y74.0032 I13.2288 J-64.5167
G03 X-20.1880 Y72.1212 I0.6840 J-2.2265
G03 X-20.9196 Y64.3842 I25.9780 J-6.3594
G03 X-25.8982 Y70.0722 I-22.3131 J-14.5074
G03 X-26.9815 Y70.7885 I-2.0172 J-1.8734
G03 X-28.5945 Y70.7392 I-0.7407 J-2.1775
G03 X-31.4837 Y69.4985 I24.5471 J-61.1434
G03 X-32.7413 Y67.3575 I1.0705 J-2.0687
G03 X-32.0796 Y59.6142 I26.6971 J-1.6186
G03 X-37.9939 Y64.3218 I-19.3639 J-18.2583
G03 X-39.1878 Y64.8332 I-1.6503 J-2.2034
G03 X-40.7660 Y64.4967 I-0.3399 J-2.2747
G03 X-43.3872 Y62.7599 I35.0584 J-55.7602
G03 X-44.2423 Y60.4288 I1.4227 J-1.8442
G03 X-42.2086 Y52.9281 I26.5579 J3.1745
G03 X-48.8684 Y56.5041 I-15.7924 J-21.4220
G03 X-50.1344 Y56.7940 I-1.2303 J-2.4627
G03 X-51.6272 Y56.1812 I0.0716 J-2.2989
G03 X-53.8962 Y54.0043 I44.4846 J-48.6391
G03 X-54.3213 Y51.5580 I1.7291 J-1.5606
G03 X-50.9810 Y44.5409 I25.5645 J7.8657
G03 X-58.1723 Y46.8702 I-11.7136 J-23.8979
G03 X-59.4697 Y46.9295 I-0.7708 J-2.6428
G03 X-60.8290 Y46.0599 I0.4811 J-2.2491
G03 X-62.6729 Y43.5129 I52.4489 J-39.9104
G03 X-62.6544 Y41.0300 I1.9800 J-1.2268
G03 X-58.1149 Y34.7221 I23.7499 J12.3044
G03 X-65.6064 Y35.7299 I-7.2582 J-25.6053
G03 X-66.8936 Y35.5566 I-0.2865 J-2.7380
G03 X-68.0758 Y34.4583 I0.8749 J-2.1271
G03 X-69.4352 Y31.6229 I58.6937 J-29.8853
G03 X-68.9737 Y29.1832 I2.1672 J-0.8535
G03 X-63.3808 Y23.7873 I21.1715 J16.3476
G03 X-70.9320 Y23.4413 I-2.5695 J-26.4906
G03 X-72.1674 Y23.0409 I0.2070 J-2.7452
G03 X-73.1345 Y21.7491 I1.2406 J-1.9367
G03 X-73.9659 Y18.7166 I63.0839 J-18.9239
G03 X-73.0761 Y16.3985 I2.2848 J-0.4528
G03 X-66.6097 Y12.0880 I17.9123 J19.8653
G03 X-73.9777 Y10.3992 I2.2018 J-26.5234
G03 X-75.1217 Y9.7846 I0.6938 J-2.6641
G03 X-75.8427 Y8.3409 I1.5665 J-1.6841
G03 X-76.1192 Y5.2087 I65.4736 J-7.3579
G03 X-74.8298 Y3.0867 I2.3289 J-0.0376
G03 X-67.6975 Y0.0001 I14.0763 J22.7424
G03 X-74.6456 Y-2.9772 I6.9021 J-25.7037
G03 X-75.6617 Y-3.7861 I1.1584 J-2.4974
G03 X-76.1132 Y-5.3354 I1.8420 J-1.3773
G03 X-75.8260 Y-8.4666 I65.7040 J4.4482
G03 X-74.1784 Y-10.3242 I2.2982 J0.3789
G03 X-66.6096 Y-12.0878 I9.7893 J24.8906
G03 X-72.9144 Y-16.2578 I11.3809 J-24.0584
G03 X-73.7697 Y-17.2352 I1.5857 J-2.2504
G03 X-73.9374 Y-18.8401 I2.0583 J-1.0263
G03 X-73.0957 Y-21.8698 I63.8956 J16.1202
G03 X-71.1428 Y-23.4034 I2.1936 J0.7832
G03 X-63.3809 Y-23.7871 I5.1877 J26.2396
G03 X-68.8398 Y-29.0159 I15.4939 J-21.6396
G03 X-69.5067 Y-30.1303 I1.9620 J-1.9311
G03 X-69.3851 Y-31.7394 I2.2085 J-0.6423
G03 X-68.0160 Y-34.5701 I59.9706 J27.2607
G03 X-65.8207 Y-35.7303 I2.0185 J1.1623
G03 X-58.1149 Y-34.7220 I0.4192 J26.7440
G03 X-62.5524 Y-40.8414 I19.1090 J-18.5255
G03 X-63.0098 Y-42.0570 I2.2753 J-1.5498
G03 X-62.6028 Y-43.6185 I2.2877 J-0.2376
G03 X-60.7502 Y-46.1593 I54.1358 J37.5282
G03 X-58.3831 Y-46.9089 I1.7786 J1.5040
G03 X-50.9812 Y-44.5408 I-4.3630 J26.3892
G03 X-54.2547 Y-51.3543 I22.1101 J-14.8159
G03 X-54.4876 Y-52.6319 I2.5155 J-1.1186
G03 X-53.8083 Y-54.0957 I2.2934 J0.1747
G03 X-51.5319 Y-56.2648 I46.5709 J46.5978
G03 X-49.0689 Y-56.5797 I1.4814 J1.7974
G03 X-42.2088 Y-52.9281 I-9.0052 J25.1869
G03 X-44.2131 Y-60.2165 I24.3999 J-10.6298
G03 X-44.2142 Y-61.5153 I2.6749 J-0.6515
G03 X-43.2845 Y-62.8342 I2.2253 J0.5814
G03 X-40.6572 Y-64.5620 I37.4825 J54.1346
G03 X-38.1777 Y-64.4321 I1.1367 J2.0331
G03 X-32.0798 Y-59.6141 I-13.3570 J23.1732
G03 X-32.7505 Y-67.1433 I25.9047 J-6.1021
G03 X-32.5196 Y-68.4215 I2.7481 J-0.1634
G03 X-31.3694 Y-69.5532 I2.0857 J0.9694
G03 X-28.4759 Y-70.7841 I27.2311 J59.9975
G03 X-26.0593 Y-70.2135 I0.7554 J2.2034
G03 X-20.9198 Y-64.3842 I-17.2799 J20.4155
G03 X-20.2353 Y-71.9122 I26.5788 J-1.3785
G03 X-19.7799 Y-73.1285 I2.7331 J0.3299
G03 X-18.4460 Y-74.0367 I1.8791 J1.3262
G03 X-15.3793 Y-74.7311 I16.0777 J63.8834
G03 X-13.1035 Y-73.7383 I0.3498 J2.3028
G03 X-9.0874 Y-67.0848 I-20.6465 J17.0013
G03 X-7.0697 Y-74.3697 I26.3983 J3.3896
G03 X-6.4045 Y-75.4851 I2.6303 J0.8127
G03 X-4.9298 Y-76.1405 I1.6121 J1.6404
G03 X-1.7884 Y-76.2762 I4.4133 J65.7451
G03 X0.2736 Y-74.8929 I-0.0670 J2.3283
G03 X3.0371 Y-67.6293 I-23.3504 J13.0415
G03 X6.3231 Y-74.4369 I25.3686 J8.0485
G03 X7.1769 Y-75.4156 I2.4429 J1.2693
G03 X8.7448 Y-75.7972 I1.2933 J1.9020
G03 X11.8600 Y-75.3698 I-7.3979 J65.4843
G03 X13.6418 Y-73.6405 I-0.4816 J2.2789
G03 X15.0640 Y-66.0003 I-25.3063 J8.6632
G03 X19.5127 Y-72.1116 I23.5231 J12.4485
G03 X20.5275 Y-72.9222 I2.1770 J1.6850
G03 X22.1384 Y-73.0177 I0.9329 J2.1023
G03 X25.1272 Y-72.0409 I-18.9573 J63.0668
G03 X26.5716 Y-70.0212 I-0.8808 J2.1563
G03 X26.6067 Y-62.2498 I-26.4445 J4.0052
G03 X32.0752 Y-67.4686 I20.9233 J16.4496
G03 X33.2183 Y-68.0849 I1.8412 J2.0468
G03 X34.8204 Y-67.8913 I0.5426 J2.2351
G03 X37.5868 Y-66.3965 I-29.9160 J58.6728
G03 X38.6474 Y-64.1514 I-1.2517 J1.9644
G03 X37.2943 Y-56.4986 I-26.7363 J-0.7812
G03 X43.6067 Y-60.6571 I17.6490 J19.9201
G03 X44.8417 Y-61.0594 I1.4461 J2.3425
G03 X46.3833 Y-60.5828 I0.1346 J2.2961
G03 X48.8383 Y-58.6181 I-39.9305 J52.4118
G03 X49.4810 Y-56.2197 I-1.5823 J1.7093
G03 X46.7831 Y-48.9315 I-26.1645 J-5.5418
G03 X53.7366 Y-51.8961 I13.8088 J22.7517
G03 X55.0235 Y-52.0714 I1.0046 J2.5631
G03 X56.4554 Y-51.3272 I-0.2774 J2.2832
G03 X58.5201 Y-48.9557 I-48.6559 J44.4472
G03 X58.7242 Y-46.4810 I-1.8621 J1.3993
G03 X54.7684 Y-39.7917 I-24.7568 J-10.1258
G03 X62.1395 Y-41.4670 I9.5243 J24.8517
G03 X63.4370 Y-41.4097 I0.5308 J2.7013
G03 X64.7129 Y-40.4218 I-0.6807 J2.1970
G03 X66.3211 Y-37.7197 I-55.7610 J35.0156
G03 X66.0800 Y-35.2485 I-2.0820 J1.0443
G03 X60.9934 Y-29.3730 I-22.5516 J-14.3841
G03 X68.5451 Y-29.7052 I4.9338 J26.1535
G03 X69.8115 Y-29.4172 I0.0399 J2.7527
G03 X70.8906 Y-28.2173 I-1.0620 J2.0401
G03 X71.9904 Y-25.2715 I-61.1139 J24.4950
G03 X71.3120 Y-22.8830 I-2.2350 J0.6558
G03 X65.2579 Y-18.0101 I-19.6206 J-18.1794
G03 X72.7476 Y-16.9886 I0.1846 J26.6138
G03 X73.9423 Y-16.4791 I-0.4522 J2.7155
G03 X74.7897 Y-15.1058 I-1.4092 J1.8177
G03 X75.3459 Y-12.0110 I-64.5305 J13.1938
G03 X74.2518 Y-9.7820 I-2.3162 J0.2462
G03 X67.4250 Y-6.0685 I-16.0585 J-21.3895
G03 X74.6120 Y-3.7260 Z-11.7606 I-4.5704 J26.2195 F200
G03 X75.6964 Y-3.0114 Z-12.2378 I-0.9299 J2.5912
G03 X76.0867 Y-2.4094 Z-12.5000 I-1.7111 J1.5369
G03 X76.2850 Y-1.5089 I-2.1014 J0.9349 F1900
G03 X76.2797 Y1.6355 I-65.8491 J1.4593
G03 X74.8052 Y3.6334 I-2.3229 J-0.1714
G03 X67.4251 Y6.0683 I-11.9818 J-23.9146
G03 X74.0782 Y9.6564 I-9.1790 J24.9824
G03 X75.0177 Y10.5531 I-1.3777 J2.3836
G03 X75.3285 Y12.1366 I-1.9581 J1.2067
G03 X74.7618 Y15.2295 I-65.0841 J-10.3280
G03 X72.9544 Y16.9320 I-2.2550 J-0.5834
G03 X65.2579 Y18.0099 I-7.5186 J-25.6670
G03 X71.1636 Y22.7283 I-13.4915 J22.9413
G03 X71.9278 Y23.7785 I-1.7811 J2.0992
G03 X71.9509 Y25.3920 I-2.1421 J0.8376
G03 X70.8410 Y28.3340 I-62.1709 J-21.7742
G03 X68.7586 Y29.6864 I-2.1146 J-0.9766
G03 X60.9934 Y29.3728 I-2.8148 J-26.5992
G03 X65.9616 Y35.0699 I-17.3712 J20.1636
G03 X66.5260 Y36.2396 I-2.1272 J1.7474
G03 X66.2607 Y37.8313 I-2.2572 J0.4417
G03 X64.6433 Y40.5278 I-57.2836 J-32.5254
G03 X62.3529 Y41.4866 I-1.9062 J-1.3385
G03 X54.7685 Y39.7916 I1.9800 J-26.6747
G03 X58.6396 Y46.2841 I-20.6923 J16.7377
G03 X58.9861 Y47.5358 I-2.4050 J1.3396
G03 X58.4408 Y49.0546 I-2.2998 J0.0316
G03 X56.3680 Y51.4190 I-50.5698 J-42.2438
G03 X53.9432 Y51.9535 I-1.6366 J-1.6574
G03 X46.7833 Y48.9313 I6.7104 J-25.8905
G03 X49.4329 Y56.0109 I-23.3486 J12.7742
G03 X49.5503 Y57.3043 I-2.6057 J0.8886
G03 X48.7426 Y58.7013 I-2.2685 J-0.3796
G03 X46.2809 Y60.6576 I-42.2251 J-50.6078
G03 X43.7996 Y60.7505 I-1.3144 J-1.9230
G03 X37.2945 Y56.4985 I11.2258 J-24.2768
G03 X38.6374 Y63.9373 I-25.2546 J8.3998
G03 X38.5220 Y65.2310 I-2.7224 J0.4091
G03 X37.4778 Y66.4613 I-2.1642 J-0.7786
G03 X34.7063 Y67.9466 I-32.4864 J-57.2906
G03 X32.2484 Y67.5949 I-0.9498 J-2.1267
G03 X26.6069 Y62.2497 I15.3796 J-21.8815
G03 X26.6000 Y69.8088 I-26.3482 J3.7555
G03 X26.2555 Y71.0610 I-2.7517 J-0.0836
G03 X25.0084 Y72.0851 I-1.9904 J-1.1525
G03 X22.0162 Y73.0517 I-21.7373 J-62.1778
G03 X19.6605 Y72.2668 I-0.5548 J-2.2622
G03 X15.0642 Y66.0003 I19.0421 J-18.7859
G03 X13.7077 Y73.4366 I-26.5960 J-1.0097
G03 X13.1451 Y74.6071 I-2.6926 J-0.5737
G03 X11.7352 Y75.3921 I-1.7527 J-1.4893
G03 X8.6185 Y75.8089 I-10.2871 J-65.0704
G03 X6.4409 Y74.6160 I-0.1420 J-2.3249
G03 X3.0373 Y67.6294 I22.0900 J-15.0837
G03 X0.3748 Y74.7040 I-25.9872 J-5.7420
G03 X-0.3878 Y75.7554 I-2.5468 J-1.0451
G03 X-1.9152 Y76.2759 I-1.4585 J-1.7784
G03 X-5.0562 Y76.1295 I1.4977 J-65.8720
G03 X-6.9858 Y74.5669 I0.2754 J-2.3129
G03 X-9.0872 Y67.0848 I24.4261 J-10.8961
G03 X-12.9701 Y73.5704 I-24.5447 J-10.2900
G03 X-13.9082 Y74.4687 I-2.3193 J-1.4831
G03 X-15.5040 Y74.7082 I-1.1175 J-2.0102
G03 X-18.5684 Y74.0032 I13.2288 J-64.5167
G03 X-20.1880 Y72.1212 I0.6840 J-2.2265
G03 X-20.9196 Y64.3842 I25.9780 J-6.3594
G03 X-25.8982 Y70.0722 I-22.3131 J-14.5074
G03 X-26.9815 Y70.7885 I-2.0172 J-1.8734
G03 X-28.5945 Y70.7392 I-0.7407 J-2.1775
G03 X-31.4837 Y69.4985 I24.5471 J-61.1434
G03 X-32.7413 Y67.3575 I1.0705 J-2.0687
G03 X-32.0796 Y59.6142 I26.6971 J-1.6186
G03 X-37.9939 Y64.3218 I-19.3639 J-18.2583
G03 X-39.1878 Y64.8332 I-1.6503 J-2.2034
G03 X-40.7660 Y64.4967 I-0.3399 J-2.2747
G03 X-43.3872 Y62.7599 I35.0584 J-55.7602
G03 X-44.2423 Y60.4288 I1.4227 J-1.8442
G03 X-42.2086 Y52.9281 I26.5579 J3.1745
G03 X-48.8684 Y56.5041 I-15.7924 J-21.4220
G03 X-50.1344 Y56.7940 I-1.2303 J-2.4627
G03 X-51.6272 Y56.1812 I0.0716 J-2.2989
G03 X-53.8962 Y54.0043 I44.4846 J-48.6391
G03 X-54.3213 Y51.5580 I1.7291 J-1.5606
G03 X-50.9810 Y44.5409 I25.5645 J7.8657
G03 X-58.1723 Y46.8702 I-11.7136 J-23.8979
G03 X-59.4697 Y46.9295 I-0.7708 J-2.6428
G03 X-60.8290 Y46.0599 I0.4811 J-2.2491
G03 X-62.6729 Y43.5129 I52.4489 J-39.9104
G03 X-62.6544 Y41.0300 I1.9800 J-1.2268
G03 X-58.1149 Y34.7221 I23.7499 J12.3044
G03 X-65.6064 Y35.7299 I-7.2582 J-25.6053
G03 X-66.8936 Y35.5566 I-0.2865 J-2.7380
G03 X-68.0758 Y34.4583 I0.8749 J-2.1271
G03 X-69.4352 Y31.6229 I58.6937 J-29.8853
G03 X-68.9737 Y29.1832 I2.1672 J-0.8535
G03 X-63.3808 Y23.7873 I21.1715 J16.3476
G03 X-70.9320 Y23.4413 I-2.5695 J-26.4906
G03 X-72.1674 Y23.0409 I0.2070 J-2.7452
G03 X-73.1345 Y21.7491 I1.2406 J-1.9367
G03 X-73.9659 Y18.7166 I63.0839 J-18.9239
G03 X-73.0761 Y16.3985 I2.2848 J-0.4528
G03 X-66.6097 Y12.0880 I17.9123 J19.8653
G03 X-73.9777 Y10.3992 I2.2018 J-26.5234
G03 X-75.1217 Y9.7846 I0.6938 J-2.6641
G03 X-75.8427 Y8.3409 I1.5665 J-1.6841
G03 X-76.1192 Y5.2087 I65.4736 J-7.3579
G03 X-74.8298 Y3.0867 I2.3289 J-0.0376
G03 X-67.6975 Y0.0001 I14.0763 J22.7424
G03 X-74.6456 Y-2.9772 I6.9021 J-25.7037
G03 X-75.6617 Y-3.7861 I1.1584 J-2.4974
G03 X-76.1132 Y-5.3354 I1.8420 J-1.3773
G03 X-75.8260 Y-8.4666 I65.7040 J4.4482
G03 X-74.1784 Y-10.3242 I2.2982 J0.3789
G03 X-66.6096 Y-12.0878 I9.7893 J24.8906
G03 X-72.9144 Y-16.2578 I11.3809 J-24.0584
G03 X-73.7697 Y-17.2352 I1.5857 J-2.2504
G03 X-73.9374 Y-18.8401 I2.0583 J-1.0263
G03 X-73.0957 Y-21.8698 I63.8956 J16.1202
G03 X-71.1428 Y-23.4034 I2.1936 J0.7832
G03 X-63.3809 Y-23.7871 I5.1877 J26.2396
G03 X-68.8398 Y-29.0159 I15.4939 J-21.6396
G03 X-69.5067 Y-30.1303 I1.9620 J-1.9311
G03 X-69.3851 Y-31.7394 I2.2085 J-0.6423
G03 X-68.0160 Y-34.5701 I59.9706 J27.2607
G03 X-65.8207 Y-35.7303 I2.0185 J1.1623
G03 X-58.1149 Y-34.7220 I0.4192 J26.7440
G03 X-62.5524 Y-40.8414 I19.1090 J-18.5255
G03 X-63.0098 Y-42.0570 I2.2753 J-1.5498
G03 X-62.6028 Y-43.6185 I2.2877 J-0.2376
G03 X-60.7502 Y-46.1593 I54.1358 J37.5282
G03 X-58.3831 Y-46.9089 I1.7786 J1.5040
G03 X-50.9812 Y-44.5408 I-4.3630 J26.3892
G03 X-54.2547 Y-51.3543 I22.1101 J-14.8159
G03 X-54.4876 Y-52.6319 I2.5155 J-1.1186
G03 X-53.8083 Y-54.0957 I2.2934 J0.1747
G03 X-51.5319 Y-56.2648 I46.5709 J46.5978
G03 X-49.0689 Y-56.5797 I1.4814 J1.7974
G03 X-42.2088 Y-52.9281 I-9.0052 J25.1869
G03 X-44.2131 Y-60.2165 I24.3999 J-10.6298
G03 X-44.2142 Y-61.5153 I2.6749 J-0.6515
G03 X-43.2845 Y-62.8342 I2.2253 J0.5814
G03 X-40.6572 Y-64.5620 I37.4825 J54.1346
G03 X-38.1777 Y-64.4321 I1.1367 J2.0331
G03 X-32.0798 Y-59.6141 I-13.3570 J23.1732
G03 X-32.7505 Y-67.1433 I25.9047 J-6.1021
G03 X-32.5196 Y-68.4215 I2.7481 J-0.1634
G03 X-31.3694 Y-69.5532 I2.0857 J0.9694
G03 X-28.4759 Y-70.7841 I27.2311 J59.9975
G03 X-26.0593 Y-70.2135 I0.7554 J2.2034
G03 X-20.9198 Y-64.3842 I-17.2799 J20.4155
G03 X-20.2353 Y-71.9122 I26.5788 J-1.3785
G03 X-19.7799 Y-73.1285 I2.7331 J0.3299
G03 X-18.4460 Y-74.0367 I1.8791 J1.3262
G03 X-15.3793 Y-74.7311 I16.0777 J63.8834
G03 X-13.1035 Y-73.7383 I0.3498 J2.3028
G03 X-9.0874 Y-67.0848 I-20.6465 J17.0013
G03 X-7.0697 Y-74.3697 I26.3983 J3.3896
G03 X-6.4045 Y-75.4851 I2.6303 J0.8127
G03 X-4.9298 Y-76.1405 I1.6121 J1.6404
G03 X-1.7884 Y-76.2762 I4.4133 J65.7451
G03 X0.2736 Y-74.8929 I-0.0670 J2.3283
G03 X3.0371 Y-67.6293 I-23.3504 J13.0415
G03 X6.3231 Y-74.4369 I25.3686 J8.0485
G03 X7.1769 Y-75.4156 I2.4429 J1.2693
G03 X8.7448 Y-75.7972 I1.2933 J1.9020
G03 X11.8600 Y-75.3698 I-7.3979 J65.4843
G03 X13.6418 Y-73.6405 I-0.4816 J2.2789
G03 X15.0640 Y-66.0003 I-25.3063 J8.6632
G03 X19.5127 Y-72.1116 I23.5231 J12.4485
G03 X20.5275 Y-72.9222 I2.1770 J1.6850
G03 X22.1384 Y-73.0177 I0.9329 J2.1023
G03 X25.1272 Y-72.0409 I-18.9573 J63.0668
G03 X26.5716 Y-70.0212 I-0.8808 J2.1563
G03 X26.6067 Y-62.2498 I-26.4445 J4.0052
G03 X32.0752 Y-67.4686 I20.9233 J16.4496
G03 X33.2183 Y-68.0849 I1.8412 J2.0468
G03 X34.8204 Y-67.8913 I0.5426 J2.2351
G03 X37.5868 Y-66.3965 I-29.9160 J58.6728
G03 X38.6474 Y-64.1514 I-1.2517 J1.9644
G03 X37.2943 Y-56.4986 I-26.7363 J-0.7812
G03 X43.6067 Y-60.6571 I17.6490 J19.9201
G03 X44.8417 Y-61.0594 I1.4461 J2.3425
G03 X46.3833 Y-60.5828 I0.1346 J2.2961
G03 X48.8383 Y-58.6181 I-39.9305 J52.4118
G03 X49.4810 Y-56.2197 I-1.5823 J1.7093
G03 X46.7831 Y-48.9315 I-26.1645 J-5.5418
G03 X53.7366 Y-51.8961 I13.8088 J22.7517
G03 X55.0235 Y-52.0714 I1.0046 J2.5631
G03 X56.4554 Y-51.3272 I-0.2774 J2.2832
G03 X58.5201 Y-48.9557 I-48.6559 J44.4472
G03 X58.7242 Y-46.4810 I-1.8621 J1.3993
G03 X54.7684 Y-39.7917 I-24.7568 J-10.1258
G03 X62.1395 Y-41.4670 I9.5243 J24.8517
G03 X63.4370 Y-41.4097 I0.5308 J2.7013
G03 X64.7129 Y-40.4218 I-0.6807 J2.1970
G03 X66.3211 Y-37.7197 I-55.7610 J35.0156
G03 X66.0800 Y-35.2485 I-2.0820 J1.0443
G03 X60.9934 Y-29.3730 I-22.5516 J-14.3841
G03 X68.5451 Y-29.7052 I4.9338 J26.1535
G03 X69.8115 Y-29.4172 I0.0399 J2.7527
G03 X70.8906 Y-28.2173 I-1.0620 J2.0401
G03 X71.9904 Y-25.2715 I-61.1139 J24.4950
G03 X71.3120 Y-22.8830 I-2.2350 J0.6558
G03 X65.2579 Y-18.0101 I-19.6206 J-18.1794
G03 X72.7476 Y-16.9886 I0.1846 J26.6138
G03 X73.9423 Y-16.4791 I-0.4522 J2.7155
G03 X74.7897 Y-15.1058 I-1.4092 J1.8177
G03 X75.3459 Y-12.0110 I-64.5305 J13.1938
G03 X74.2518 Y-9.7820 I-2.3162 J0.2462
G03 X67.4250 Y-6.0685 I-16.0585 J-21.3895
G03 X74.6120 Y-3.7260 I-4.5704 J26.2195
G03 X75.6964 Y-3.0114 I-0.9299 J2.5912
G03 X76.0867 Y-2.4094 I-1.7111 J1.5369
G01 X75.8132 Y-2.2845 Z-12.5000 F1900
G03 X75.9851 Y-1.5044 I-1.8108 J0.8079
G03 X75.9804 Y1.6145 I-66.5457 J1.4595
G03 X74.6747 Y3.3632 I-2.0267 J-0.1515
G03 X67.4734 Y5.7579 I-11.9585 J-23.9374
G03 X65.8922 Y5.9045 I-1.8479 J-11.3311
G01 X65.6919 Y5.9183
G03 X69.7615 Y7.3789 I-3.4188 J15.9259
G03 X74.4123 Y10.2866 I-13.1728 J26.2426
G03 X75.0326 Y12.0875 I-1.3527 J1.4732
G03 X74.4711 Y15.1554 I-65.7707 J-10.4525
G03 X72.8742 Y16.6429 I-1.9671 J-0.5109
G03 X65.3610 Y17.7132 I-7.4922 J-25.6876
G03 X63.7790 Y17.5751 I0.2047 J-11.4764
G01 X63.5796 Y17.5530
G03 X67.3228 Y19.7167 I-6.2081 J15.0600
G03 X71.3798 Y23.4082 I-17.6457 J23.4674
G03 X71.6685 Y25.2908 I-1.5940 J1.2079
G03 X70.5682 Y28.2092 I-62.8234 J-22.0189
G03 X68.7313 Y29.3876 I-1.8443 J-0.8539
G03 X61.1478 Y29.0992 I-2.7850 J-26.6122
G03 X59.6159 Y28.6808 I2.2509 J-11.2561
G01 X59.4235 Y28.6234
G03 X62.7204 Y31.4208 I-8.7967 J13.7089
G03 X66.0529 Y35.7774 I-21.5521 J19.9394
G03 X66.0009 Y37.6813 I-1.7841 J0.9039
G03 X64.3972 Y40.3563 I-57.8819 J-32.8828
G03 X62.3794 Y41.1878 I-1.6622 J-1.1695
G03 X54.9693 Y39.5499 I2.0116 J-26.6821
G03 X53.5367 Y38.8647 I4.2255 J-10.6755
G01 X53.3577 Y38.7740
G03 X56.1020 Y42.1150 I-11.1035 J11.9180
G03 X58.6032 Y46.9966 I-24.7688 J15.7721
G03 X58.2120 Y48.8606 I-1.9168 J0.5708
G03 X56.1564 Y51.2063 I-51.0952 J-42.7027
G03 X54.0226 Y51.6642 I-1.4266 J-1.4475
G03 X47.0240 Y48.7294 I6.7435 J-25.8941
G03 X45.7368 Y47.7995 I6.0622 J-9.7473
G01 X45.5768 Y47.6782
G03 X47.6805 Y51.4557 I-13.0536 J9.7443
G03 X49.2698 Y56.7053 I-27.1854 J11.0953
G03 X48.5521 Y58.4696 I-1.9879 J0.2194
G03 X46.1107 Y60.4105 I-42.6605 J-51.1536
G03 X43.9295 Y60.4800 I-1.1452 J-1.6790
G03 X37.5673 Y56.3428 I11.2586 J-24.2737
G03 X36.4668 Y55.1979 I7.7048 J-8.5076
G01 X36.3312 Y55.0502
G03 X37.7265 Y59.1423 I-14.5829 J7.2564
G03 X38.3529 Y64.5916 I-28.7301 J6.0631
G03 X37.3317 Y66.1993 I-1.9952 J-0.1391
G03 X34.5830 Y67.6731 I-32.8165 J-57.9038
G03 X32.4244 Y67.3520 I-0.8270 J-1.8565
G03 X26.9032 Y62.1452 I15.4117 J-21.8732
G03 X26.0248 Y60.8223 I9.1019 J-6.9964
G01 X25.9177 Y60.6526
G03 X26.5600 Y64.9282 I-15.6445 J4.5361
G03 X26.2033 Y70.4017 I-29.3498 J0.8357
G03 X24.9114 Y71.8012 I-1.9383 J-0.4931
G03 X21.9437 Y72.7606 I-21.9527 J-62.8403
G03 X19.8771 Y72.0592 I-0.4822 J-1.9743
G03 X15.3744 Y65.9503 I19.0702 J-18.7701
G03 X14.7463 Y64.4918 I10.2026 J-5.2579
G01 X14.6713 Y64.3057
G03 X14.5397 Y68.6273 I-16.2041 J1.6697
G03 X13.2115 Y73.9490 I-29.0288 J-4.4186
G03 X11.6905 Y75.0955 I-1.8191 J-0.8312
G03 X8.5992 Y75.5095 I-10.3808 J-65.7612
G03 X6.6910 Y74.4504 I-0.1220 J-2.0287
G03 X3.3514 Y67.6356 I22.1148 J-15.0632
G03 X2.9939 Y66.0884 I10.9792 J-3.3520
G01 X2.9533 Y65.8919
G03 X2.0522 Y70.1206 I-16.2415 J-1.2504
G03 X-0.2050 Y75.1197 I-27.7720 J-9.5303
G03 X-1.9062 Y75.9761 I-1.6414 J-1.1428
G03 X-5.0218 Y75.8315 I1.5288 J-66.5688
G03 X-6.7101 Y74.4487 I0.2422 J-2.0179
G03 X-8.7792 Y67.1471 I24.4497 J-10.8725
G03 X-8.8548 Y65.5610 I11.4001 J-1.3376
G01 X-8.8596 Y65.3603
G03 X-10.5013 Y69.3602 I-15.7569 J-4.1302
G03 X-13.6148 Y73.8759 I-25.6243 J-14.3363
G03 X-15.4416 Y74.4147 I-1.4109 J-1.4175
G03 X-18.4813 Y73.7161 I13.3836 J-65.1957
G03 X-19.8956 Y72.0541 I0.5987 J-1.9422
G03 X-20.6277 Y64.5005 I25.9974 J-6.3320
G03 X-20.4188 Y62.9262 I11.4558 J0.7194
G01 X-20.3878 Y62.7279
G03 X-22.7173 Y66.3705 I-14.7660 J-6.8771
G03 X-26.5870 Y70.2576 I-22.6537 J-18.6823
G03 X-28.4807 Y70.4617 I-1.1352 J-1.6466
G03 X-31.3468 Y69.2315 I24.8210 J-61.7847
G03 X-32.4416 Y67.3437 I0.9358 J-1.8041
G03 X-31.8132 Y59.7806 I26.7107 J-1.5882
G03 X-31.3266 Y58.2691 I11.1412 J2.7527
G01 X-31.2606 Y58.0795
G03 X-34.2031 Y61.2475 I-13.3005 J-9.4029
G03 X-38.7048 Y64.3813 I-18.9527 J-22.4255
G03 X-40.6045 Y64.2439 I-0.8229 J-1.8229
G03 X-43.2048 Y62.5218 I35.4421 J-56.3417
G03 X-43.9450 Y60.4688 I1.2429 J-1.6080
G03 X-41.9762 Y53.1395 I26.5645 J3.2065
G03 X-41.2275 Y51.7391 I10.4739 J4.6994
G01 X-41.1288 Y51.5644
G03 X-44.5896 Y54.1561 I-11.4077 J-11.6267
G03 X-49.5785 Y56.4356 I-14.6446 J-25.4507
G03 X-51.4231 Y55.9612 I-0.4843 J-1.9405
G03 X-53.6742 Y53.8025 I44.9671 J-49.1440
G03 X-54.0359 Y51.6503 I1.5100 J-1.3602
G03 X-50.7901 Y44.7904 I25.5654 J7.8984
G03 X-49.8034 Y43.5462 I9.4642 J6.4924
G01 X-49.6750 Y43.3919
G03 X-53.5430 Y45.3240 I-9.1489 J-13.4777
G03 X-58.8588 Y46.6761 I-9.8645 J-27.6558
G03 X-60.5890 Y45.8800 I-0.1299 J-1.9958
G03 X-62.4184 Y43.3540 I53.0135 J-40.3208
G03 X-62.3900 Y41.1718 I1.7287 J-1.0688
G03 X-57.9715 Y35.0017 I23.7443 J12.3364
G03 X-56.7784 Y33.9536 I8.1536 J8.0789
G01 X-56.6246 Y33.8247
G03 X-60.7754 Y35.0351 I-6.5952 J-14.8943
G03 X-66.2472 Y35.4164 I-4.7679 J-28.9724
G03 X-67.8075 Y34.3241 I0.2285 J-1.9869
G03 X-69.1565 Y31.5120 I59.3212 J-30.1877
G03 X-68.7389 Y29.3700 I1.8917 J-0.7429
G03 X-63.2897 Y24.0880 I21.1599 J16.3778
G03 X-61.9287 Y23.2698 I6.5795 J9.4040
G01 X-61.7542 Y23.1704
G03 X-66.0545 Y23.6202 I-3.8298 J-15.8328
G03 X-71.5064 Y23.0183 I0.4819 J-29.3582
G03 X-72.8466 Y21.6650 I0.5796 J-1.9142
G03 X-73.6718 Y18.6572 I63.7553 J-19.1093
G03 X-72.8784 Y16.6242 I1.9940 J-0.3932
G03 X-66.5736 Y12.4001 I17.8952 J19.8924
G03 X-65.0884 Y11.8381 I4.7955 J10.4299
G01 X-64.8991 Y11.7714
G03 X-69.2105 Y11.4462 I-0.9411 J-16.2621
G03 X-74.4673 Y9.8805 I5.7165 J-28.8011
G03 X-75.5443 Y8.3096 I0.9120 J-1.7800
G03 X-75.8192 Y5.2028 I66.1680 J-7.4205
G03 X-74.6756 Y3.3441 I2.0321 J-0.0308
G03 X-67.7179 Y0.3136 I14.0558 J22.7684
G03 X-66.1562 Y0.0258 I2.8560 J11.1178
G01 X-65.9580 Y-0.0059
G03 X-70.1421 Y-1.0958 I1.9777 J-16.1690
G03 X-75.0349 Y-3.5750 I10.7675 J-27.3178
G03 X-75.8140 Y-5.3129 I1.2152 J-1.5885
G03 X-75.5298 Y-8.4189 I66.3974 J4.5105
G03 X-74.0727 Y-10.0435 I2.0050 J0.3325
G03 X-66.6856 Y-11.7829 I9.7645 J24.9122
G03 X-65.0977 Y-11.7872 I0.8248 J11.4507
G01 X-64.8970 Y-11.7831
G03 X-68.8192 Y-13.6026 I4.8326 J-15.5551
G03 X-73.1907 Y-16.9155 I15.4733 J-24.9577
G03 X-73.6470 Y-18.7647 I1.4793 J-1.3460
G03 X-72.8128 Y-21.7699 I64.5682 J16.3056
G03 X-71.0889 Y-23.1083 I1.9134 J0.6852
G03 X-63.5100 Y-23.5008 I5.1593 J26.2559
G03 X-61.9468 Y-23.2214 I-1.2325 J11.4106
G01 X-61.7501 Y-23.1816
G03 X-65.2844 Y-25.6721 I7.5328 J-14.4427
G03 X-68.9941 Y-29.7123 I19.6797 J-21.7927
G03 X-69.1129 Y-31.6133 I1.6959 J-1.0602
G03 X-67.7554 Y-34.4213 I60.5986 J27.5630
G03 X-65.8204 Y-35.4303 I1.7603 J1.0158
G03 X-58.2932 Y-34.4633 I0.3883 J26.7550
G03 X-56.8050 Y-33.9093 I-3.2515 J11.0113
G01 X-56.6186 Y-33.8349
G03 X-59.6513 Y-36.9165 I9.9905 J-12.8654
G03 X-62.5800 Y-41.5543 I23.2550 J-17.9287
G03 X-62.3575 Y-43.4459 I1.8579 J-0.7403
G03 X-60.5204 Y-45.9664 I54.6996 J37.9377
G03 X-58.4363 Y-46.6136 I1.5506 J1.3138
G03 X-51.2027 Y-44.3181 I-4.3954 J26.3947
G03 X-49.8374 Y-43.5073 I-5.1635 J10.2504
G01 X-49.6672 Y-43.4008
G03 X-52.1010 Y-46.9744 I12.1264 J-10.8744
G03 X-54.1545 Y-52.0605 I26.0826 J-13.4883
G03 X-53.5978 Y-53.8820 I1.9602 J-0.3968
G03 X-51.3402 Y-56.0340 I47.0528 J47.1016
G03 X-49.1740 Y-56.2987 I1.2911 J1.5696
G03 X-42.4666 Y-52.7485 I-9.0373 J25.1850
G03 X-41.2679 Y-51.7069 I-6.9107 J9.1636
G01 X-41.1195 Y-51.5717
G03 X-42.8761 Y-55.5225 I13.8743 J-8.5349
G03 X-43.9884 Y-60.8935 I28.0708 J-8.6140
G03 X-43.1155 Y-62.5864 I1.9996 J-0.0403
G03 X-40.5099 Y-64.3007 I37.8660 J54.7153
G03 X-38.3312 Y-64.1744 I0.9901 J1.7749
G03 X-32.3655 Y-59.4835 I-13.3897 J23.1675
G03 X-31.3721 Y-58.2446 I-8.4362 J7.7826
G01 X-31.2502 Y-58.0851
G03 X-32.2732 Y-62.2861 I15.1741 J-5.9201
G03 X-32.4086 Y-67.7694 I29.1571 J-3.4633
G03 X-31.2473 Y-69.2791 I1.9747 J0.3174
G03 X-28.3776 Y-70.5006 I27.5053 J60.6387
G03 X-26.2564 Y-69.9873 I0.6573 J1.9232
G03 X-21.2242 Y-64.3066 I-17.3114 J20.4044
G03 X-20.4680 Y-62.9103 I-9.6908 J6.1515
G01 X-20.3765 Y-62.7316
G03 X-20.6329 Y-67.0477 I15.9878 J-3.1155
G03 X-19.7871 Y-72.4671 I29.3074 J1.7986
G03 X-18.3749 Y-73.7452 I1.8863 J0.6648
G03 X-15.3332 Y-74.4347 I16.2329 J64.5629
G03 X-13.3378 Y-73.5509 I0.3033 J2.0096
G03 X-9.4007 Y-67.0629 I-20.6762 J16.9853
G03 X-8.9060 Y-65.5540 I-10.6361 J4.3232
G01 X-8.8479 Y-65.3619
G03 X-8.3295 Y-69.6544 I16.2872 J-0.2107
G03 X-6.5296 Y-74.8356 I28.5154 J7.0028
G03 X-4.9119 Y-75.8411 I1.7372 J0.9910
G03 X-1.7959 Y-75.9763 I4.4447 J66.4419
G03 X0.0096 Y-74.7504 I-0.0604 J2.0315
G03 X2.7249 Y-67.6638 I-23.3764 J13.0203
G03 X2.9423 Y-66.0908 I-11.2363 J2.3545
G01 X2.9651 Y-65.8913
G03 X4.2416 Y-70.0223 I16.0640 J2.7011
G03 X6.9378 Y-74.7989 I26.8083 J11.9828
G03 X8.7090 Y-75.4993 I1.5324 J1.2853
G03 X11.7990 Y-75.0760 I-7.4914 J66.1759
G03 X13.3566 Y-73.5475 I-0.4221 J1.9880
G03 X14.7629 Y-66.0898 I-25.3253 J8.6370
G03 X14.6959 Y-64.5033 I-11.4735 J0.3104
G01 X14.6828 Y-64.3030
G03 X16.6764 Y-68.1396 I15.3229 J5.5259
G03 X20.1822 Y-72.3581 I24.2377 J16.5768
G03 X22.0499 Y-72.7310 I1.2783 J1.5382
G03 X25.0148 Y-71.7627 I-19.1723 J63.7290
G03 X26.2744 Y-69.9806 I-0.7703 J1.8807
G03 X26.3265 Y-62.3917 I-26.4610 J3.9762
G03 X25.9773 Y-60.8426 I-11.3452 J-1.7435
G01 X25.9286 Y-60.6479
G03 X28.5752 Y-64.0669 I14.0899 J8.1730
G03 X32.7778 Y-67.5915 I20.8873 J20.6371
G03 X34.6822 Y-67.6250 I0.9831 J1.7417
G03 X37.4265 Y-66.1429 I-30.2459 J59.2862
G03 X38.3477 Y-64.1645 I-1.0938 J1.7130
G03 X37.0439 Y-56.6883 I-26.7457 J-0.8125
G03 X36.4237 Y-55.2264 I-10.8525 J-3.7416
G01 X36.3411 Y-55.0436
G03 X39.5556 Y-57.9350 I12.4040 J10.5574
G03 X44.3201 Y-60.6527 I16.8654 J24.0328
G03 X46.1998 Y-60.3455 I0.6562 J1.8893
G03 X48.6353 Y-58.3972 I-40.3653 J52.9572
G03 X49.1884 Y-56.2861 I-1.3820 J1.4901
G03 X46.5706 Y-49.1628 I-26.1702 J-5.5748
G03 X45.6994 Y-47.8352 I-10.0087 J-5.6184
G01 X45.5854 Y-47.6700
G03 X49.2646 Y-49.9411 I10.3200 J12.6032
G03 X54.4377 Y-51.7643 I12.3047 J26.6620
G03 X56.2324 Y-51.1264 I0.3084 J1.9761
G03 X58.2809 Y-48.7746 I-49.1813 J44.9065
G03 X58.4482 Y-46.5986 I-1.6259 J1.2194
G03 X54.6006 Y-40.0573 I-24.7551 J-10.1587
G03 X53.5063 Y-38.9066 I-8.8441 J-7.3146
G01 X53.3646 Y-38.7643
G03 X57.3902 Y-40.3420 I7.9034 J14.2423
G03 X62.8058 Y-41.2122 I7.3456 J28.4277
G03 X64.4577 Y-40.2641 I-0.0495 J1.9994
G03 X66.0534 Y-37.5843 I-56.3583 J35.3727
G03 X65.8294 Y-35.4135 I-1.8175 J0.9095
G03 X60.8757 Y-29.6642 I-22.5430 J-14.4153
G03 X59.5935 Y-28.7274 I-7.3981 J-8.7793
G01 X59.4287 Y-28.6127
G03 X63.6713 Y-29.4462 I5.2336 J15.4259
G03 X69.1552 Y-29.3355 I2.1516 J29.2849
G03 X70.6113 Y-28.1077 I-0.4056 J1.9584
G03 X71.7028 Y-25.1860 I-61.7652 J24.7395
G03 X71.0949 Y-23.0901 I-1.9507 J0.5703
G03 X65.1941 Y-18.3177 I-19.6070 J-18.2091
G03 X63.7652 Y-17.6249 I-5.7110 J-9.9581
G01 X63.5827 Y-17.5415
G03 X67.9059 Y-17.6041 I2.3950 J16.1122
G03 X73.2819 Y-16.5159 I-3.1117 J29.1971
G03 X74.4954 Y-15.0478 I-0.7488 J1.8545
G03 X75.0477 Y-11.9782 I-65.2160 J13.3183
G03 X74.0752 Y-10.0245 I-2.0212 J0.2129
G03 X67.4172 Y-6.3825 I-16.0404 J-21.4172
G03 X65.8876 Y-5.9559 I-3.8402 J-10.8145
G01 X65.6929 Y-5.9065
G03 X69.9579 Y-5.1961 I-0.5201 J16.2799
G03 X75.0532 Y-3.1655 I-8.2751 J28.1727
G03 X75.8132 Y-2.2845 I-1.0623 J1.6848
G00 Z5.0000
G00 X0.0000 Y0.0000

M05
