(Projekt 52mm Gear for Motor)
(Erstellt mit Estlcam 12,057)
(Laufzeit ca. 00:01:18 Stunden)

(Benötigte Werkzeuge:)
(4mm Holzfräser Gerade Schneiden)

M03 S24000
G00 Z5.0000

(Nr. 1 Räumen linear: Tasche 1)
G00 X-2.6761 Y0.3331
G00 Z0.5000
G01 Z0.0000 F200 S24000
G01 X2.6761 Z-1.9480
G01 X2.9748 Y0.3609 Z-2.0572
G02 X2.9921 Y-0.1677 Z-2.2500 I-2.9755 J-0.3618
G03 X2.9748 Y0.3609 Z-2.4428 I-2.9927 J0.1669
G01 X2.6761 Y0.3331 Z-2.5520
G01 X-2.6761 Z-4.5000
G01 X2.6761 F1900
G01 X2.9748 Y0.3609
G02 X-2.9765 Y-0.3602 I-2.9755 J-0.3618
G02 X-1.1226 Y2.7853 I2.9892 J0.3574
G03 X0.0000 Y4.5826 I-0.8774 J1.7972
G01 X0.0004 Y6.2354
G03 X0.0125 Y4.3597 I16.7195 J-0.8301
G03 X1.1226 Y2.7853 I1.9875 J0.2229
G02 X2.9748 Y0.3609 I-1.1327 J-2.7851
G01 X2.6761 Y0.3331
G00 Z5.0000
G00 X-2.6761
G00 Z-4.0000
G01 Z-4.5000 F200
G01 X2.6761 Z-6.4480
G01 X2.9748 Y0.3609 Z-6.5572
G02 X2.9921 Y-0.1677 Z-6.7500 I-2.9755 J-0.3618
G03 X2.9748 Y0.3609 Z-6.9428 I-2.9927 J0.1669
G01 X2.6761 Y0.3331 Z-7.0520
G01 X-2.6761 Z-9.0000
G01 X2.6761 F1900
G01 X2.9748 Y0.3609
G02 X-2.9765 Y-0.3602 I-2.9755 J-0.3618
G02 X-1.1226 Y2.7853 I2.9892 J0.3574
G03 X0.0000 Y4.5826 I-0.8774 J1.7972
G01 X0.0004 Y6.2354
G03 X0.0125 Y4.3597 I16.7195 J-0.8301
G03 X1.1226 Y2.7853 I1.9875 J0.2229
G02 X2.9748 Y0.3609 I-1.1327 J-2.7851
G01 X2.6761 Y0.3331
G00 Z5.0000
G00 X-2.6761
G00 Z-8.5000
G01 Z-9.0000 F200
G01 X2.1320 Z-10.7500
G01 X-2.6761 Z-12.5000
G01 X2.6761 F1900
G01 X2.9748 Y0.3609
G02 X-2.9765 Y-0.3602 I-2.9755 J-0.3618
G02 X-1.1226 Y2.7853 I2.9892 J0.3574
G03 X0.0000 Y4.5826 I-0.8774 J1.7972
G01 X0.0004 Y6.2354
G03 X0.0125 Y4.3597 I16.7195 J-0.8301
G03 X1.1226 Y2.7853 I1.9875 J0.2229
G02 X2.9748 Y0.3609 I-1.1327 J-2.7851
G01 X2.6761 Y0.3331
G00 Z5.0000

(Nr. 2 Teil schruppen und schlichten: Teil 1)
G00 X20.9365 Y5.1599 Z5.0000
G00 Z0.5000
G01 Z0.0000 F200
G01 X23.7390 Y6.1793 Z-1.0854
G01 X23.9574 Y6.2705 Z-1.1715
G03 X26.7246 Y8.3862 Z-2.4465 I-4.3208 J8.5187
G03 X29.2415 Y11.9513 Z-4.0397 I-11.8767 J11.0555
G03 X29.3887 Y13.1914 Z-4.5000 I-2.1245 J0.8811
G03 X29.1856 Y13.8377 I-2.2718 J-0.3589 F1900
G03 X27.8956 Y16.2774 I-26.8955 J-12.6606
G03 X25.8519 Y17.3454 I-1.9884 J-1.3157
G03 X20.1278 Y16.7662 I-1.4031 J-14.7104
G03 X18.5707 Y16.0266 I2.0609 J-6.3476
G01 X16.1404 Y14.2986
G01 X18.1482 Y16.5035
G01 X18.2994 Y16.6860
G03 X19.7662 Y19.8451 I-7.7851 J5.5349
G03 X20.3380 Y24.1717 I-15.6536 J4.2697
G03 X19.4119 Y25.8159 I-2.2906 J-0.2072
G03 X17.1358 Y27.3766 I-17.9277 J-23.7045
G03 X14.8299 Y27.3725 I-1.1492 J-2.0892
G03 X10.0307 Y24.1997 I5.5940 J-13.6776
G03 X8.9956 Y22.8211 I4.7746 J-4.6628
G01 X7.6468 Y20.1616
G01 X8.3999 Y23.0470
G01 X8.4489 Y23.2787
G03 X8.2796 Y26.7578 I-9.4655 J1.2831
G03 X6.7753 Y30.8543 I-15.8463 J-3.4945
G03 X5.1911 Y31.8800 I-1.9321 J-1.2478
G03 X2.4505 Y32.2042 I-4.8594 J-29.3308
G03 X0.4106 Y31.1290 I-0.0467 J-2.3839
G03 X-2.3645 Y26.0892 I11.3098 J-9.5114
G03 X-2.6403 Y24.3876 I6.3954 J-1.9098
G01 X-2.5987 Y21.4058
G01 X-3.2728 Y24.3108
G01 X-3.3370 Y24.5387
G03 X-5.1037 Y27.5406 I-8.9775 J-3.2626
G03 X-8.3395 Y30.4688 I-12.4067 J-10.4578
G03 X-10.2189 Y30.6408 I-1.1308 J-2.0028
G03 X-12.7963 Y29.6542 I9.3269 J-28.2264
G03 X-14.1028 Y27.7541 I1.0665 J-2.1326
G03 X-14.2179 Y22.0020 I14.4346 J-3.1660
G03 X-13.6713 Y20.3671 I6.5503 J1.2809
G01 X-12.2488 Y17.7463
G01 X-14.1957 Y20.0052
G01 X-14.3585 Y20.1771
G03 X-17.3179 Y22.0141 I-6.4327 J-7.0605
G03 X-21.5437 Y23.1032 I-6.1259 J-15.0264
G03 X-23.2878 Y22.3821 I-0.0706 J-2.2989
G03 X-25.1115 Y20.3108 I21.3714 J-20.6547
G03 X-25.3854 Y18.0212 I1.9354 J-1.3927
G03 X-22.8141 Y12.8744 I14.2520 J3.9045
G03 X-21.5704 Y11.6808 I5.2038 J4.1773
G01 X-19.0929 Y10.0212
G01 X-21.8665 Y11.1167
G01 X-22.0906 Y11.1932
G03 X-25.5647 Y11.4445 I-2.4147 J-9.2418
G03 X-29.8126 Y10.4450 I1.5590 J-16.1527
G03 X-31.0219 Y8.9960 I1.0058 J-2.0684
G03 X-31.6740 Y6.3144 I28.5303 J-8.3591
G03 X-30.8525 Y4.1598 I2.3609 J-0.3337
G03 X-26.1840 Y0.7975 I10.8051 J10.0806
G03 X-24.5280 Y0.3186 I2.6668 J6.1183
G01 X-21.5630 Y0.0004
G01 X-24.5280 Y-0.3186
G01 X-24.7620 Y-0.3549
G03 X-27.9550 Y-1.7469 I2.1566 J-9.3051
G03 X-31.2519 Y-4.6061 I8.8864 J-13.5771
G03 X-31.6491 Y-6.4510 I1.8519 J-1.3639
G03 X-30.9804 Y-9.1285 I29.1546 J5.8589
G03 X-29.2517 Y-10.6546 I2.2456 J0.8016
G03 X-23.5554 Y-11.4621 I4.8827 J13.9475
G03 X-21.8665 Y-11.1167 I-0.4821 J6.6572
G01 X-19.0933 Y-10.0204
G01 X-21.5704 Y-11.6808
G01 X-21.7607 Y-11.8217
G03 X-23.9411 Y-14.5381 I6.2341 J-7.2371
G03 X-25.5316 Y-18.6020 I14.1774 J-7.8919
G03 X-25.0260 Y-20.4202 I2.2737 J-0.3471
G03 X-23.1896 Y-22.4802 I23.0858 J18.7307
G03 X-20.9496 Y-23.0281 I1.6158 J1.7534
G03 X-15.5305 Y-21.0959 I-2.1582 J14.6188
G03 X-14.1957 Y-20.0052 I-3.5202 J5.6700
G01 X-12.2495 Y-17.7458
G01 X-13.6713 Y-20.3671
G01 X-13.7744 Y-20.5804
G03 X-14.4426 Y-23.9989 I8.8831 J-3.5110
G03 X-13.9623 Y-28.3364 I16.2209 J-0.3994
G03 X-12.6697 Y-29.7113 I2.1745 J0.7493
G03 X-10.0863 Y-30.6820 I11.7393 J27.3203
G03 X-7.8483 Y-30.1261 I0.6159 J2.3034
G03 X-3.9479 Y-25.8970 I-8.7048 J11.9415
G03 X-3.2728 Y-24.3108 I-5.7518 J3.3847
G01 X-2.5996 Y-21.4057
G01 X-2.6403 Y-24.3876
G01 X-2.6324 Y-24.6242
G03 X-1.6355 Y-27.9617 I9.4971 J1.0192
G03 X0.8055 Y-31.5792 I14.5495 J7.1851
G03 X2.5891 Y-32.1959 I1.5773 J1.6740
G03 X5.3277 Y-31.8549 I-2.3008 J29.6384
G03 X7.0510 Y-30.3227 I-0.5251 J2.3258
G03 X8.5393 Y-24.7653 I-13.2570 J6.5283
G03 X8.3999 Y-23.0470 I-6.6663 J0.3239
G01 X7.6459 Y-20.1619
G01 X8.9956 Y-22.8211
G01 X9.1125 Y-23.0269
G03 X11.5463 Y-25.5189 I7.9359 J5.3161
G03 X15.3889 Y-27.5877 I9.5434 J13.1230
G03 X17.2547 Y-27.3049 I0.6186 J2.2152
G03 X19.5211 Y-25.7302 I-15.8111 J25.1746
G03 X20.3350 Y-23.5726 I-1.5458 J1.8154
G03 X19.0701 Y-17.9601 I-14.7724 J-0.3803
G03 X18.1482 Y-16.5035 I-6.0529 J-2.8110
G01 X16.1399 Y-14.2992
G01 X18.5707 Y-16.0266
G01 X18.7700 Y-16.1546
G03 X22.0830 Y-17.2300 I4.5562 J8.3952
G03 X26.4468 Y-17.2761 I2.3517 J16.0554
G03 X27.9675 Y-16.1586 I-0.4817 J2.2490
G03 X29.2425 Y-13.7110 I-25.6935 J14.9401
G03 X28.9605 Y-11.4224 I-2.2124 J0.8890
G03 X25.2322 Y-7.0405 I-12.9037 J-7.2020
G03 X23.7390 Y-6.1793 I-4.0532 J-5.3019
G01 X20.9363 Y-5.1608
G01 X23.8915 Y-5.5606
G01 X24.1273 Y-5.5813
G03 X27.5607 Y-4.9939 I0.1329 J9.5512
G03 X31.4460 Y-3.0068 I-5.3791 J15.3094
G03 X32.2733 Y-1.3106 I-1.4717 J1.7675
G03 X32.2648 Y1.4492 I-29.6952 J1.2885
G03 X30.9515 Y3.3445 I-2.3721 J-0.2410
G03 X25.6140 Y5.4919 I-8.0788 J-12.3737
G03 X23.8915 Y5.5606 I-1.1251 J-6.5784
G01 X20.9365 Y5.1599
G01 X23.7390 Y6.1793 Z-5.5854 F200
G01 X23.9574 Y6.2705 Z-5.6715
G03 X26.7246 Y8.3862 Z-6.9465 I-4.3208 J8.5187
G03 X29.2415 Y11.9513 Z-8.5397 I-11.8767 J11.0555
G03 X29.3887 Y13.1914 Z-9.0000 I-2.1245 J0.8811
G03 X29.1856 Y13.8377 I-2.2718 J-0.3589 F1900
G03 X27.8956 Y16.2774 I-26.8955 J-12.6606
G03 X25.8519 Y17.3454 I-1.9884 J-1.3157
G03 X20.1278 Y16.7662 I-1.4031 J-14.7104
G03 X18.5707 Y16.0266 I2.0609 J-6.3476
G01 X16.1404 Y14.2986
G01 X18.1482 Y16.5035
G01 X18.2994 Y16.6860
G03 X19.7662 Y19.8451 I-7.7851 J5.5349
G03 X20.3380 Y24.1717 I-15.6536 J4.2697
G03 X19.4119 Y25.8159 I-2.2906 J-0.2072
G03 X17.1358 Y27.3766 I-17.9277 J-23.7045
G03 X14.8299 Y27.3725 I-1.1492 J-2.0892
G03 X10.0307 Y24.1997 I5.5940 J-13.6776
G03 X8.9956 Y22.8211 I4.7746 J-4.6628
G01 X7.6468 Y20.1616
G01 X8.3999 Y23.0470
G01 X8.4489 Y23.2787
G03 X8.2796 Y26.7578 I-9.4655 J1.2831
G03 X6.7753 Y30.8543 I-15.8463 J-3.4945
G03 X5.1911 Y31.8800 I-1.9321 J-1.2478
G03 X2.4505 Y32.2042 I-4.8594 J-29.3308
G03 X0.4106 Y31.1290 I-0.0467 J-2.3839
G03 X-2.3645 Y26.0892 I11.3098 J-9.5114
G03 X-2.6403 Y24.3876 I6.3954 J-1.9098
G01 X-2.5987 Y21.4058
G01 X-3.2728 Y24.3108
G01 X-3.3370 Y24.5387
G03 X-5.1037 Y27.5406 I-8.9775 J-3.2626
G03 X-8.3395 Y30.4688 I-12.4067 J-10.4578
G03 X-10.2189 Y30.6408 I-1.1308 J-2.0028
G03 X-12.7963 Y29.6542 I9.3269 J-28.2264
G03 X-14.1028 Y27.7541 I1.0665 J-2.1326
G03 X-14.2179 Y22.0020 I14.4346 J-3.1660
G03 X-13.6713 Y20.3671 I6.5503 J1.2809
G01 X-12.2488 Y17.7463
G01 X-14.1957 Y20.0052
G01 X-14.3585 Y20.1771
G03 X-17.3179 Y22.0141 I-6.4327 J-7.0605
G03 X-21.5437 Y23.1032 I-6.1259 J-15.0264
G03 X-23.2878 Y22.3821 I-0.0706 J-2.2989
G03 X-25.1115 Y20.3108 I21.3714 J-20.6547
G03 X-25.3854 Y18.0212 I1.9354 J-1.3927
G03 X-22.8141 Y12.8744 I14.2520 J3.9045
G03 X-21.5704 Y11.6808 I5.2038 J4.1773
G01 X-19.0929 Y10.0212
G01 X-21.8665 Y11.1167
G01 X-22.0906 Y11.1932
G03 X-25.5647 Y11.4445 I-2.4147 J-9.2418
G03 X-29.8126 Y10.4450 I1.5590 J-16.1527
G03 X-31.0219 Y8.9960 I1.0058 J-2.0684
G03 X-31.6740 Y6.3144 I28.5303 J-8.3591
G03 X-30.8525 Y4.1598 I2.3609 J-0.3337
G03 X-26.1840 Y0.7975 I10.8051 J10.0806
G03 X-24.5280 Y0.3186 I2.6668 J6.1183
G01 X-21.5630 Y0.0004
G01 X-24.5280 Y-0.3186
G01 X-24.7620 Y-0.3549
G03 X-27.9550 Y-1.7469 I2.1566 J-9.3051
G03 X-31.2519 Y-4.6061 I8.8864 J-13.5771
G03 X-31.6491 Y-6.4510 I1.8519 J-1.3639
G03 X-30.9804 Y-9.1285 I29.1546 J5.8589
G03 X-29.2517 Y-10.6546 I2.2456 J0.8016
G03 X-23.5554 Y-11.4621 I4.8827 J13.9475
G03 X-21.8665 Y-11.1167 I-0.4821 J6.6572
G01 X-19.0933 Y-10.0204
G01 X-21.5704 Y-11.6808
G01 X-21.7607 Y-11.8217
G03 X-23.9411 Y-14.5381 I6.2341 J-7.2371
G03 X-25.5316 Y-18.6020 I14.1774 J-7.8919
G03 X-25.0260 Y-20.4202 I2.2737 J-0.3471
G03 X-23.1896 Y-22.4802 I23.0858 J18.7307
G03 X-20.9496 Y-23.0281 I1.6158 J1.7534
G03 X-15.5305 Y-21.0959 I-2.1582 J14.6188
G03 X-14.1957 Y-20.0052 I-3.5202 J5.6700
G01 X-12.2495 Y-17.7458
G01 X-13.6713 Y-20.3671
G01 X-13.7744 Y-20.5804
G03 X-14.4426 Y-23.9989 I8.8831 J-3.5110
G03 X-13.9623 Y-28.3364 I16.2209 J-0.3994
G03 X-12.6697 Y-29.7113 I2.1745 J0.7493
G03 X-10.0863 Y-30.6820 I11.7393 J27.3203
G03 X-7.8483 Y-30.1261 I0.6159 J2.3034
G03 X-3.9479 Y-25.8970 I-8.7048 J11.9415
G03 X-3.2728 Y-24.3108 I-5.7518 J3.3847
G01 X-2.5996 Y-21.4057
G01 X-2.6403 Y-24.3876
G01 X-2.6324 Y-24.6242
G03 X-1.6355 Y-27.9617 I9.4971 J1.0192
G03 X0.8055 Y-31.5792 I14.5495 J7.1851
G03 X2.5891 Y-32.1959 I1.5773 J1.6740
G03 X5.3277 Y-31.8549 I-2.3008 J29.6384
G03 X7.0510 Y-30.3227 I-0.5251 J2.3258
G03 X8.5393 Y-24.7653 I-13.2570 J6.5283
G03 X8.3999 Y-23.0470 I-6.6663 J0.3239
G01 X7.6459 Y-20.1619
G01 X8.9956 Y-22.8211
G01 X9.1125 Y-23.0269
G03 X11.5463 Y-25.5189 I7.9359 J5.3161
G03 X15.3889 Y-27.5877 I9.5434 J13.1230
G03 X17.2547 Y-27.3049 I0.6186 J2.2152
G03 X19.5211 Y-25.7302 I-15.8111 J25.1746
G03 X20.3350 Y-23.5726 I-1.5458 J1.8154
G03 X19.0701 Y-17.9601 I-14.7724 J-0.3803
G03 X18.1482 Y-16.5035 I-6.0529 J-2.8110
G01 X16.1399 Y-14.2992
G01 X18.5707 Y-16.0266
G01 X18.7700 Y-16.1546
G03 X22.0830 Y-17.2300 I4.5562 J8.3952
G03 X26.4468 Y-17.2761 I2.3517 J16.0554
G03 X27.9675 Y-16.1586 I-0.4817 J2.2490
G03 X29.2425 Y-13.7110 I-25.6935 J14.9401
G03 X28.9605 Y-11.4224 I-2.2124 J0.8890
G03 X25.2322 Y-7.0405 I-12.9037 J-7.2020
G03 X23.7390 Y-6.1793 I-4.0532 J-5.3019
G01 X20.9363 Y-5.1608
G01 X23.8915 Y-5.5606
G01 X24.1273 Y-5.5813
G03 X27.5607 Y-4.9939 I0.1329 J9.5512
G03 X31.4460 Y-3.0068 I-5.3791 J15.3094
G03 X32.2733 Y-1.3106 I-1.4717 J1.7675
G03 X32.2648 Y1.4492 I-29.6952 J1.2885
G03 X30.9515 Y3.3445 I-2.3721 J-0.2410
G03 X25.6140 Y5.4919 I-8.0788 J-12.3737
G03 X23.8915 Y5.5606 I-1.1251 J-6.5784
G01 X20.9365 Y5.1599
G01 X23.7390 Y6.1793 Z-10.0854 F200
G01 X23.9574 Y6.2705 Z-10.1715
G03 X26.7246 Y8.3862 Z-11.4465 I-4.3208 J8.5187
G03 X28.4978 Y10.6690 Z-12.5000 I-11.8767 J11.0555
G03 X29.2415 Y11.9513 I-13.6500 J8.7726 F1900
G03 X29.1856 Y13.8377 I-2.1245 J0.8811
G03 X27.8956 Y16.2774 I-26.8955 J-12.6606
G03 X25.8519 Y17.3454 I-1.9884 J-1.3157
G03 X20.1278 Y16.7662 I-1.4031 J-14.7104
G03 X18.5707 Y16.0266 I2.0609 J-6.3476
G01 X16.1404 Y14.2986
G01 X18.1482 Y16.5035
G01 X18.2994 Y16.6860
G03 X19.7662 Y19.8451 I-7.7851 J5.5349
G03 X20.3380 Y24.1717 I-15.6536 J4.2697
G03 X19.4119 Y25.8159 I-2.2906 J-0.2072
G03 X17.1358 Y27.3766 I-17.9277 J-23.7045
G03 X14.8299 Y27.3725 I-1.1492 J-2.0892
G03 X10.0307 Y24.1997 I5.5940 J-13.6776
G03 X8.9956 Y22.8211 I4.7746 J-4.6628
G01 X7.6468 Y20.1616
G01 X8.3999 Y23.0470
G01 X8.4489 Y23.2787
G03 X8.2796 Y26.7578 I-9.4655 J1.2831
G03 X6.7753 Y30.8543 I-15.8463 J-3.4945
G03 X5.1911 Y31.8800 I-1.9321 J-1.2478
G03 X2.4505 Y32.2042 I-4.8594 J-29.3308
G03 X0.4106 Y31.1290 I-0.0467 J-2.3839
G03 X-2.3645 Y26.0892 I11.3098 J-9.5114
G03 X-2.6403 Y24.3876 I6.3954 J-1.9098
G01 X-2.5987 Y21.4058
G01 X-3.2728 Y24.3108
G01 X-3.3370 Y24.5387
G03 X-5.1037 Y27.5406 I-8.9775 J-3.2626
G03 X-8.3395 Y30.4688 I-12.4067 J-10.4578
G03 X-10.2189 Y30.6408 I-1.1308 J-2.0028
G03 X-12.7963 Y29.6542 I9.3269 J-28.2264
G03 X-14.1028 Y27.7541 I1.0665 J-2.1326
G03 X-14.2179 Y22.0020 I14.4346 J-3.1660
G03 X-13.6713 Y20.3671 I6.5503 J1.2809
G01 X-12.2488 Y17.7463
G01 X-14.1957 Y20.0052
G01 X-14.3585 Y20.1771
G03 X-17.3179 Y22.0141 I-6.4327 J-7.0605
G03 X-21.5437 Y23.1032 I-6.1259 J-15.0264
G03 X-23.2878 Y22.3821 I-0.0706 J-2.2989
G03 X-25.1115 Y20.3108 I21.3714 J-20.6547
G03 X-25.3854 Y18.0212 I1.9354 J-1.3927
G03 X-22.8141 Y12.8744 I14.2520 J3.9045
G03 X-21.5704 Y11.6808 I5.2038 J4.1773
G01 X-19.0929 Y10.0212
G01 X-21.8665 Y11.1167
G01 X-22.0906 Y11.1932
G03 X-25.5647 Y11.4445 I-2.4147 J-9.2418
G03 X-29.8126 Y10.4450 I1.5590 J-16.1527
G03 X-31.0219 Y8.9960 I1.0058 J-2.0684
G03 X-31.6740 Y6.3144 I28.5303 J-8.3591
G03 X-30.8525 Y4.1598 I2.3609 J-0.3337
G03 X-26.1840 Y0.7975 I10.8051 J10.0806
G03 X-24.5280 Y0.3186 I2.6668 J6.1183
G01 X-21.5630 Y0.0004
G01 X-24.5280 Y-0.3186
G01 X-24.7620 Y-0.3549
G03 X-27.9550 Y-1.7469 I2.1566 J-9.3051
G03 X-31.2519 Y-4.6061 I8.8864 J-13.5771
G03 X-31.6491 Y-6.4510 I1.8519 J-1.3639
G03 X-30.9804 Y-9.1285 I29.1546 J5.8589
G03 X-29.2517 Y-10.6546 I2.2456 J0.8016
G03 X-23.5554 Y-11.4621 I4.8827 J13.9475
G03 X-21.8665 Y-11.1167 I-0.4821 J6.6572
G01 X-19.0933 Y-10.0204
G01 X-21.5704 Y-11.6808
G01 X-21.7607 Y-11.8217
G03 X-23.9411 Y-14.5381 I6.2341 J-7.2371
G03 X-25.5316 Y-18.6020 I14.1774 J-7.8919
G03 X-25.0260 Y-20.4202 I2.2737 J-0.3471
G03 X-23.1896 Y-22.4802 I23.0858 J18.7307
G03 X-20.9496 Y-23.0281 I1.6158 J1.7534
G03 X-15.5305 Y-21.0959 I-2.1582 J14.6188
G03 X-14.1957 Y-20.0052 I-3.5202 J5.6700
G01 X-12.2495 Y-17.7458
G01 X-13.6713 Y-20.3671
G01 X-13.7744 Y-20.5804
G03 X-14.4426 Y-23.9989 I8.8831 J-3.5110
G03 X-13.9623 Y-28.3364 I16.2209 J-0.3994
G03 X-12.6697 Y-29.7113 I2.1745 J0.7493
G03 X-10.0863 Y-30.6820 I11.7393 J27.3203
G03 X-7.8483 Y-30.1261 I0.6159 J2.3034
G03 X-3.9479 Y-25.8970 I-8.7048 J11.9415
G03 X-3.2728 Y-24.3108 I-5.7518 J3.3847
G01 X-2.5996 Y-21.4057
G01 X-2.6403 Y-24.3876
G01 X-2.6324 Y-24.6242
G03 X-1.6355 Y-27.9617 I9.4971 J1.0192
G03 X0.8055 Y-31.5792 I14.5495 J7.1851
G03 X2.5891 Y-32.1959 I1.5773 J1.6740
G03 X5.3277 Y-31.8549 I-2.3008 J29.6384
G03 X7.0510 Y-30.3227 I-0.5251 J2.3258
G03 X8.5393 Y-24.7653 I-13.2570 J6.5283
G03 X8.3999 Y-23.0470 I-6.6663 J0.3239
G01 X7.6459 Y-20.1619
G01 X8.9956 Y-22.8211
G01 X9.1125 Y-23.0269
G03 X11.5463 Y-25.5189 I7.9359 J5.3161
G03 X15.3889 Y-27.5877 I9.5434 J13.1230
G03 X17.2547 Y-27.3049 I0.6186 J2.2152
G03 X19.5211 Y-25.7302 I-15.8111 J25.1746
G03 X20.3350 Y-23.5726 I-1.5458 J1.8154
G03 X19.0701 Y-17.9601 I-14.7724 J-0.3803
G03 X18.1482 Y-16.5035 I-6.0529 J-2.8110
G01 X16.1399 Y-14.2992
G01 X18.5707 Y-16.0266
G01 X18.7700 Y-16.1546
G03 X22.0830 Y-17.2300 I4.5562 J8.3952
G03 X26.4468 Y-17.2761 I2.3517 J16.0554
G03 X27.9675 Y-16.1586 I-0.4817 J2.2490
G03 X29.2425 Y-13.7110 I-25.6935 J14.9401
G03 X28.9605 Y-11.4224 I-2.2124 J0.8890
G03 X25.2322 Y-7.0405 I-12.9037 J-7.2020
G03 X23.7390 Y-6.1793 I-4.0532 J-5.3019
G01 X20.9363 Y-5.1608
G01 X23.8915 Y-5.5606
G01 X24.1273 Y-5.5813
G03 X27.5607 Y-4.9939 I0.1329 J9.5512
G03 X31.4460 Y-3.0068 I-5.3791 J15.3094
G03 X32.2733 Y-1.3106 I-1.4717 J1.7675
G03 X32.2648 Y1.4492 I-29.6952 J1.2885
G03 X30.9515 Y3.3445 I-2.3721 J-0.2410
G03 X25.6140 Y5.4919 I-8.0788 J-12.3737
G03 X23.8915 Y5.5606 I-1.1251 J-6.5784
G01 X20.9365 Y5.1599
G01 X23.7390 Y6.1793
G01 X23.9574 Y6.2705
G03 X26.7246 Y8.3862 I-4.3208 J8.5187
G03 X28.4978 Y10.6690 I-11.8767 J11.0555
G01 X28.2465 Y10.8320 Z-12.5000 F1900
G03 X29.0072 Y12.1792 I-7.7657 J5.2737
G03 X28.9158 Y13.7066 I-1.8903 J0.6533
G03 X27.6438 Y16.1143 I-26.8470 J-12.6434
G03 X25.8287 Y17.0462 I-1.7413 J-1.1580
G03 X20.2234 Y16.4818 I-1.3797 J-14.4145
G03 X18.7446 Y15.7821 I1.9730 J-6.0823
G01 X15.9638 Y13.8049
G02 X15.6423 Y14.1986 I-0.1539 J0.2025
G01 X18.0596 Y16.8663
G03 X19.4772 Y19.9258 I-7.5483 J5.3559
G03 X20.0392 Y24.1446 I-15.4320 J4.2023
G03 X19.2339 Y25.5744 I-1.9919 J-0.1802
G03 X16.9886 Y27.1152 I-17.8926 J-23.6667
G03 X14.9484 Y27.0969 I-1.0037 J-1.8346
G03 X10.2474 Y23.9922 I5.4772 J-13.4047
G03 X9.2632 Y22.6854 I4.5736 J-4.4687
G01 X7.7198 Y19.6424
G02 X7.2522 Y19.8416 I-0.2303 J0.1078
G01 X8.1528 Y23.3269
G03 X7.9863 Y26.6949 I-9.1727 J1.2347
G03 X6.5233 Y30.6916 I-15.6187 J-3.4511
G03 X5.1457 Y31.5835 I-1.6801 J-1.0851
G03 X2.4416 Y31.9044 I-4.8459 J-29.2812
G03 X0.6436 Y30.9400 I-0.0362 J-2.0909
G03 X-2.0761 Y26.0062 I11.0796 J-9.3241
G03 X-2.3403 Y24.3918 I6.1271 J-1.8315
G01 X-2.2927 Y20.9801
G02 X-2.7994 Y20.9391 I-0.2540 J-0.0116
G01 X-3.6216 Y24.4437
G03 X-5.3343 Y27.3486 I-8.6957 J-3.1695
G03 X-8.4870 Y30.2076 I-12.2253 J-10.3136
G03 X-10.1213 Y30.3571 I-0.9833 J-1.7416
G03 X-12.6647 Y29.3846 I9.3157 J-28.1762
G03 X-13.8087 Y27.6950 I0.9397 J-1.8683
G03 X-13.9240 Y22.0626 I14.1437 J-3.1071
G03 X-13.4077 Y20.5102 I6.2764 J1.2257
G01 X-11.7800 Y17.5114
G02 X-12.2096 Y17.2397 I-0.2195 J-0.1284
G01 X-14.5663 Y19.9608
G03 X-17.4328 Y21.7370 I-6.2265 J-6.8470
G03 X-21.5530 Y22.8034 I-6.0323 J-14.8144
G03 X-23.0696 Y22.1763 I-0.0614 J-1.9991
G03 X-24.8698 Y20.1332 I21.3381 J-20.6154
G03 X-25.0975 Y18.1056 I1.7002 J-1.2176
G03 X-22.5821 Y13.0646 I13.9671 J3.8214
G03 X-21.4035 Y11.9301 I4.9869 J4.0011
G01 X-18.5687 Y10.0312
G02 X-18.8227 Y9.5909 I-0.1347 J-0.2157
G01 X-22.1741 Y10.9051
G03 X-25.5376 Y11.1458 I-2.3313 J-8.9569
G03 X-29.6814 Y10.1752 I1.5434 J-15.9214
G03 X-30.7329 Y8.9152 I0.8746 J-1.7986
G03 X-31.3774 Y6.2695 I28.4827 J-8.3398
G03 X-30.6368 Y4.3683 I2.0713 J-0.2880
G03 X-26.0669 Y1.0737 I10.5913 J9.8746
G03 X-24.4960 Y0.6169 I2.5567 J5.8615
G01 X-21.1035 Y0.2528
G02 X-21.1239 Y-0.2550 I-0.0191 J-0.2536
G01 X-24.7020 Y-0.6489
G03 X-27.7922 Y-1.9989 I2.0981 J-9.0141
G03 X-31.0104 Y-4.7840 I8.7651 J-13.3796
G03 X-31.3558 Y-6.3883 I1.6104 J-1.1860
G03 X-30.6969 Y-9.0304 I29.1036 J5.8539
G03 X-29.1575 Y-10.3697 I1.9679 J0.7076
G03 X-23.5801 Y-11.1631 I4.7892 J13.6658
G03 X-21.9768 Y-10.8377 I-0.4603 J6.3786
G01 X-18.8037 Y-9.5834
G02 X-18.5857 Y-10.0426 I0.1010 J-0.2334
G01 X-21.5711 Y-12.0542
G03 X-23.6798 Y-14.6856 I6.0470 J-7.0067
G03 X-25.2351 Y-18.6473 I13.9782 J-7.7734
G03 X-24.7954 Y-20.2283 I1.9771 J-0.3018
G03 X-22.9841 Y-22.2616 I23.0429 J18.7025
G03 X-20.9987 Y-22.7321 I1.4136 J1.5411
G03 X-15.6913 Y-20.8427 I-2.1101 J14.3259
G03 X-14.4230 Y-19.8094 I-3.3714 J5.4335
G01 X-12.1962 Y-17.2242
G02 X-11.7898 Y-17.5295 I0.1979 J-0.1598
G01 X-13.4984 Y-20.6980
G03 X-14.1427 Y-24.0080 I8.6104 J-3.3938
G03 X-13.6787 Y-28.2386 I15.9895 J-0.3870
G03 X-12.5546 Y-29.4342 I1.8909 J0.6516
G03 X-10.0059 Y-30.3929 I11.7144 J27.2755
G03 X-8.0293 Y-29.8869 I0.5356 J2.0215
G03 X-4.2080 Y-25.7475 I-8.5261 J11.7045
G03 X-3.5650 Y-24.2430 I-5.5101 J3.2444
G01 X-2.7948 Y-20.9191
G02 X-2.2930 Y-21.0005 I0.2494 J-0.0495
G01 X-2.3334 Y-24.6001
G03 X-1.3657 Y-27.8304 I9.2012 J0.9962
G03 X1.0112 Y-31.3609 I14.3388 J7.0886
G03 X2.5622 Y-31.8972 I1.3715 J1.4557
G03 X5.2645 Y-31.5616 I-2.3020 J29.5871
G03 X6.7795 Y-30.1950 I-0.4652 J2.0388
G03 X8.2395 Y-24.7537 I-12.9886 J6.4015
G03 X8.1096 Y-23.1229 I-6.3872 J0.3120
G01 X7.2470 Y-19.8217
G02 X7.7291 Y-19.6607 I0.2439 J0.0721
G01 X9.3661 Y-22.8666
G03 X11.7242 Y-25.2774 I7.6845 J5.1582
G03 X15.4696 Y-27.2987 I9.4018 J12.9396
G03 X17.0920 Y-27.0528 I0.5379 J1.9263
G03 X19.3289 Y-25.4999 I-15.7882 J25.1286
G03 X20.0353 Y-23.5857 I-1.3594 J1.5891
G03 X18.7993 Y-18.0892 I-14.4758 J-0.3679
G03 X17.9265 Y-16.7056 I-5.8002 J-2.6918
G01 X15.6285 Y-14.1834
G02 X15.9805 Y-13.8168 I0.1824 J0.1772
G01 X18.9200 Y-15.8948
G03 X22.1283 Y-16.9335 I4.4070 J8.1386
G03 X26.3839 Y-16.9828 I2.3116 J15.8272
G03 X27.7063 Y-16.0110 I-0.4189 J1.9556
G03 X28.9653 Y-13.5964 I-25.6518 J14.9099
G03 X28.7011 Y-11.5732 I-1.9422 J0.7753
G03 X25.0525 Y-7.2807 I-12.6469 J-7.0531
G03 X23.6366 Y-6.4612 I-3.8848 J-5.0789
G01 X20.4297 Y-5.2959
G02 X20.5710 Y-4.8076 I0.0792 J0.2416
G01 X24.1395 Y-5.2816
G03 X27.4630 Y-4.7103 I0.1201 J9.2546
G03 X31.2541 Y-2.7763 I-5.3086 J15.0887
G03 X31.9734 Y-1.3013 I-1.2797 J1.5370
G03 X31.9660 Y1.4218 I-29.6442 J1.2812
G03 X30.7920 Y3.0905 I-2.0800 J-0.2161
G03 X25.5664 Y5.1957 I-7.9205 J-12.1225
G03 X23.9318 Y5.2633 I-1.0796 J-6.3027
G01 X20.5507 Y4.8049
G02 X20.4490 Y5.3029 I-0.0422 J0.2508
G01 X23.8289 Y6.5415
G03 X26.5062 Y8.5919 I-4.1943 J8.2502
G03 X28.2465 Y10.8320 I-11.5333 J10.7557
G00 Z5.0000
G00 X0.0000 Y0.0000

M05
