(Projekt 52mm Gear)
(Erstellt mit Estlcam 12,057)
(Laufzeit ca. 00:01:17 Stunden)

(Benötigte Werkzeuge:)
(4mm Holzfräser Gerade Schneiden)

M03 S24000
G00 Z5.0000

(Nr. 1 Kreistasche schruppen und schlichten: Kreistasche 1)
G00 X1.2750 Y0.0000 Z5.0000
G00 Z0.5000
G02 X0.0000 Y-1.2750 Z0.2500 I-1.2750 J0.0000 F200 S24000
G02 X-1.2750 Y0.0000 Z0.0000 I0.0000 J1.2750
G02 X0.6375 Y1.1042 Z-0.9719 I1.2750 J0.0000
G02 Y-1.1042 Z-1.9439 I-0.6375 J-1.1042
G02 X-1.2750 Y0.0000 Z-2.9158 I-0.6375 J1.1042
G02 X0.6375 Y1.1042 Z-3.4439 I1.2750 J0.0000
G02 Y-1.1042 Z-3.9719 I-0.6375 J-1.1042
G02 X-1.2750 Y0.0000 Z-4.5000 I-0.6375 J1.1042
G02 X2.7000 I1.9875 J0.0000 F1900
G02 X-1.3500 Y-2.3383 I-2.7000 J0.0000
G02 Y2.3383 I1.3500 J2.3383
G02 X2.7000 Y0.0000 I1.3500 J-2.3383
G02 X-1.2750 I-1.9875 J0.0000
G02 X0.6375 Y1.1042 Z-5.4719 I1.2750 J0.0000 F200
G02 Y-1.1042 Z-6.4439 I-0.6375 J-1.1042
G02 X-1.2750 Y0.0000 Z-7.4158 I-0.6375 J1.1042
G02 X0.6375 Y1.1042 Z-7.9439 I1.2750 J0.0000
G02 Y-1.1042 Z-8.4719 I-0.6375 J-1.1042
G02 X-1.2750 Y0.0000 Z-9.0000 I-0.6375 J1.1042
G02 X2.7000 I1.9875 J0.0000 F1900
G02 X-1.3500 Y-2.3383 I-2.7000 J0.0000
G02 Y2.3383 I1.3500 J2.3383
G02 X2.7000 Y0.0000 I1.3500 J-2.3383
G02 X-1.2750 I-1.9875 J0.0000
G02 X0.6375 Y1.1042 Z-9.9719 I1.2750 J0.0000 F200
G02 Y-1.1042 Z-10.9439 I-0.6375 J-1.1042
G02 X-1.2750 Y0.0000 Z-11.9158 I-0.6375 J1.1042
G02 X0.0000 Y1.2750 Z-12.2079 I1.2750 J0.0000
G02 X1.2750 Y0.0000 Z-12.5000 I0.0000 J-1.2750
G02 X-0.6375 Y-1.1042 I-1.2750 J0.0000 F1900
G02 Y1.1042 I0.6375 J1.1042
G02 X1.2750 Y0.0000 I0.6375 J-1.1042
G02 X-2.7000 I-1.9875 J0.0000
G02 X1.3500 Y2.3383 I2.7000 J0.0000
G02 Y-2.3383 I-1.3500 J-2.3383
G02 X-2.7000 Y0.0000 I-1.3500 J2.3383
G02 X-1.7000 Y1.0000 Z-12.2500 I1.0000 J0.0000
G00 X-1.7000 Y1.0000 Z0.0000
G01 X3.0000 Y0.0000 F1900
G02 X0.0000 Y-3.0000 Z-6.2500 I-3.0000 J0.0000 F200
G02 X-3.0000 Y0.0000 Z-12.5000 I0.0000 J3.0000
G02 X1.5000 Y2.5981 I3.0000 J0.0000
G02 Y-2.5981 I-1.5000 J-2.5981
G02 X-3.0000 Y0.0000 I-1.5000 J2.5981
G02 X-2.0000 Y1.0000 Z-12.2500 I1.0000 J0.0000 F1900
G00 Z5.0000

(Nr. 2 Teil bearbeiten: Teil 1)
G00 X-18.4779 Y9.6979 Z5.0000
G00 Z0.5000
G01 Z0.0000 F200
G02 X-18.8227 Y9.5909 Z-0.1457 I-0.2265 J0.1208
G01 X-22.1741 Y10.9051 Z-1.4560
G03 X-25.5376 Y11.1458 Z-2.6902 I-2.3313 J-8.9569
G03 X-29.6814 Y10.1752 Z-4.2439 I1.5434 J-15.9214
G03 X-30.2478 Y9.7636 Z-4.5000 I0.8746 J-1.7986
G03 X-30.7329 Y8.9152 I1.4409 J-1.3870 F1900
G03 X-31.3774 Y6.2695 I28.4827 J-8.3398
G03 X-30.6368 Y4.3683 I2.0713 J-0.2880
G03 X-26.0669 Y1.0737 I10.5913 J9.8746
G03 X-24.4960 Y0.6169 I2.5567 J5.8615
G01 X-21.1035 Y0.2528
G02 X-21.1239 Y-0.2550 I-0.0191 J-0.2536
G01 X-24.7020 Y-0.6489
G03 X-27.7922 Y-1.9989 I2.0981 J-9.0141
G03 X-31.0104 Y-4.7840 I8.7651 J-13.3796
G03 X-31.3558 Y-6.3883 I1.6104 J-1.1860
G03 X-30.6969 Y-9.0304 I29.1036 J5.8539
G03 X-29.1575 Y-10.3697 I1.9679 J0.7076
G03 X-23.5801 Y-11.1631 I4.7892 J13.6658
G03 X-21.9768 Y-10.8377 I-0.4603 J6.3786
G01 X-18.8037 Y-9.5834
G02 X-18.5857 Y-10.0426 I0.1010 J-0.2334
G01 X-21.5711 Y-12.0542
G03 X-23.6798 Y-14.6856 I6.0470 J-7.0067
G03 X-25.2351 Y-18.6473 I13.9782 J-7.7734
G03 X-24.7954 Y-20.2283 I1.9771 J-0.3018
G03 X-22.9841 Y-22.2616 I23.0429 J18.7025
G03 X-20.9987 Y-22.7321 I1.4136 J1.5411
G03 X-15.6913 Y-20.8427 I-2.1101 J14.3259
G03 X-14.4230 Y-19.8094 I-3.3714 J5.4335
G01 X-12.1962 Y-17.2242
G02 X-11.7898 Y-17.5295 I0.1979 J-0.1598
G01 X-13.4984 Y-20.6980
G03 X-14.1427 Y-24.0080 I8.6104 J-3.3938
G03 X-13.6787 Y-28.2386 I15.9895 J-0.3870
G03 X-12.5546 Y-29.4342 I1.8909 J0.6516
G03 X-10.0059 Y-30.3929 I11.7144 J27.2755
G03 X-8.0293 Y-29.8869 I0.5356 J2.0215
G03 X-4.2080 Y-25.7475 I-8.5261 J11.7045
G03 X-3.5650 Y-24.2430 I-5.5101 J3.2444
G01 X-2.7948 Y-20.9191
G02 X-2.2930 Y-21.0005 I0.2494 J-0.0495
G01 X-2.3334 Y-24.6001
G03 X-1.3657 Y-27.8304 I9.2012 J0.9962
G03 X1.0112 Y-31.3609 I14.3388 J7.0886
G03 X2.5622 Y-31.8972 I1.3715 J1.4557
G03 X5.2645 Y-31.5616 I-2.3020 J29.5871
G03 X6.7795 Y-30.1950 I-0.4652 J2.0388
G03 X8.2395 Y-24.7537 I-12.9886 J6.4015
G03 X8.1096 Y-23.1229 I-6.3872 J0.3120
G01 X7.2470 Y-19.8217
G02 X7.7291 Y-19.6607 I0.2439 J0.0721
G01 X9.3661 Y-22.8666
G03 X11.7242 Y-25.2774 I7.6845 J5.1582
G03 X15.4696 Y-27.2987 I9.4018 J12.9396
G03 X17.0920 Y-27.0528 I0.5379 J1.9263
G03 X19.3289 Y-25.4999 I-15.7882 J25.1286
G03 X20.0353 Y-23.5857 I-1.3594 J1.5891
G03 X18.7993 Y-18.0892 I-14.4758 J-0.3679
G03 X17.9265 Y-16.7056 I-5.8002 J-2.6918
G01 X15.6285 Y-14.1834
G02 X15.9805 Y-13.8168 I0.1824 J0.1772
G01 X18.9200 Y-15.8948
G03 X22.1283 Y-16.9335 I4.4070 J8.1386
G03 X26.3839 Y-16.9828 I2.3116 J15.8272
G03 X27.7063 Y-16.0110 I-0.4189 J1.9556
G03 X28.9653 Y-13.5964 I-25.6518 J14.9099
G03 X28.7011 Y-11.5732 I-1.9422 J0.7753
G03 X25.0525 Y-7.2807 I-12.6469 J-7.0531
G03 X23.6366 Y-6.4612 I-3.8848 J-5.0789
G01 X20.4297 Y-5.2959
G02 X20.5710 Y-4.8076 I0.0792 J0.2416
G01 X24.1395 Y-5.2816
G03 X27.4630 Y-4.7103 I0.1201 J9.2546
G03 X31.2541 Y-2.7763 I-5.3086 J15.0887
G03 X31.9734 Y-1.3013 I-1.2797 J1.5370
G03 X31.9660 Y1.4218 I-29.6442 J1.2812
G03 X30.7920 Y3.0905 I-2.0800 J-0.2161
G03 X25.5664 Y5.1957 I-7.9205 J-12.1225
G03 X23.9318 Y5.2633 I-1.0796 J-6.3027
G01 X20.5507 Y4.8049
G02 X20.4490 Y5.3029 I-0.0422 J0.2508
G01 X23.8289 Y6.5415
G03 X26.5062 Y8.5919 I-4.1943 J8.2502
G03 X28.9643 Y12.0663 I-11.7117 J10.8928
G03 X28.9158 Y13.7066 I-1.8474 J0.7662
G03 X27.6438 Y16.1143 I-26.8470 J-12.6434
G03 X25.8287 Y17.0462 I-1.7413 J-1.1580
G03 X20.2234 Y16.4818 I-1.3797 J-14.4145
G03 X18.7446 Y15.7821 I1.9730 J-6.0823
G01 X15.9638 Y13.8049
G02 X15.6423 Y14.1986 I-0.1539 J0.2025
G01 X18.0596 Y16.8663
G03 X19.4772 Y19.9258 I-7.5483 J5.3559
G03 X20.0392 Y24.1446 I-15.4320 J4.2023
G03 X19.2339 Y25.5744 I-1.9919 J-0.1802
G03 X16.9886 Y27.1152 I-17.8926 J-23.6667
G03 X14.9484 Y27.0969 I-1.0037 J-1.8346
G03 X10.2474 Y23.9922 I5.4772 J-13.4047
G03 X9.2632 Y22.6854 I4.5736 J-4.4687
G01 X7.7198 Y19.6424
G02 X7.2522 Y19.8416 I-0.2303 J0.1078
G01 X8.1528 Y23.3269
G03 X7.9863 Y26.6949 I-9.1727 J1.2347
G03 X6.5233 Y30.6916 I-15.6187 J-3.4511
G03 X5.1457 Y31.5835 I-1.6801 J-1.0851
G03 X2.4416 Y31.9044 I-4.8459 J-29.2812
G03 X0.6436 Y30.9400 I-0.0362 J-2.0909
G03 X-2.0761 Y26.0062 I11.0796 J-9.3241
G03 X-2.3403 Y24.3918 I6.1271 J-1.8315
G01 X-2.2927 Y20.9801
G02 X-2.7994 Y20.9391 I-0.2540 J-0.0116
G01 X-3.6216 Y24.4437
G03 X-5.3343 Y27.3486 I-8.6957 J-3.1695
G03 X-8.4870 Y30.2076 I-12.2253 J-10.3136
G03 X-10.1213 Y30.3571 I-0.9833 J-1.7416
G03 X-12.6647 Y29.3846 I9.3157 J-28.1762
G03 X-13.8087 Y27.6950 I0.9397 J-1.8683
G03 X-13.9240 Y22.0626 I14.1437 J-3.1071
G03 X-13.4077 Y20.5102 I6.2764 J1.2257
G01 X-11.7800 Y17.5114
G02 X-12.2096 Y17.2397 I-0.2195 J-0.1284
G01 X-14.5663 Y19.9608
G03 X-17.4328 Y21.7370 I-6.2265 J-6.8470
G03 X-21.5530 Y22.8034 I-6.0323 J-14.8144
G03 X-23.0696 Y22.1763 I-0.0614 J-1.9991
G03 X-24.8698 Y20.1332 I21.3381 J-20.6154
G03 X-25.0975 Y18.1056 I1.7002 J-1.2176
G03 X-22.5821 Y13.0646 I13.9671 J3.8214
G03 X-21.4035 Y11.9301 I4.9869 J4.0011
G01 X-18.5687 Y10.0312
G02 X-18.4779 Y9.6979 I-0.1348 J-0.2157
G02 X-18.8227 Y9.5909 Z-4.6457 I-0.2265 J0.1208 F200
G01 X-22.1741 Y10.9051 Z-5.9560
G03 X-25.5376 Y11.1458 Z-7.1902 I-2.3313 J-8.9569
G03 X-29.6814 Y10.1752 Z-8.7439 I1.5434 J-15.9214
G03 X-30.2478 Y9.7636 Z-9.0000 I0.8746 J-1.7986
G03 X-30.7329 Y8.9152 I1.4409 J-1.3870 F1900
G03 X-31.3774 Y6.2695 I28.4827 J-8.3398
G03 X-30.6368 Y4.3683 I2.0713 J-0.2880
G03 X-26.0669 Y1.0737 I10.5913 J9.8746
G03 X-24.4960 Y0.6169 I2.5567 J5.8615
G01 X-21.1035 Y0.2528
G02 X-21.1239 Y-0.2550 I-0.0191 J-0.2536
G01 X-24.7020 Y-0.6489
G03 X-27.7922 Y-1.9989 I2.0981 J-9.0141
G03 X-31.0104 Y-4.7840 I8.7651 J-13.3796
G03 X-31.3558 Y-6.3883 I1.6104 J-1.1860
G03 X-30.6969 Y-9.0304 I29.1036 J5.8539
G03 X-29.1575 Y-10.3697 I1.9679 J0.7076
G03 X-23.5801 Y-11.1631 I4.7892 J13.6658
G03 X-21.9768 Y-10.8377 I-0.4603 J6.3786
G01 X-18.8037 Y-9.5834
G02 X-18.5857 Y-10.0426 I0.1010 J-0.2334
G01 X-21.5711 Y-12.0542
G03 X-23.6798 Y-14.6856 I6.0470 J-7.0067
G03 X-25.2351 Y-18.6473 I13.9782 J-7.7734
G03 X-24.7954 Y-20.2283 I1.9771 J-0.3018
G03 X-22.9841 Y-22.2616 I23.0429 J18.7025
G03 X-20.9987 Y-22.7321 I1.4136 J1.5411
G03 X-15.6913 Y-20.8427 I-2.1101 J14.3259
G03 X-14.4230 Y-19.8094 I-3.3714 J5.4335
G01 X-12.1962 Y-17.2242
G02 X-11.7898 Y-17.5295 I0.1979 J-0.1598
G01 X-13.4984 Y-20.6980
G03 X-14.1427 Y-24.0080 I8.6104 J-3.3938
G03 X-13.6787 Y-28.2386 I15.9895 J-0.3870
G03 X-12.5546 Y-29.4342 I1.8909 J0.6516
G03 X-10.0059 Y-30.3929 I11.7144 J27.2755
G03 X-8.0293 Y-29.8869 I0.5356 J2.0215
G03 X-4.2080 Y-25.7475 I-8.5261 J11.7045
G03 X-3.5650 Y-24.2430 I-5.5101 J3.2444
G01 X-2.7948 Y-20.9191
G02 X-2.2930 Y-21.0005 I0.2494 J-0.0495
G01 X-2.3334 Y-24.6001
G03 X-1.3657 Y-27.8304 I9.2012 J0.9962
G03 X1.0112 Y-31.3609 I14.3388 J7.0886
G03 X2.5622 Y-31.8972 I1.3715 J1.4557
G03 X5.2645 Y-31.5616 I-2.3020 J29.5871
G03 X6.7795 Y-30.1950 I-0.4652 J2.0388
G03 X8.2395 Y-24.7537 I-12.9886 J6.4015
G03 X8.1096 Y-23.1229 I-6.3872 J0.3120
G01 X7.2470 Y-19.8217
G02 X7.7291 Y-19.6607 I0.2439 J0.0721
G01 X9.3661 Y-22.8666
G03 X11.7242 Y-25.2774 I7.6845 J5.1582
G03 X15.4696 Y-27.2987 I9.4018 J12.9396
G03 X17.0920 Y-27.0528 I0.5379 J1.9263
G03 X19.3289 Y-25.4999 I-15.7882 J25.1286
G03 X20.0353 Y-23.5857 I-1.3594 J1.5891
G03 X18.7993 Y-18.0892 I-14.4758 J-0.3679
G03 X17.9265 Y-16.7056 I-5.8002 J-2.6918
G01 X15.6285 Y-14.1834
G02 X15.9805 Y-13.8168 I0.1824 J0.1772
G01 X18.9200 Y-15.8948
G03 X22.1283 Y-16.9335 I4.4070 J8.1386
G03 X26.3839 Y-16.9828 I2.3116 J15.8272
G03 X27.7063 Y-16.0110 I-0.4189 J1.9556
G03 X28.9653 Y-13.5964 I-25.6518 J14.9099
G03 X28.7011 Y-11.5732 I-1.9422 J0.7753
G03 X25.0525 Y-7.2807 I-12.6469 J-7.0531
G03 X23.6366 Y-6.4612 I-3.8848 J-5.0789
G01 X20.4297 Y-5.2959
G02 X20.5710 Y-4.8076 I0.0792 J0.2416
G01 X24.1395 Y-5.2816
G03 X27.4630 Y-4.7103 I0.1201 J9.2546
G03 X31.2541 Y-2.7763 I-5.3086 J15.0887
G03 X31.9734 Y-1.3013 I-1.2797 J1.5370
G03 X31.9660 Y1.4218 I-29.6442 J1.2812
G03 X30.7920 Y3.0905 I-2.0800 J-0.2161
G03 X25.5664 Y5.1957 I-7.9205 J-12.1225
G03 X23.9318 Y5.2633 I-1.0796 J-6.3027
G01 X20.5507 Y4.8049
G02 X20.4490 Y5.3029 I-0.0422 J0.2508
G01 X23.8289 Y6.5415
G03 X26.5062 Y8.5919 I-4.1943 J8.2502
G03 X28.9643 Y12.0663 I-11.7117 J10.8928
G03 X28.9158 Y13.7066 I-1.8474 J0.7662
G03 X27.6438 Y16.1143 I-26.8470 J-12.6434
G03 X25.8287 Y17.0462 I-1.7413 J-1.1580
G03 X20.2234 Y16.4818 I-1.3797 J-14.4145
G03 X18.7446 Y15.7821 I1.9730 J-6.0823
G01 X15.9638 Y13.8049
G02 X15.6423 Y14.1986 I-0.1539 J0.2025
G01 X18.0596 Y16.8663
G03 X19.4772 Y19.9258 I-7.5483 J5.3559
G03 X20.0392 Y24.1446 I-15.4320 J4.2023
G03 X19.2339 Y25.5744 I-1.9919 J-0.1802
G03 X16.9886 Y27.1152 I-17.8926 J-23.6667
G03 X14.9484 Y27.0969 I-1.0037 J-1.8346
G03 X10.2474 Y23.9922 I5.4772 J-13.4047
G03 X9.2632 Y22.6854 I4.5736 J-4.4687
G01 X7.7198 Y19.6424
G02 X7.2522 Y19.8416 I-0.2303 J0.1078
G01 X8.1528 Y23.3269
G03 X7.9863 Y26.6949 I-9.1727 J1.2347
G03 X6.5233 Y30.6916 I-15.6187 J-3.4511
G03 X5.1457 Y31.5835 I-1.6801 J-1.0851
G03 X2.4416 Y31.9044 I-4.8459 J-29.2812
G03 X0.6436 Y30.9400 I-0.0362 J-2.0909
G03 X-2.0761 Y26.0062 I11.0796 J-9.3241
G03 X-2.3403 Y24.3918 I6.1271 J-1.8315
G01 X-2.2927 Y20.9801
G02 X-2.7994 Y20.9391 I-0.2540 J-0.0116
G01 X-3.6216 Y24.4437
G03 X-5.3343 Y27.3486 I-8.6957 J-3.1695
G03 X-8.4870 Y30.2076 I-12.2253 J-10.3136
G03 X-10.1213 Y30.3571 I-0.9833 J-1.7416
G03 X-12.6647 Y29.3846 I9.3157 J-28.1762
G03 X-13.8087 Y27.6950 I0.9397 J-1.8683
G03 X-13.9240 Y22.0626 I14.1437 J-3.1071
G03 X-13.4077 Y20.5102 I6.2764 J1.2257
G01 X-11.7800 Y17.5114
G02 X-12.2096 Y17.2397 I-0.2195 J-0.1284
G01 X-14.5663 Y19.9608
G03 X-17.4328 Y21.7370 I-6.2265 J-6.8470
G03 X-21.5530 Y22.8034 I-6.0323 J-14.8144
G03 X-23.0696 Y22.1763 I-0.0614 J-1.9991
G03 X-24.8698 Y20.1332 I21.3381 J-20.6154
G03 X-25.0975 Y18.1056 I1.7002 J-1.2176
G03 X-22.5821 Y13.0646 I13.9671 J3.8214
G03 X-21.4035 Y11.9301 I4.9869 J4.0011
G01 X-18.5687 Y10.0312
G02 X-18.4779 Y9.6979 I-0.1348 J-0.2157
G02 X-18.8227 Y9.5909 Z-9.1457 I-0.2265 J0.1208 F200
G01 X-22.1741 Y10.9051 Z-10.4560
G03 X-25.5376 Y11.1458 Z-11.6902 I-2.3313 J-8.9569
G03 X-27.7301 Y10.7780 Z-12.5000 I1.5434 J-15.9214
G03 X-29.6814 Y10.1752 I3.7359 J-15.5537 F1900
G03 X-30.7329 Y8.9152 I0.8746 J-1.7986
G03 X-31.3774 Y6.2695 I28.4827 J-8.3398
G03 X-30.6368 Y4.3683 I2.0713 J-0.2880
G03 X-26.0669 Y1.0737 I10.5913 J9.8746
G03 X-24.4960 Y0.6169 I2.5567 J5.8615
G01 X-21.1035 Y0.2528
G02 X-21.1239 Y-0.2550 I-0.0191 J-0.2536
G01 X-24.7020 Y-0.6489
G03 X-27.7922 Y-1.9989 I2.0981 J-9.0141
G03 X-31.0104 Y-4.7840 I8.7651 J-13.3796
G03 X-31.3558 Y-6.3883 I1.6104 J-1.1860
G03 X-30.6969 Y-9.0304 I29.1036 J5.8539
G03 X-29.1575 Y-10.3697 I1.9679 J0.7076
G03 X-23.5801 Y-11.1631 I4.7892 J13.6658
G03 X-21.9768 Y-10.8377 I-0.4603 J6.3786
G01 X-18.8037 Y-9.5834
G02 X-18.5857 Y-10.0426 I0.1010 J-0.2334
G01 X-21.5711 Y-12.0542
G03 X-23.6798 Y-14.6856 I6.0470 J-7.0067
G03 X-25.2351 Y-18.6473 I13.9782 J-7.7734
G03 X-24.7954 Y-20.2283 I1.9771 J-0.3018
G03 X-22.9841 Y-22.2616 I23.0429 J18.7025
G03 X-20.9987 Y-22.7321 I1.4136 J1.5411
G03 X-15.6913 Y-20.8427 I-2.1101 J14.3259
G03 X-14.4230 Y-19.8094 I-3.3714 J5.4335
G01 X-12.1962 Y-17.2242
G02 X-11.7898 Y-17.5295 I0.1979 J-0.1598
G01 X-13.4984 Y-20.6980
G03 X-14.1427 Y-24.0080 I8.6104 J-3.3938
G03 X-13.6787 Y-28.2386 I15.9895 J-0.3870
G03 X-12.5546 Y-29.4342 I1.8909 J0.6516
G03 X-10.0059 Y-30.3929 I11.7144 J27.2755
G03 X-8.0293 Y-29.8869 I0.5356 J2.0215
G03 X-4.2080 Y-25.7475 I-8.5261 J11.7045
G03 X-3.5650 Y-24.2430 I-5.5101 J3.2444
G01 X-2.7948 Y-20.9191
G02 X-2.2930 Y-21.0005 I0.2494 J-0.0495
G01 X-2.3334 Y-24.6001
G03 X-1.3657 Y-27.8304 I9.2012 J0.9962
G03 X1.0112 Y-31.3609 I14.3388 J7.0886
G03 X2.5622 Y-31.8972 I1.3715 J1.4557
G03 X5.2645 Y-31.5616 I-2.3020 J29.5871
G03 X6.7795 Y-30.1950 I-0.4652 J2.0388
G03 X8.2395 Y-24.7537 I-12.9886 J6.4015
G03 X8.1096 Y-23.1229 I-6.3872 J0.3120
G01 X7.2470 Y-19.8217
G02 X7.7291 Y-19.6607 I0.2439 J0.0721
G01 X9.3661 Y-22.8666
G03 X11.7242 Y-25.2774 I7.6845 J5.1582
G03 X15.4696 Y-27.2987 I9.4018 J12.9396
G03 X17.0920 Y-27.0528 I0.5379 J1.9263
G03 X19.3289 Y-25.4999 I-15.7882 J25.1286
G03 X20.0353 Y-23.5857 I-1.3594 J1.5891
G03 X18.7993 Y-18.0892 I-14.4758 J-0.3679
G03 X17.9265 Y-16.7056 I-5.8002 J-2.6918
G01 X15.6285 Y-14.1834
G02 X15.9805 Y-13.8168 I0.1824 J0.1772
G01 X18.9200 Y-15.8948
G03 X22.1283 Y-16.9335 I4.4070 J8.1386
G03 X26.3839 Y-16.9828 I2.3116 J15.8272
G03 X27.7063 Y-16.0110 I-0.4189 J1.9556
G03 X28.9653 Y-13.5964 I-25.6518 J14.9099
G03 X28.7011 Y-11.5732 I-1.9422 J0.7753
G03 X25.0525 Y-7.2807 I-12.6469 J-7.0531
G03 X23.6366 Y-6.4612 I-3.8848 J-5.0789
G01 X20.4297 Y-5.2959
G02 X20.5710 Y-4.8076 I0.0792 J0.2416
G01 X24.1395 Y-5.2816
G03 X27.4630 Y-4.7103 I0.1201 J9.2546
G03 X31.2541 Y-2.7763 I-5.3086 J15.0887
G03 X31.9734 Y-1.3013 I-1.2797 J1.5370
G03 X31.9660 Y1.4218 I-29.6442 J1.2812
G03 X30.7920 Y3.0905 I-2.0800 J-0.2161
G03 X25.5664 Y5.1957 I-7.9205 J-12.1225
G03 X23.9318 Y5.2633 I-1.0796 J-6.3027
G01 X20.5507 Y4.8049
G02 X20.4490 Y5.3029 I-0.0422 J0.2508
G01 X23.8289 Y6.5415
G03 X26.5062 Y8.5919 I-4.1943 J8.2502
G03 X28.9643 Y12.0663 I-11.7117 J10.8928
G03 X28.9158 Y13.7066 I-1.8474 J0.7662
G03 X27.6438 Y16.1143 I-26.8470 J-12.6434
G03 X25.8287 Y17.0462 I-1.7413 J-1.1580
G03 X20.2234 Y16.4818 I-1.3797 J-14.4145
G03 X18.7446 Y15.7821 I1.9730 J-6.0823
G01 X15.9638 Y13.8049
G02 X15.6423 Y14.1986 I-0.1539 J0.2025
G01 X18.0596 Y16.8663
G03 X19.4772 Y19.9258 I-7.5483 J5.3559
G03 X20.0392 Y24.1446 I-15.4320 J4.2023
G03 X19.2339 Y25.5744 I-1.9919 J-0.1802
G03 X16.9886 Y27.1152 I-17.8926 J-23.6667
G03 X14.9484 Y27.0969 I-1.0037 J-1.8346
G03 X10.2474 Y23.9922 I5.4772 J-13.4047
G03 X9.2632 Y22.6854 I4.5736 J-4.4687
G01 X7.7198 Y19.6424
G02 X7.2522 Y19.8416 I-0.2303 J0.1078
G01 X8.1528 Y23.3269
G03 X7.9863 Y26.6949 I-9.1727 J1.2347
G03 X6.5233 Y30.6916 I-15.6187 J-3.4511
G03 X5.1457 Y31.5835 I-1.6801 J-1.0851
G03 X2.4416 Y31.9044 I-4.8459 J-29.2812
G03 X0.6436 Y30.9400 I-0.0362 J-2.0909
G03 X-2.0761 Y26.0062 I11.0796 J-9.3241
G03 X-2.3403 Y24.3918 I6.1271 J-1.8315
G01 X-2.2927 Y20.9801
G02 X-2.7994 Y20.9391 I-0.2540 J-0.0116
G01 X-3.6216 Y24.4437
G03 X-5.3343 Y27.3486 I-8.6957 J-3.1695
G03 X-8.4870 Y30.2076 I-12.2253 J-10.3136
G03 X-10.1213 Y30.3571 I-0.9833 J-1.7416
G03 X-12.6647 Y29.3846 I9.3157 J-28.1762
G03 X-13.8087 Y27.6950 I0.9397 J-1.8683
G03 X-13.9240 Y22.0626 I14.1437 J-3.1071
G03 X-13.4077 Y20.5102 I6.2764 J1.2257
G01 X-11.7800 Y17.5114
G02 X-12.2096 Y17.2397 I-0.2195 J-0.1284
G01 X-14.5663 Y19.9608
G03 X-17.4328 Y21.7370 I-6.2265 J-6.8470
G03 X-21.5530 Y22.8034 I-6.0323 J-14.8144
G03 X-23.0696 Y22.1763 I-0.0614 J-1.9991
G03 X-24.8698 Y20.1332 I21.3381 J-20.6154
G03 X-25.0975 Y18.1056 I1.7002 J-1.2176
G03 X-22.5821 Y13.0646 I13.9671 J3.8214
G03 X-21.4035 Y11.9301 I4.9869 J4.0011
G01 X-18.5687 Y10.0312
G02 X-18.4779 Y9.6979 I-0.1348 J-0.2157
G02 X-18.8227 Y9.5909 I-0.2265 J0.1208
G01 X-22.1741 Y10.9051
G03 X-25.5376 Y11.1458 I-2.3313 J-8.9569
G03 X-27.7301 Y10.7780 I1.5434 J-15.9214
G00 Z5.0000
G00 X0.0000 Y0.0000

M05
