(Projekt 72mm Gear)
(Erstellt mit Estlcam 12,057)
(Laufzeit ca. 00:04:31 Stunden)

(Benötigte Werkzeuge:)
(4mm Holzfräser Gerade Schneiden)

M03 S24000
G00 Z5.0000

(Nr. 1 Kreistasche schruppen und schlichten: Kreistasche 1)
G00 X1.2750 Y0.0000 Z5.0000
G00 Z0.5000
G02 X0.0000 Y-1.2750 Z0.2500 I-1.2750 J0.0000 F200 S24000
G02 X-1.2750 Y0.0000 Z0.0000 I0.0000 J1.2750
G02 X0.6375 Y1.1042 Z-0.9719 I1.2750 J0.0000
G02 Y-1.1042 Z-1.9439 I-0.6375 J-1.1042
G02 X-1.2750 Y0.0000 Z-2.9158 I-0.6375 J1.1042
G02 X0.6375 Y1.1042 Z-3.4439 I1.2750 J0.0000
G02 Y-1.1042 Z-3.9719 I-0.6375 J-1.1042
G02 X-1.2750 Y0.0000 Z-4.5000 I-0.6375 J1.1042
G02 X2.7000 I1.9875 J0.0000 F1900
G02 X-1.3500 Y-2.3383 I-2.7000 J0.0000
G02 Y2.3383 I1.3500 J2.3383
G02 X2.7000 Y0.0000 I1.3500 J-2.3383
G02 X-1.2750 I-1.9875 J0.0000
G02 X0.6375 Y1.1042 Z-5.4719 I1.2750 J0.0000 F200
G02 Y-1.1042 Z-6.4439 I-0.6375 J-1.1042
G02 X-1.2750 Y0.0000 Z-7.4158 I-0.6375 J1.1042
G02 X0.6375 Y1.1042 Z-7.9439 I1.2750 J0.0000
G02 Y-1.1042 Z-8.4719 I-0.6375 J-1.1042
G02 X-1.2750 Y0.0000 Z-9.0000 I-0.6375 J1.1042
G02 X2.7000 I1.9875 J0.0000 F1900
G02 X-1.3500 Y-2.3383 I-2.7000 J0.0000
G02 Y2.3383 I1.3500 J2.3383
G02 X2.7000 Y0.0000 I1.3500 J-2.3383
G02 X-1.2750 I-1.9875 J0.0000
G02 X0.6375 Y1.1042 Z-9.9719 I1.2750 J0.0000 F200
G02 Y-1.1042 Z-10.9439 I-0.6375 J-1.1042
G02 X-1.2750 Y0.0000 Z-11.9158 I-0.6375 J1.1042
G02 X0.0000 Y1.2750 Z-12.2079 I1.2750 J0.0000
G02 X1.2750 Y0.0000 Z-12.5000 I0.0000 J-1.2750
G02 X-0.6375 Y-1.1042 I-1.2750 J0.0000 F1900
G02 Y1.1042 I0.6375 J1.1042
G02 X1.2750 Y0.0000 I0.6375 J-1.1042
G02 X-2.7000 I-1.9875 J0.0000
G02 X1.3500 Y2.3383 I2.7000 J0.0000
G02 Y-2.3383 I-1.3500 J-2.3383
G02 X-2.7000 Y0.0000 I-1.3500 J2.3383
G02 X-1.7000 Y1.0000 Z-12.2500 I1.0000 J0.0000
G00 X-1.7000 Y1.0000 Z0.0000
G01 X3.0000 Y0.0000 F1900
G02 X0.0000 Y-3.0000 Z-6.2500 I-3.0000 J0.0000 F200
G02 X-3.0000 Y0.0000 Z-12.5000 I0.0000 J3.0000
G02 X1.5000 Y2.5981 I3.0000 J0.0000
G02 Y-2.5981 I-1.5000 J-2.5981
G02 X-3.0000 Y0.0000 I-1.5000 J2.5981
G02 X-2.0000 Y1.0000 Z-12.2500 I1.0000 J0.0000 F1900
G00 Z5.0000

(Nr. 2 Räumen linear: Tasche 2)
G00 X10.1547 Y7.5349 Z5.0000
G00 Z0.5000
G01 Z0.0000 F200
G01 X16.3365 Z-2.2500
G01 X10.1547 Z-4.5000
G01 X19.9781 F1900
G03 X18.2176 Y11.1349 I-19.1851 J-7.1514
G01 X5.9893
G03 X5.2536 Y11.5011 I-3.5394 J-6.1902
G01 X5.1516 Y11.5453
G01 X5.1450 Y11.5543
G01 Y14.7349
G01 X15.4520
G03 X10.9436 Y18.3349 I-15.2816 J-14.5146
G01 X5.1450
G01 X4.8000
G01 Y21.1549
G02 X21.0662 Y5.2047 I-4.7790 J-21.1430
G01 X21.0614 Y5.2258
G01 X21.1549 Y4.8000
G01 X11.3243
G03 X5.1162 Y11.1846 I-11.3099 J-4.7867
G01 X4.8000 Y11.3243
G01 Y18.3349
G01 X5.1450
G00 Z5.0000
G00 X10.1547 Y7.5349
G00 Z-4.0000
G01 Z-4.5000 F200
G01 X16.3365 Z-6.7500
G01 X10.1547 Z-9.0000
G01 X19.9781 F1900
G03 X18.2176 Y11.1349 I-19.1851 J-7.1514
G01 X5.9893
G03 X5.2536 Y11.5011 I-3.5394 J-6.1902
G01 X5.1516 Y11.5453
G01 X5.1450 Y11.5543
G01 Y14.7349
G01 X15.4520
G03 X10.9436 Y18.3349 I-15.2816 J-14.5146
G01 X5.1450
G01 X4.8000
G01 Y21.1549
G02 X21.0662 Y5.2047 I-4.7790 J-21.1430
G01 X21.0614 Y5.2258
G01 X21.1549 Y4.8000
G01 X11.3243
G03 X5.1162 Y11.1846 I-11.3099 J-4.7867
G01 X4.8000 Y11.3243
G01 Y18.3349
G01 X5.1450
G00 Z5.0000
G00 X10.1547 Y7.5349
G00 Z-8.5000
G01 Z-9.0000 F200
G01 X14.9627 Z-10.7500
G01 X10.1547 Z-12.5000
G01 X19.9781 F1900
G03 X18.2176 Y11.1349 I-19.1851 J-7.1514
G01 X5.9893
G03 X5.2536 Y11.5011 I-3.5394 J-6.1902
G01 X5.1516 Y11.5453
G01 X5.1450 Y11.5543
G01 Y14.7349
G01 X15.4520
G03 X10.9436 Y18.3349 I-15.2816 J-14.5146
G01 X5.1450
G01 X4.8000
G01 Y21.1549
G02 X21.0662 Y5.2047 I-4.7790 J-21.1430
G01 X21.0614 Y5.2258
G01 X21.1549 Y4.8000
G01 X11.3243
G03 X5.1162 Y11.1846 I-11.3099 J-4.7867
G01 X4.8000 Y11.3243
G01 Y18.3349
G01 X5.1450
G00 X5.1450 Y18.3349 Z5.0000
G00 X4.4995
G00 Z0.5000
G01 Z0.0000 F200
G02 X4.5000 Y21.5338 Z-1.1644 I68.4327 J1.5888
G02 X21.5315 Y4.5132 Z-10.4381 I-4.4978 J-21.5322
G01 X21.5281 Y4.5328 Z-10.4453
G01 X21.5324 Y4.5131 Z-10.4526
G01 X21.5314 Y4.5005 Z-10.4573
G01 X21.5214 Y4.4997 Z-10.4609
G01 X21.5031 Y4.5000 Z-10.4676
G01 X15.9190 Z-12.5000
G01 X11.1540 F1900
G01 X11.1251 Y4.5004
G01 X11.1031 Y4.5505
G03 X4.5009 Y11.1244 I-11.0978 J-4.5433
G01 X4.5000 Y11.1540
G01 X4.4995 Y18.3349
G02 X4.5000 Y21.5338 I68.4327 J1.5888
G02 X21.5315 Y4.5132 I-4.4978 J-21.5322
G01 X21.5281 Y4.5328
G01 X21.5324 Y4.5131
G01 X21.5314 Y4.5005
G01 X21.5214 Y4.4997
G01 X21.5031 Y4.5000
G01 X15.9190
G00 Z5.0000

(Nr. 3 Räumen linear: Tasche 3)
G00 X5.1450 Y-18.3349 Z5.0000
G00 Z0.5000
G01 Z0.0000 F200
G01 X10.9436 Z-2.1105
G03 X11.2712 Y-18.1361 Z-2.2500 I-10.7730 J18.1143
G02 X10.9436 Y-18.3349 Z-2.3895 I-11.1005 J17.9154
G01 X5.1450 Z-4.5000
G01 X10.9436 F1900
G03 X15.4520 Y-14.7349 I-10.7730 J18.1143
G01 X5.1450
G01 Y-11.5543
G03 X5.9893 Y-11.1349 I-3.3673 J7.8392
G01 X18.2176
G03 X19.9781 Y-7.5349 I-17.5517 J10.8135
G01 X10.1546
G01 X9.8821 Y-7.3234
G03 X11.1846 Y-5.1163 I-9.6236 J7.1669
G01 X11.3243 Y-4.8000
G01 X21.1549
G02 X5.2047 Y-21.0662 I-21.1430 J4.7790
G01 X5.2258 Y-21.0614
G01 X4.8000 Y-21.1549
G01 Y-11.3243
G03 X9.8821 Y-7.3234 I-4.7825 J11.3031
G01 X10.1546 Y-7.5349
G00 Z5.0000
G00 X5.1450 Y-18.3349
G00 Z-4.0000
G01 Z-4.5000 F200
G01 X10.9436 Z-6.6105
G03 X11.2712 Y-18.1361 Z-6.7500 I-10.7730 J18.1143
G02 X10.9436 Y-18.3349 Z-6.8895 I-11.1005 J17.9154
G01 X5.1450 Z-9.0000
G01 X10.9436 F1900
G03 X15.4520 Y-14.7349 I-10.7730 J18.1143
G01 X5.1450
G01 Y-11.5543
G03 X5.9893 Y-11.1349 I-3.3673 J7.8392
G01 X18.2176
G03 X19.9781 Y-7.5349 I-17.5517 J10.8135
G01 X10.1546
G01 X9.8821 Y-7.3234
G03 X11.1846 Y-5.1163 I-9.6236 J7.1669
G01 X11.3243 Y-4.8000
G01 X21.1549
G02 X5.2047 Y-21.0662 I-21.1430 J4.7790
G01 X5.2258 Y-21.0614
G01 X4.8000 Y-21.1549
G01 Y-11.3243
G03 X9.8821 Y-7.3234 I-4.7825 J11.3031
G01 X10.1546 Y-7.5349
G00 Z5.0000
G00 X5.1450 Y-18.3349
G00 Z-8.5000
G01 Z-9.0000 F200
G01 X9.9531 Z-10.7500
G01 X5.1450 Z-12.5000
G01 X10.9436 F1900
G03 X15.4520 Y-14.7349 I-10.7730 J18.1143
G01 X5.1450
G01 Y-11.5543
G03 X5.9893 Y-11.1349 I-3.3673 J7.8392
G01 X18.2176
G03 X19.9781 Y-7.5349 I-17.5517 J10.8135
G01 X10.1546
G01 X9.8821 Y-7.3234
G03 X11.1846 Y-5.1163 I-9.6236 J7.1669
G01 X11.3243 Y-4.8000
G01 X21.1549
G02 X5.2047 Y-21.0662 I-21.1430 J4.7790
G01 X5.2258 Y-21.0614
G01 X4.8000 Y-21.1549
G01 Y-11.3243
G03 X9.8821 Y-7.3234 I-4.7825 J11.3031
G01 X10.1546 Y-7.5349
G00 X10.1546 Y-7.5349 Z5.0000
G00 X9.6451 Y-7.1394
G00 Z0.5000
G01 Z0.0000 F200
G03 X11.1244 Y-4.5009 Z-1.1039 I-9.5998 J7.1158
G02 X21.5214 Y-4.4997 Z-4.8882 I5.2527 J-489.3578
G01 X21.5338 Y-4.5000 Z-4.8928
G02 X8.8646 Y-20.1346 Z-12.5000 I-21.5322 J4.4978
G02 X4.5132 Y-21.5315 I-8.8630 J20.1324 F1900
G01 X4.5328 Y-21.5281
G01 X4.5131 Y-21.5324
G01 X4.5005 Y-21.5314
G01 X4.4997 Y-21.5214
G01 X4.5000 Y-21.5031
G01 Y-11.1540
G01 X4.5003 Y-11.1251
G01 X4.5504 Y-11.1031
G03 X9.6451 Y-7.1394 I-4.5341 J11.0841
G03 X11.1244 Y-4.5009 I-9.5998 J7.1158
G02 X21.5214 Y-4.4997 I5.2527 J-489.3578
G01 X21.5338 Y-4.5000
G02 X8.8646 Y-20.1346 I-21.5322 J4.4978
G00 Z5.0000

(Nr. 4 Räumen linear: Tasche 4)
G00 X-10.9436 Y-18.3349 Z5.0000
G00 Z0.5000
G01 Z0.0000 F200
G01 X-5.1450 Z-2.1105
G01 Y-17.9517 Z-2.2500
G01 Y-18.3349 Z-2.3895
G01 X-10.9436 Z-4.5000
G01 X-5.1450 F1900
G01 Y-14.7349
G01 X-15.4520
G02 X-18.2176 Y-11.1349 I14.9886 J14.3770
G01 X-5.9893
G02 X-10.1547 Y-7.5349 I5.9436 J11.0867
G01 X-19.9781
G01 X-20.2999 Y-7.6593
G02 X-21.0662 Y-5.2047 I19.3467 J7.3869
G01 X-21.0614 Y-5.2258
G01 X-21.1549 Y-4.8000
G01 X-11.3243
G03 X-5.1163 Y-11.1846 I11.3098 J4.7866
G01 X-4.8000 Y-11.3243
G01 Y-21.1549
G02 X-20.2999 Y-7.6593 I4.7694 J21.1265
G01 X-19.9781 Y-7.5349
G00 Z5.0000
G00 X-10.9436 Y-18.3349
G00 Z-4.0000
G01 Z-4.5000 F200
G01 X-5.1450 Z-6.6105
G01 Y-17.9517 Z-6.7500
G01 Y-18.3349 Z-6.8895
G01 X-10.9436 Z-9.0000
G01 X-5.1450 F1900
G01 Y-14.7349
G01 X-15.4520
G02 X-18.2176 Y-11.1349 I14.9886 J14.3770
G01 X-5.9893
G02 X-10.1547 Y-7.5349 I5.9436 J11.0867
G01 X-19.9781
G01 X-20.2999 Y-7.6593
G02 X-21.0662 Y-5.2047 I19.3467 J7.3869
G01 X-21.0614 Y-5.2258
G01 X-21.1549 Y-4.8000
G01 X-11.3243
G03 X-5.1163 Y-11.1846 I11.3098 J4.7866
G01 X-4.8000 Y-11.3243
G01 Y-21.1549
G02 X-20.2999 Y-7.6593 I4.7694 J21.1265
G01 X-19.9781 Y-7.5349
G00 Z5.0000
G00 X-10.9436 Y-18.3349
G00 Z-8.5000
G01 Z-9.0000 F200
G01 X-6.1355 Z-10.7500
G01 X-10.9436 Z-12.5000
G01 X-5.1450 F1900
G01 Y-14.7349
G01 X-15.4520
G02 X-18.2176 Y-11.1349 I14.9886 J14.3770
G01 X-5.9893
G02 X-10.1547 Y-7.5349 I5.9436 J11.0867
G01 X-19.9781
G01 X-20.2999 Y-7.6593
G02 X-21.0662 Y-5.2047 I19.3467 J7.3869
G01 X-21.0614 Y-5.2258
G01 X-21.1549 Y-4.8000
G01 X-11.3243
G03 X-5.1163 Y-11.1846 I11.3098 J4.7866
G01 X-4.8000 Y-11.3243
G01 Y-21.1549
G02 X-20.2999 Y-7.6593 I4.7694 J21.1265
G01 X-19.9781 Y-7.5349
G00 X-19.9781 Y-7.5349 Z5.0000
G00 X-20.5797 Y-7.7675
G00 Z0.5000
G01 Z0.0000 F200
G02 X-21.5315 Y-4.5132 Z-1.2354 I20.1052 J7.6467
G01 X-21.5281 Y-4.5326 Z-1.2426
G01 X-21.5324 Y-4.5133 Z-1.2498
G01 X-21.5346 Y-4.5010 Z-1.2544
G01 X-21.5214 Y-4.4997 Z-1.2592
G01 X-21.5032 Y-4.5000 Z-1.2658
G01 X-11.1540 Z-5.0326
G01 X-11.1251 Y-4.5004 Z-5.0432
G01 X-11.1031 Y-4.5505 Z-5.0631
G03 X-4.5009 Y-11.1244 Z-8.5458 I11.0977 J4.5432
G02 X-4.4997 Y-21.5214 Z-12.3301 I-488.3313 J-5.2525
G01 X-4.5033 Y-21.5337 Z-12.3348
G02 X-4.9467 Y-21.4362 Z-12.5000 I4.4975 J21.5224
G02 X-20.5797 Y-7.7675 I4.9409 J21.4250 F1900
G02 X-21.5315 Y-4.5132 I20.1052 J7.6467
G01 X-21.5281 Y-4.5326
G01 X-21.5324 Y-4.5133
G01 X-21.5346 Y-4.5010
G01 X-21.5214 Y-4.4997
G01 X-21.5032 Y-4.5000
G01 X-11.1540
G01 X-11.1251 Y-4.5004
G01 X-11.1031 Y-4.5505
G03 X-4.5009 Y-11.1244 I11.0977 J4.5432
G02 X-4.4997 Y-21.5214 I-488.3313 J-5.2525
G01 X-4.5033 Y-21.5337
G02 X-4.9467 Y-21.4362 I4.4975 J21.5224
G00 Z5.0000

(Nr. 5 Räumen linear: Tasche 1)
G00 X-19.9781 Y7.5349 Z5.0000
G00 Z0.5000
G01 Z0.0000 F200
G01 X-13.7963 Z-2.2500
G01 X-19.9781 Z-4.5000
G01 X-10.1546 F1900
G02 X-5.9893 Y11.1349 I10.1046 J-7.4817
G01 X-18.2176
G02 X-15.4520 Y14.7349 I17.7525 J-10.7757
G01 X-5.1450
G01 Y18.3349
G01 X-10.9436
G01 X-11.1240 Y18.6290
G02 X-5.2047 Y21.0662 I11.0953 J-18.5411
G01 X-5.2258 Y21.0614
G01 X-4.8000 Y21.1549
G01 Y11.3243
G03 X-11.1846 Y5.1162 I4.7867 J-11.3099
G01 X-11.3243 Y4.8000
G01 X-21.1549
G02 X-11.1240 Y18.6290 I21.1138 J-4.7624
G01 X-10.9436 Y18.3349
G00 Z5.0000
G00 X-19.9781 Y7.5349
G00 Z-4.0000
G01 Z-4.5000 F200
G01 X-13.7963 Z-6.7500
G01 X-19.9781 Z-9.0000
G01 X-10.1546 F1900
G02 X-5.9893 Y11.1349 I10.1046 J-7.4817
G01 X-18.2176
G02 X-15.4520 Y14.7349 I17.7525 J-10.7757
G01 X-5.1450
G01 Y18.3349
G01 X-10.9436
G01 X-11.1240 Y18.6290
G02 X-5.2047 Y21.0662 I11.0953 J-18.5411
G01 X-5.2258 Y21.0614
G01 X-4.8000 Y21.1549
G01 Y11.3243
G03 X-11.1846 Y5.1162 I4.7867 J-11.3099
G01 X-11.3243 Y4.8000
G01 X-21.1549
G02 X-11.1240 Y18.6290 I21.1138 J-4.7624
G01 X-10.9436 Y18.3349
G00 Z5.0000
G00 X-19.9781 Y7.5349
G00 Z-8.5000
G01 Z-9.0000 F200
G01 X-15.1700 Z-10.7500
G01 X-19.9781 Z-12.5000
G01 X-10.1546 F1900
G02 X-5.9893 Y11.1349 I10.1046 J-7.4817
G01 X-18.2176
G02 X-15.4520 Y14.7349 I17.7525 J-10.7757
G01 X-5.1450
G01 Y18.3349
G01 X-10.9436
G01 X-11.1240 Y18.6290
G02 X-5.2047 Y21.0662 I11.0953 J-18.5411
G01 X-5.2258 Y21.0614
G01 X-4.8000 Y21.1549
G01 Y11.3243
G03 X-11.1846 Y5.1162 I4.7867 J-11.3099
G01 X-11.3243 Y4.8000
G01 X-21.1549
G02 X-11.1240 Y18.6290 I21.1138 J-4.7624
G01 X-10.9436 Y18.3349
G00 X-10.9436 Y18.3349 Z5.0000
G00 X-11.2808 Y18.8848
G00 Z0.5000
G01 Z0.0000 F200
G02 X-4.5132 Y21.5315 Z-2.6571 I11.2575 J-18.8097
G01 X-4.5326 Y21.5281 Z-2.6643
G01 X-4.5133 Y21.5324 Z-2.6716
G01 X-4.5010 Y21.5346 Z-2.6761
G01 X-4.4997 Y21.5214 Z-2.6810
G01 X-4.5000 Y21.5032 Z-2.6876
G01 Y11.1539 Z-6.4544
G01 X-4.5004 Y11.1251 Z-6.4649
G01 X-4.5505 Y11.1031 Z-6.4848
G03 X-11.1244 Y4.5009 Z-9.9676 I4.5433 J-11.0978
G02 X-18.0821 Y4.4756 Z-12.5000 I-5.2525 J488.3324
G02 X-21.5214 Y4.4997 I1.7052 J488.3577 F1900
G01 X-21.5337 Y4.5033
G02 X-11.2808 Y18.8848 I21.5216 J-4.4978
G02 X-4.5132 Y21.5315 I11.2575 J-18.8097
G01 X-4.5326 Y21.5281
G01 X-4.5133 Y21.5324
G01 X-4.5010 Y21.5346
G01 X-4.4997 Y21.5214
G01 X-4.5000 Y21.5032
G01 Y11.1539
G01 X-4.5004 Y11.1251
G01 X-4.5505 Y11.1031
G03 X-11.1244 Y4.5009 I4.5433 J-11.0978
G02 X-18.0821 Y4.4756 I-5.2525 J488.3324
G00 Z5.0000

(Nr. 6 Teil bearbeiten: Teil 1)
G00 X-30.3432 Y5.3841 Z5.0000
G00 Z0.5000
G01 Z0.0000 F200
G02 X-30.6690 Y5.1332 Z-0.1697 I-0.2714 J0.0154
G01 X-33.6307 Y5.4268 Z-1.2530
G03 X-37.1196 Y4.8261 Z-2.5472 I0.0872 J-10.9384
G03 X-41.1933 Y2.9235 Z-4.1875 I5.9468 J-18.0449
G03 X-41.7440 Y2.2734 Z-4.5000 I1.2156 J-1.5882
G03 X-41.9771 Y1.3854 I1.7663 J-0.9381 F1900
G03 X-41.9698 Y-1.5126 I37.8591 J-1.3543
G03 X-40.8392 Y-3.1477 I2.0169 J0.1862
G03 X-35.1143 Y-5.3197 I8.9879 J15.0595
G03 X-33.4424 Y-5.4156 I1.2611 J7.3609
G01 X-30.6479 Y-5.1311
G02 X-30.5751 Y-5.6657 I0.0354 J-0.2675
G01 X-33.4585 Y-6.4028
G03 X-36.5316 Y-8.1605 I3.8229 J-10.2490
G03 X-39.7089 Y-11.3418 I11.7598 J-14.9227
G03 X-39.9194 Y-13.0552 I1.6855 J-1.0766
G03 X-38.9214 Y-15.7760 I36.0382 J11.6756
G03 X-37.2997 Y-16.9257 I1.8316 J0.8648
G03 X-31.1771 Y-17.0087 I3.2951 J17.2254
G03 X-29.5733 Y-16.5270 I-1.3330 J7.3499
G01 X-27.0446 Y-15.3038
G02 X-26.7934 Y-15.7813 I0.1247 J-0.2392
G01 X-29.2509 Y-17.4602
G03 X-31.5374 Y-20.1629 I7.0982 J-8.3236
G03 X-33.4351 Y-24.2390 I16.1547 J-10.0008
G03 X-33.0468 Y-25.9211 I1.9521 J-0.4352
G03 X-31.1784 Y-28.1365 I29.8696 J23.2958
G03 X-29.2613 Y-28.6622 I1.4254 J1.4391
G03 X-23.4797 Y-26.6461 I-2.7950 J17.3135
G03 X-22.1372 Y-25.6450 I-3.7660 J6.4504
G01 X-20.1794 Y-23.6307
G02 X-19.7800 Y-23.9935 I0.1990 J-0.1821
G01 X-21.5151 Y-26.4116
G03 X-22.7393 Y-29.7334 I9.5167 J-5.3939
G03 X-23.1285 Y-34.2128 I18.6008 J-3.8724
G03 X-22.1883 Y-35.6605 I1.9832 J0.2587
G03 X-19.6749 Y-37.1033 I20.1047 J32.1139
G03 X-17.6936 Y-36.9416 I0.8472 J1.8399
G03 X-12.9501 Y-33.0697 I-8.5479 J15.3133
G03 X-12.0311 Y-31.6698 I-5.7443 J4.7727
G01 X-10.8803 Y-29.1074
G02 X-10.3809 Y-29.3117 I0.2493 J-0.1031
G01 X-11.1843 Y-32.1773
G03 X-11.1986 Y-35.7175 I10.7879 J-1.8138
G03 X-10.0322 Y-40.0599 I18.8030 J2.7229
G03 X-8.6536 Y-41.0988 I1.7751 J0.9214
G03 X-5.7983 Y-41.5949 I7.9063 J37.0392
G03 X-3.9917 Y-40.7653 I0.1668 J2.0187
G03 X-0.8587 Y-35.5046 I-13.2697 J11.4661
G03 X-0.4738 Y-33.8747 I-7.0301 J2.5202
G01 X-0.2688 Y-31.0733
G02 X0.2704 Y-31.0944 I0.2695 J-0.0116
G01 X0.4955 Y-34.0620
G03 X1.6929 Y-37.3937 I10.7570 J1.9850
G03 X4.2741 Y-41.0752 I16.7377 J8.9896
G03 X5.9249 Y-41.5799 I1.3529 J1.4730
G03 X8.7777 Y-41.0695 I-5.2396 J37.5140
G03 X10.1916 Y-39.6722 I-0.5337 J1.9540
G03 X11.3364 Y-33.6571 I-16.3915 J6.2363
G03 X11.1406 Y-31.9939 I-7.4693 J-0.0363
G01 X10.3751 Y-29.2912
G02 X10.8890 Y-29.1267 I0.2573 J0.0813
G01 X12.1155 Y-31.8383
G03 X14.3802 Y-34.5596 I9.4299 J5.5449
G03 X18.0649 Y-37.1362 I12.6534 J14.1719
G03 X19.7888 Y-37.0459 I0.7676 J1.8468
G03 X22.2949 Y-35.5906 I-17.7545 J33.4603
G03 X23.1456 Y-33.7939 I-1.1698 J1.6536
G03 X22.1641 Y-27.7500 I-17.5355 J0.2540
G03 X21.4113 Y-26.2541 I-7.0066 J-2.5889
G01 X19.7676 Y-23.9763
G02 X20.1942 Y-23.6459 I0.2139 J0.1644
G01 X22.2743 Y-25.7746
G03 X25.3330 Y-27.5570 I6.9646 J8.4358
G03 X29.6767 Y-28.7181 I7.0437 J17.6459
G03 X31.2658 Y-28.0436 I0.0897 J1.9980
G03 X33.1230 Y-25.8190 I-28.1381 J25.3786
G03 X33.3080 Y-23.8396 I-1.6648 J1.1538
G03 X30.3185 Y-18.4959 I-16.5650 J-5.7589
G03 X29.0994 Y-17.3477 I-5.6984 J-4.8289
G01 X26.7758 Y-15.7694
G02 X27.0637 Y-15.3131 I0.1448 J0.2276
G01 X29.7464 Y-16.6019
G03 X33.2303 Y-17.2307 I3.6595 J10.3092
G03 X37.7092 Y-16.8361 I0.5837 J18.9899
G03 X38.9717 Y-15.6588 I-0.5991 J1.9082
G03 X39.9561 Y-12.9331 I-35.1017 J14.2172
G03 X39.4529 Y-11.0099 I-1.9590 J0.5148
G03 X34.8161 Y-7.0109 I-13.5965 J-11.0773
G03 X33.2778 Y-6.3489 I-3.7031 J-6.4866
G01 X30.5545 Y-5.6605
G02 X30.6690 Y-5.1332 I0.0582 J0.2634
G01 X33.6306 Y-5.4268
G03 X37.1195 Y-4.8262 I-0.0870 J10.9385
G03 X41.1933 Y-2.9235 I-5.9461 J18.0437
G03 X41.9771 Y-1.3854 I-1.2156 J1.5882
G03 X41.9698 Y1.5126 I-37.8594 J1.3543
G03 X40.8392 Y3.1478 I-2.0170 J-0.1862
G03 X35.1143 Y5.3197 I-8.9878 J-15.0596
G03 X33.4424 Y5.4157 I-1.2613 J-7.3629
G01 X30.6479 Y5.1311
G02 X30.5750 Y5.6657 I-0.0354 J0.2675
G01 X33.4586 Y6.4028
G03 X36.5316 Y8.1605 I-3.8234 J10.2496
G03 X39.7090 Y11.3418 I-11.7587 J14.9215
G03 X39.9194 Y13.0552 I-1.6855 J1.0766
G03 X38.9214 Y15.7759 I-36.0397 J-11.6762
G03 X37.2997 Y16.9257 I-1.8316 J-0.8648
G03 X31.1771 Y17.0087 I-3.2952 J-17.2254
G03 X29.5733 Y16.5270 I1.3325 J-7.3484
G01 X27.0446 Y15.3038
G02 X26.7933 Y15.7813 I-0.1247 J0.2392
G01 X29.2508 Y17.4601
G03 X31.5374 Y20.1629 I-7.0978 J8.3234
G03 X33.4351 Y24.2391 I-16.1536 J10.0003
G03 X33.0468 Y25.9211 I-1.9521 J0.4352
G03 X31.1784 Y28.1364 I-29.8669 J-23.2934
G03 X29.2613 Y28.6622 I-1.4254 J-1.4391
G03 X23.4797 Y26.6461 I2.7949 J-17.3133
G03 X22.1372 Y25.6450 I3.7660 J-6.4502
G01 X20.1794 Y23.6307
G02 X19.7800 Y23.9934 I-0.1990 J0.1821
G01 X21.5151 Y26.4115
G03 X22.7393 Y29.7334 I-9.5167 J5.3939
G03 X23.1285 Y34.2127 I-18.6017 J3.8725
G03 X22.1883 Y35.6605 I-1.9832 J-0.2586
G03 X19.6749 Y37.1033 I-20.1046 J-32.1137
G03 X17.6936 Y36.9417 I-0.8472 J-1.8399
G03 X12.9502 Y33.0697 I8.5481 J-15.3136
G03 X12.0311 Y31.6698 I5.7446 J-4.7730
G01 X10.8803 Y29.1074
G02 X10.3809 Y29.3117 I-0.2493 J0.1031
G01 X11.1843 Y32.1773
G03 X11.1986 Y35.7175 I-10.7878 J1.8138
G03 X10.0322 Y40.0599 I-18.8036 J-2.7230
G03 X8.6536 Y41.0988 I-1.7751 J-0.9214
G03 X5.7983 Y41.5949 I-7.9070 J-37.0440
G03 X3.9918 Y40.7654 I-0.1668 J-2.0187
G03 X0.8587 Y35.5046 I13.2701 J-11.4665
G03 X0.4738 Y33.8747 I7.0311 J-2.5204
G01 X0.2688 Y31.0733
G02 X-0.2704 Y31.0944 I-0.2695 J0.0116
G01 X-0.4955 Y34.0620
G03 X-1.6929 Y37.3937 I-10.7573 J-1.9851
G03 X-4.2741 Y41.0752 I-16.7373 J-8.9893
G03 X-5.9249 Y41.5799 I-1.3529 J-1.4730
G03 X-8.7777 Y41.0695 I5.2386 J-37.5093
G03 X-10.1916 Y39.6722 I0.5337 J-1.9540
G03 X-11.3364 Y33.6570 I16.3913 J-6.2362
G03 X-11.1406 Y31.9939 I7.4690 J0.0363
G01 X-10.3751 Y29.2913
G02 X-10.8890 Y29.1267 I-0.2573 J-0.0813
G01 X-12.1155 Y31.8384
G03 X-14.3802 Y34.5595 I-9.4296 J-5.5448
G03 X-18.0649 Y37.1362 I-12.6539 J-14.1724
G03 X-19.7888 Y37.0459 I-0.7676 J-1.8468
G03 X-22.2949 Y35.5906 I17.7628 J-33.4747
G03 X-23.1456 Y33.7939 I1.1698 J-1.6536
G03 X-22.1641 Y27.7500 I17.5359 J-0.2539
G03 X-21.4113 Y26.2541 I7.0057 J2.5884
G01 X-19.7676 Y23.9763
G02 X-20.1942 Y23.6459 I-0.2139 J-0.1644
G01 X-22.2742 Y25.7745
G03 X-25.3330 Y27.5570 I-6.9643 J-8.4351
G03 X-29.6767 Y28.7181 I-7.0433 J-17.6446
G03 X-31.2658 Y28.0436 I-0.0897 J-1.9980
G03 X-33.1231 Y25.8189 I28.1257 J-25.3683
G03 X-33.3079 Y23.8396 I1.6648 J-1.1538
G03 X-30.3186 Y18.4959 I16.5652 J5.7591
G03 X-29.0994 Y17.3477 I5.6989 J4.8295
G01 X-26.7758 Y15.7694
G02 X-27.0638 Y15.3131 I-0.1448 J-0.2276
G01 X-29.7463 Y16.6019
G03 X-33.2303 Y17.2307 I-3.6594 J-10.3082
G03 X-37.7092 Y16.8361 I-0.5837 J-18.9901
G03 X-38.9717 Y15.6588 I0.5991 J-1.9082
G03 X-39.9561 Y12.9331 I35.1223 J-14.2247
G03 X-39.4529 Y11.0099 I1.9590 J-0.5149
G03 X-34.8161 Y7.0109 I13.5964 J11.0772
G03 X-33.2778 Y6.3489 I3.7032 J6.4867
G01 X-30.5545 Y5.6605
G02 X-30.3432 Y5.3841 I-0.0584 J-0.2636
G02 X-30.6690 Y5.1332 Z-4.6697 I-0.2714 J0.0154 F200
G01 X-33.6307 Y5.4268 Z-5.7530
G03 X-37.1196 Y4.8261 Z-7.0472 I0.0872 J-10.9384
G03 X-41.1933 Y2.9235 Z-8.6875 I5.9468 J-18.0449
G03 X-41.7440 Y2.2734 Z-9.0000 I1.2156 J-1.5882
G03 X-41.9771 Y1.3854 I1.7663 J-0.9381 F1900
G03 X-41.9698 Y-1.5126 I37.8591 J-1.3543
G03 X-40.8392 Y-3.1477 I2.0169 J0.1862
G03 X-35.1143 Y-5.3197 I8.9879 J15.0595
G03 X-33.4424 Y-5.4156 I1.2611 J7.3609
G01 X-30.6479 Y-5.1311
G02 X-30.5751 Y-5.6657 I0.0354 J-0.2675
G01 X-33.4585 Y-6.4028
G03 X-36.5316 Y-8.1605 I3.8229 J-10.2490
G03 X-39.7089 Y-11.3418 I11.7598 J-14.9227
G03 X-39.9194 Y-13.0552 I1.6855 J-1.0766
G03 X-38.9214 Y-15.7760 I36.0382 J11.6756
G03 X-37.2997 Y-16.9257 I1.8316 J0.8648
G03 X-31.1771 Y-17.0087 I3.2951 J17.2254
G03 X-29.5733 Y-16.5270 I-1.3330 J7.3499
G01 X-27.0446 Y-15.3038
G02 X-26.7934 Y-15.7813 I0.1247 J-0.2392
G01 X-29.2509 Y-17.4602
G03 X-31.5374 Y-20.1629 I7.0982 J-8.3236
G03 X-33.4351 Y-24.2390 I16.1547 J-10.0008
G03 X-33.0468 Y-25.9211 I1.9521 J-0.4352
G03 X-31.1784 Y-28.1365 I29.8696 J23.2958
G03 X-29.2613 Y-28.6622 I1.4254 J1.4391
G03 X-23.4797 Y-26.6461 I-2.7950 J17.3135
G03 X-22.1372 Y-25.6450 I-3.7660 J6.4504
G01 X-20.1794 Y-23.6307
G02 X-19.7800 Y-23.9935 I0.1990 J-0.1821
G01 X-21.5151 Y-26.4116
G03 X-22.7393 Y-29.7334 I9.5167 J-5.3939
G03 X-23.1285 Y-34.2128 I18.6008 J-3.8724
G03 X-22.1883 Y-35.6605 I1.9832 J0.2587
G03 X-19.6749 Y-37.1033 I20.1047 J32.1139
G03 X-17.6936 Y-36.9416 I0.8472 J1.8399
G03 X-12.9501 Y-33.0697 I-8.5479 J15.3133
G03 X-12.0311 Y-31.6698 I-5.7443 J4.7727
G01 X-10.8803 Y-29.1074
G02 X-10.3809 Y-29.3117 I0.2493 J-0.1031
G01 X-11.1843 Y-32.1773
G03 X-11.1986 Y-35.7175 I10.7879 J-1.8138
G03 X-10.0322 Y-40.0599 I18.8030 J2.7229
G03 X-8.6536 Y-41.0988 I1.7751 J0.9214
G03 X-5.7983 Y-41.5949 I7.9063 J37.0392
G03 X-3.9917 Y-40.7653 I0.1668 J2.0187
G03 X-0.8587 Y-35.5046 I-13.2697 J11.4661
G03 X-0.4738 Y-33.8747 I-7.0301 J2.5202
G01 X-0.2688 Y-31.0733
G02 X0.2704 Y-31.0944 I0.2695 J-0.0116
G01 X0.4955 Y-34.0620
G03 X1.6929 Y-37.3937 I10.7570 J1.9850
G03 X4.2741 Y-41.0752 I16.7377 J8.9896
G03 X5.9249 Y-41.5799 I1.3529 J1.4730
G03 X8.7777 Y-41.0695 I-5.2396 J37.5140
G03 X10.1916 Y-39.6722 I-0.5337 J1.9540
G03 X11.3364 Y-33.6571 I-16.3915 J6.2363
G03 X11.1406 Y-31.9939 I-7.4693 J-0.0363
G01 X10.3751 Y-29.2912
G02 X10.8890 Y-29.1267 I0.2573 J0.0813
G01 X12.1155 Y-31.8383
G03 X14.3802 Y-34.5596 I9.4299 J5.5449
G03 X18.0649 Y-37.1362 I12.6534 J14.1719
G03 X19.7888 Y-37.0459 I0.7676 J1.8468
G03 X22.2949 Y-35.5906 I-17.7545 J33.4603
G03 X23.1456 Y-33.7939 I-1.1698 J1.6536
G03 X22.1641 Y-27.7500 I-17.5355 J0.2540
G03 X21.4113 Y-26.2541 I-7.0066 J-2.5889
G01 X19.7676 Y-23.9763
G02 X20.1942 Y-23.6459 I0.2139 J0.1644
G01 X22.2743 Y-25.7746
G03 X25.3330 Y-27.5570 I6.9646 J8.4358
G03 X29.6767 Y-28.7181 I7.0437 J17.6459
G03 X31.2658 Y-28.0436 I0.0897 J1.9980
G03 X33.1230 Y-25.8190 I-28.1381 J25.3786
G03 X33.3080 Y-23.8396 I-1.6648 J1.1538
G03 X30.3185 Y-18.4959 I-16.5650 J-5.7589
G03 X29.0994 Y-17.3477 I-5.6984 J-4.8289
G01 X26.7758 Y-15.7694
G02 X27.0637 Y-15.3131 I0.1448 J0.2276
G01 X29.7464 Y-16.6019
G03 X33.2303 Y-17.2307 I3.6595 J10.3092
G03 X37.7092 Y-16.8361 I0.5837 J18.9899
G03 X38.9717 Y-15.6588 I-0.5991 J1.9082
G03 X39.9561 Y-12.9331 I-35.1017 J14.2172
G03 X39.4529 Y-11.0099 I-1.9590 J0.5148
G03 X34.8161 Y-7.0109 I-13.5965 J-11.0773
G03 X33.2778 Y-6.3489 I-3.7031 J-6.4866
G01 X30.5545 Y-5.6605
G02 X30.6690 Y-5.1332 I0.0582 J0.2634
G01 X33.6306 Y-5.4268
G03 X37.1195 Y-4.8262 I-0.0870 J10.9385
G03 X41.1933 Y-2.9235 I-5.9461 J18.0437
G03 X41.9771 Y-1.3854 I-1.2156 J1.5882
G03 X41.9698 Y1.5126 I-37.8594 J1.3543
G03 X40.8392 Y3.1478 I-2.0170 J-0.1862
G03 X35.1143 Y5.3197 I-8.9878 J-15.0596
G03 X33.4424 Y5.4157 I-1.2613 J-7.3629
G01 X30.6479 Y5.1311
G02 X30.5750 Y5.6657 I-0.0354 J0.2675
G01 X33.4586 Y6.4028
G03 X36.5316 Y8.1605 I-3.8234 J10.2496
G03 X39.7090 Y11.3418 I-11.7587 J14.9215
G03 X39.9194 Y13.0552 I-1.6855 J1.0766
G03 X38.9214 Y15.7759 I-36.0397 J-11.6762
G03 X37.2997 Y16.9257 I-1.8316 J-0.8648
G03 X31.1771 Y17.0087 I-3.2952 J-17.2254
G03 X29.5733 Y16.5270 I1.3325 J-7.3484
G01 X27.0446 Y15.3038
G02 X26.7933 Y15.7813 I-0.1247 J0.2392
G01 X29.2508 Y17.4601
G03 X31.5374 Y20.1629 I-7.0978 J8.3234
G03 X33.4351 Y24.2391 I-16.1536 J10.0003
G03 X33.0468 Y25.9211 I-1.9521 J0.4352
G03 X31.1784 Y28.1364 I-29.8669 J-23.2934
G03 X29.2613 Y28.6622 I-1.4254 J-1.4391
G03 X23.4797 Y26.6461 I2.7949 J-17.3133
G03 X22.1372 Y25.6450 I3.7660 J-6.4502
G01 X20.1794 Y23.6307
G02 X19.7800 Y23.9934 I-0.1990 J0.1821
G01 X21.5151 Y26.4115
G03 X22.7393 Y29.7334 I-9.5167 J5.3939
G03 X23.1285 Y34.2127 I-18.6017 J3.8725
G03 X22.1883 Y35.6605 I-1.9832 J-0.2586
G03 X19.6749 Y37.1033 I-20.1046 J-32.1137
G03 X17.6936 Y36.9417 I-0.8472 J-1.8399
G03 X12.9502 Y33.0697 I8.5481 J-15.3136
G03 X12.0311 Y31.6698 I5.7446 J-4.7730
G01 X10.8803 Y29.1074
G02 X10.3809 Y29.3117 I-0.2493 J0.1031
G01 X11.1843 Y32.1773
G03 X11.1986 Y35.7175 I-10.7878 J1.8138
G03 X10.0322 Y40.0599 I-18.8036 J-2.7230
G03 X8.6536 Y41.0988 I-1.7751 J-0.9214
G03 X5.7983 Y41.5949 I-7.9070 J-37.0440
G03 X3.9918 Y40.7654 I-0.1668 J-2.0187
G03 X0.8587 Y35.5046 I13.2701 J-11.4665
G03 X0.4738 Y33.8747 I7.0311 J-2.5204
G01 X0.2688 Y31.0733
G02 X-0.2704 Y31.0944 I-0.2695 J0.0116
G01 X-0.4955 Y34.0620
G03 X-1.6929 Y37.3937 I-10.7573 J-1.9851
G03 X-4.2741 Y41.0752 I-16.7373 J-8.9893
G03 X-5.9249 Y41.5799 I-1.3529 J-1.4730
G03 X-8.7777 Y41.0695 I5.2386 J-37.5093
G03 X-10.1916 Y39.6722 I0.5337 J-1.9540
G03 X-11.3364 Y33.6570 I16.3913 J-6.2362
G03 X-11.1406 Y31.9939 I7.4690 J0.0363
G01 X-10.3751 Y29.2913
G02 X-10.8890 Y29.1267 I-0.2573 J-0.0813
G01 X-12.1155 Y31.8384
G03 X-14.3802 Y34.5595 I-9.4296 J-5.5448
G03 X-18.0649 Y37.1362 I-12.6539 J-14.1724
G03 X-19.7888 Y37.0459 I-0.7676 J-1.8468
G03 X-22.2949 Y35.5906 I17.7628 J-33.4747
G03 X-23.1456 Y33.7939 I1.1698 J-1.6536
G03 X-22.1641 Y27.7500 I17.5359 J-0.2539
G03 X-21.4113 Y26.2541 I7.0057 J2.5884
G01 X-19.7676 Y23.9763
G02 X-20.1942 Y23.6459 I-0.2139 J-0.1644
G01 X-22.2742 Y25.7745
G03 X-25.3330 Y27.5570 I-6.9643 J-8.4351
G03 X-29.6767 Y28.7181 I-7.0433 J-17.6446
G03 X-31.2658 Y28.0436 I-0.0897 J-1.9980
G03 X-33.1231 Y25.8189 I28.1257 J-25.3683
G03 X-33.3079 Y23.8396 I1.6648 J-1.1538
G03 X-30.3186 Y18.4959 I16.5652 J5.7591
G03 X-29.0994 Y17.3477 I5.6989 J4.8295
G01 X-26.7758 Y15.7694
G02 X-27.0638 Y15.3131 I-0.1448 J-0.2276
G01 X-29.7463 Y16.6019
G03 X-33.2303 Y17.2307 I-3.6594 J-10.3082
G03 X-37.7092 Y16.8361 I-0.5837 J-18.9901
G03 X-38.9717 Y15.6588 I0.5991 J-1.9082
G03 X-39.9561 Y12.9331 I35.1223 J-14.2247
G03 X-39.4529 Y11.0099 I1.9590 J-0.5149
G03 X-34.8161 Y7.0109 I13.5964 J11.0772
G03 X-33.2778 Y6.3489 I3.7032 J6.4867
G01 X-30.5545 Y5.6605
G02 X-30.3432 Y5.3841 I-0.0584 J-0.2636
G02 X-30.6690 Y5.1332 Z-9.1697 I-0.2714 J0.0154 F200
G01 X-33.6307 Y5.4268 Z-10.2530
G03 X-37.1196 Y4.8261 Z-11.5472 I0.0872 J-10.9384
G03 X-39.5416 Y3.8384 Z-12.5000 I5.9468 J-18.0449
G03 X-41.1933 Y2.9235 I8.3688 J-17.0572 F1900
G03 X-41.9771 Y1.3854 I1.2156 J-1.5882
G03 X-41.9698 Y-1.5126 I37.8591 J-1.3543
G03 X-40.8392 Y-3.1477 I2.0169 J0.1862
G03 X-35.1143 Y-5.3197 I8.9879 J15.0595
G03 X-33.4424 Y-5.4156 I1.2611 J7.3609
G01 X-30.6479 Y-5.1311
G02 X-30.5751 Y-5.6657 I0.0354 J-0.2675
G01 X-33.4585 Y-6.4028
G03 X-36.5316 Y-8.1605 I3.8229 J-10.2490
G03 X-39.7089 Y-11.3418 I11.7598 J-14.9227
G03 X-39.9194 Y-13.0552 I1.6855 J-1.0766
G03 X-38.9214 Y-15.7760 I36.0382 J11.6756
G03 X-37.2997 Y-16.9257 I1.8316 J0.8648
G03 X-31.1771 Y-17.0087 I3.2951 J17.2254
G03 X-29.5733 Y-16.5270 I-1.3330 J7.3499
G01 X-27.0446 Y-15.3038
G02 X-26.7934 Y-15.7813 I0.1247 J-0.2392
G01 X-29.2509 Y-17.4602
G03 X-31.5374 Y-20.1629 I7.0982 J-8.3236
G03 X-33.4351 Y-24.2390 I16.1547 J-10.0008
G03 X-33.0468 Y-25.9211 I1.9521 J-0.4352
G03 X-31.1784 Y-28.1365 I29.8696 J23.2958
G03 X-29.2613 Y-28.6622 I1.4254 J1.4391
G03 X-23.4797 Y-26.6461 I-2.7950 J17.3135
G03 X-22.1372 Y-25.6450 I-3.7660 J6.4504
G01 X-20.1794 Y-23.6307
G02 X-19.7800 Y-23.9935 I0.1990 J-0.1821
G01 X-21.5151 Y-26.4116
G03 X-22.7393 Y-29.7334 I9.5167 J-5.3939
G03 X-23.1285 Y-34.2128 I18.6008 J-3.8724
G03 X-22.1883 Y-35.6605 I1.9832 J0.2587
G03 X-19.6749 Y-37.1033 I20.1047 J32.1139
G03 X-17.6936 Y-36.9416 I0.8472 J1.8399
G03 X-12.9501 Y-33.0697 I-8.5479 J15.3133
G03 X-12.0311 Y-31.6698 I-5.7443 J4.7727
G01 X-10.8803 Y-29.1074
G02 X-10.3809 Y-29.3117 I0.2493 J-0.1031
G01 X-11.1843 Y-32.1773
G03 X-11.1986 Y-35.7175 I10.7879 J-1.8138
G03 X-10.0322 Y-40.0599 I18.8030 J2.7229
G03 X-8.6536 Y-41.0988 I1.7751 J0.9214
G03 X-5.7983 Y-41.5949 I7.9063 J37.0392
G03 X-3.9917 Y-40.7653 I0.1668 J2.0187
G03 X-0.8587 Y-35.5046 I-13.2697 J11.4661
G03 X-0.4738 Y-33.8747 I-7.0301 J2.5202
G01 X-0.2688 Y-31.0733
G02 X0.2704 Y-31.0944 I0.2695 J-0.0116
G01 X0.4955 Y-34.0620
G03 X1.6929 Y-37.3937 I10.7570 J1.9850
G03 X4.2741 Y-41.0752 I16.7377 J8.9896
G03 X5.9249 Y-41.5799 I1.3529 J1.4730
G03 X8.7777 Y-41.0695 I-5.2396 J37.5140
G03 X10.1916 Y-39.6722 I-0.5337 J1.9540
G03 X11.3364 Y-33.6571 I-16.3915 J6.2363
G03 X11.1406 Y-31.9939 I-7.4693 J-0.0363
G01 X10.3751 Y-29.2912
G02 X10.8890 Y-29.1267 I0.2573 J0.0813
G01 X12.1155 Y-31.8383
G03 X14.3802 Y-34.5596 I9.4299 J5.5449
G03 X18.0649 Y-37.1362 I12.6534 J14.1719
G03 X19.7888 Y-37.0459 I0.7676 J1.8468
G03 X22.2949 Y-35.5906 I-17.7545 J33.4603
G03 X23.1456 Y-33.7939 I-1.1698 J1.6536
G03 X22.1641 Y-27.7500 I-17.5355 J0.2540
G03 X21.4113 Y-26.2541 I-7.0066 J-2.5889
G01 X19.7676 Y-23.9763
G02 X20.1942 Y-23.6459 I0.2139 J0.1644
G01 X22.2743 Y-25.7746
G03 X25.3330 Y-27.5570 I6.9646 J8.4358
G03 X29.6767 Y-28.7181 I7.0437 J17.6459
G03 X31.2658 Y-28.0436 I0.0897 J1.9980
G03 X33.1230 Y-25.8190 I-28.1381 J25.3786
G03 X33.3080 Y-23.8396 I-1.6648 J1.1538
G03 X30.3185 Y-18.4959 I-16.5650 J-5.7589
G03 X29.0994 Y-17.3477 I-5.6984 J-4.8289
G01 X26.7758 Y-15.7694
G02 X27.0637 Y-15.3131 I0.1448 J0.2276
G01 X29.7464 Y-16.6019
G03 X33.2303 Y-17.2307 I3.6595 J10.3092
G03 X37.7092 Y-16.8361 I0.5837 J18.9899
G03 X38.9717 Y-15.6588 I-0.5991 J1.9082
G03 X39.9561 Y-12.9331 I-35.1017 J14.2172
G03 X39.4529 Y-11.0099 I-1.9590 J0.5148
G03 X34.8161 Y-7.0109 I-13.5965 J-11.0773
G03 X33.2778 Y-6.3489 I-3.7031 J-6.4866
G01 X30.5545 Y-5.6605
G02 X30.6690 Y-5.1332 I0.0582 J0.2634
G01 X33.6306 Y-5.4268
G03 X37.1195 Y-4.8262 I-0.0870 J10.9385
G03 X41.1933 Y-2.9235 I-5.9461 J18.0437
G03 X41.9771 Y-1.3854 I-1.2156 J1.5882
G03 X41.9698 Y1.5126 I-37.8594 J1.3543
G03 X40.8392 Y3.1478 I-2.0170 J-0.1862
G03 X35.1143 Y5.3197 I-8.9878 J-15.0596
G03 X33.4424 Y5.4157 I-1.2613 J-7.3629
G01 X30.6479 Y5.1311
G02 X30.5750 Y5.6657 I-0.0354 J0.2675
G01 X33.4586 Y6.4028
G03 X36.5316 Y8.1605 I-3.8234 J10.2496
G03 X39.7090 Y11.3418 I-11.7587 J14.9215
G03 X39.9194 Y13.0552 I-1.6855 J1.0766
G03 X38.9214 Y15.7759 I-36.0397 J-11.6762
G03 X37.2997 Y16.9257 I-1.8316 J-0.8648
G03 X31.1771 Y17.0087 I-3.2952 J-17.2254
G03 X29.5733 Y16.5270 I1.3325 J-7.3484
G01 X27.0446 Y15.3038
G02 X26.7933 Y15.7813 I-0.1247 J0.2392
G01 X29.2508 Y17.4601
G03 X31.5374 Y20.1629 I-7.0978 J8.3234
G03 X33.4351 Y24.2391 I-16.1536 J10.0003
G03 X33.0468 Y25.9211 I-1.9521 J0.4352
G03 X31.1784 Y28.1364 I-29.8669 J-23.2934
G03 X29.2613 Y28.6622 I-1.4254 J-1.4391
G03 X23.4797 Y26.6461 I2.7949 J-17.3133
G03 X22.1372 Y25.6450 I3.7660 J-6.4502
G01 X20.1794 Y23.6307
G02 X19.7800 Y23.9934 I-0.1990 J0.1821
G01 X21.5151 Y26.4115
G03 X22.7393 Y29.7334 I-9.5167 J5.3939
G03 X23.1285 Y34.2127 I-18.6017 J3.8725
G03 X22.1883 Y35.6605 I-1.9832 J-0.2586
G03 X19.6749 Y37.1033 I-20.1046 J-32.1137
G03 X17.6936 Y36.9417 I-0.8472 J-1.8399
G03 X12.9502 Y33.0697 I8.5481 J-15.3136
G03 X12.0311 Y31.6698 I5.7446 J-4.7730
G01 X10.8803 Y29.1074
G02 X10.3809 Y29.3117 I-0.2493 J0.1031
G01 X11.1843 Y32.1773
G03 X11.1986 Y35.7175 I-10.7878 J1.8138
G03 X10.0322 Y40.0599 I-18.8036 J-2.7230
G03 X8.6536 Y41.0988 I-1.7751 J-0.9214
G03 X5.7983 Y41.5949 I-7.9070 J-37.0440
G03 X3.9918 Y40.7654 I-0.1668 J-2.0187
G03 X0.8587 Y35.5046 I13.2701 J-11.4665
G03 X0.4738 Y33.8747 I7.0311 J-2.5204
G01 X0.2688 Y31.0733
G02 X-0.2704 Y31.0944 I-0.2695 J0.0116
G01 X-0.4955 Y34.0620
G03 X-1.6929 Y37.3937 I-10.7573 J-1.9851
G03 X-4.2741 Y41.0752 I-16.7373 J-8.9893
G03 X-5.9249 Y41.5799 I-1.3529 J-1.4730
G03 X-8.7777 Y41.0695 I5.2386 J-37.5093
G03 X-10.1916 Y39.6722 I0.5337 J-1.9540
G03 X-11.3364 Y33.6570 I16.3913 J-6.2362
G03 X-11.1406 Y31.9939 I7.4690 J0.0363
G01 X-10.3751 Y29.2913
G02 X-10.8890 Y29.1267 I-0.2573 J-0.0813
G01 X-12.1155 Y31.8384
G03 X-14.3802 Y34.5595 I-9.4296 J-5.5448
G03 X-18.0649 Y37.1362 I-12.6539 J-14.1724
G03 X-19.7888 Y37.0459 I-0.7676 J-1.8468
G03 X-22.2949 Y35.5906 I17.7628 J-33.4747
G03 X-23.1456 Y33.7939 I1.1698 J-1.6536
G03 X-22.1641 Y27.7500 I17.5359 J-0.2539
G03 X-21.4113 Y26.2541 I7.0057 J2.5884
G01 X-19.7676 Y23.9763
G02 X-20.1942 Y23.6459 I-0.2139 J-0.1644
G01 X-22.2742 Y25.7745
G03 X-25.3330 Y27.5570 I-6.9643 J-8.4351
G03 X-29.6767 Y28.7181 I-7.0433 J-17.6446
G03 X-31.2658 Y28.0436 I-0.0897 J-1.9980
G03 X-33.1231 Y25.8189 I28.1257 J-25.3683
G03 X-33.3079 Y23.8396 I1.6648 J-1.1538
G03 X-30.3186 Y18.4959 I16.5652 J5.7591
G03 X-29.0994 Y17.3477 I5.6989 J4.8295
G01 X-26.7758 Y15.7694
G02 X-27.0638 Y15.3131 I-0.1448 J-0.2276
G01 X-29.7463 Y16.6019
G03 X-33.2303 Y17.2307 I-3.6594 J-10.3082
G03 X-37.7092 Y16.8361 I-0.5837 J-18.9901
G03 X-38.9717 Y15.6588 I0.5991 J-1.9082
G03 X-39.9561 Y12.9331 I35.1223 J-14.2247
G03 X-39.4529 Y11.0099 I1.9590 J-0.5149
G03 X-34.8161 Y7.0109 I13.5964 J11.0772
G03 X-33.2778 Y6.3489 I3.7032 J6.4867
G01 X-30.5545 Y5.6605
G02 X-30.3432 Y5.3841 I-0.0584 J-0.2636
G02 X-30.6690 Y5.1332 I-0.2714 J0.0154
G01 X-33.6307 Y5.4268
G03 X-37.1196 Y4.8261 I0.0872 J-10.9384
G03 X-39.5416 Y3.8384 I5.9468 J-18.0449
G00 Z5.0000
G00 X0.0000 Y0.0000

M05
