(Projekt end cap)
(Erstellt mit Estlcam 12,057)
(Laufzeit ca. 00:00:59 Stunden)

(Benötigte Werkzeuge:)
(4mm Holzfräser Gerade Schneiden)

M03 S24000
G00 Z5.0000

(Nr. 1 Kreistasche bearbeiten: Kreistasche 1)
G00 X0.7500 Y0.0000 Z5.0000
G00 Z0.5000
G02 X-0.3750 Y-0.6495 Z-0.0717 I-0.7500 J0.0000 F1164 S24000
G02 Y0.6495 Z-0.6434 I0.3750 J0.6495
G02 X0.7500 Y0.0000 Z-1.2152 I0.3750 J-0.6495
G02 X-0.3750 Y-0.6495 Z-1.7869 I-0.7500 J0.0000
G02 Y0.6495 Z-2.3586 I0.3750 J0.6495
G02 X0.7500 Y0.0000 Z-2.9303 I0.3750 J-0.6495
G02 X-0.3750 Y-0.6495 Z-3.5021 I-0.7500 J0.0000
G02 Y0.6495 Z-4.0738 I0.3750 J0.6495
G02 X0.7500 Y0.0000 Z-4.6455 I0.3750 J-0.6495
G02 X-0.3750 Y-0.6495 Z-5.2172 I-0.7500 J0.0000
G02 Y0.6495 Z-5.7890 I0.3750 J0.6495
G02 X0.7500 Y0.0000 Z-6.3607 I0.3750 J-0.6495
G02 X-0.3750 Y-0.6495 Z-6.9324 I-0.7500 J0.0000
G02 Y0.6495 Z-7.5041 I0.3750 J0.6495
G02 X0.7500 Y0.0000 Z-8.0758 I0.3750 J-0.6495
G02 X-0.3750 Y-0.6495 Z-8.6476 I-0.7500 J0.0000
G02 Y0.6495 Z-9.2193 I0.3750 J0.6495
G02 X0.7500 Y0.0000 Z-9.7910 I0.3750 J-0.6495
G02 X-0.3750 Y-0.6495 Z-10.3627 I-0.7500 J0.0000
G02 Y0.6495 Z-10.9345 I0.3750 J0.6495
G02 X0.7500 Y0.0000 Z-11.5062 I0.3750 J-0.6495
G02 X-0.1852 Y-0.7268 Z-12.0031 I-0.7500 J0.0000
G02 X-0.6585 Y0.3589 Z-12.5000 I0.1852 J0.7268
G02 X0.6401 Y0.3908 I0.6585 J-0.3589
G02 X0.0184 Y-0.7498 I-0.6401 J-0.3908
G02 X-0.6585 Y0.3589 I-0.0184 J0.7498
G02 X-0.1498 Y0.5087 Z-12.4063 I0.3293 J-0.1795 F1900
G00 Z5.0000

(Nr. 2 Räumen linear: Tasche 1)
G00 X-7.3550 Y-5.4000 Z5.0000
G00 Z0.5000
G01 Z0.0000 F200
G01 X-1.1732 Z-2.2500
G01 X-7.3550 Z-4.5000
G01 X7.3550 F1900
G01 Y-1.8000
G01 X-7.3550
G01 Y1.8000
G01 X7.3550
G01 Y5.4000
G01 X-7.3550
G01 X-7.7000
G01 Y7.4079
G01 X-7.4079 Y7.7000
G01 X7.4079
G01 X7.7000 Y7.4079
G01 Y-7.4079
G01 X7.4079 Y-7.7000
G01 X-7.4079
G01 X-7.7000 Y-7.4079
G01 Y5.4000
G01 X-7.3550
G00 Z5.0000
G00 Y-5.4000
G00 Z-4.0000
G01 Z-4.5000 F200
G01 X-5.2944 Z-5.2500
G01 X-7.3550 Z-6.0000
G01 X7.3550 F1900
G01 Y-1.8000
G01 X-7.3550
G01 Y1.8000
G01 X7.3550
G01 Y5.4000
G01 X-7.3550
G01 X-7.7000
G01 Y7.4079
G01 X-7.4079 Y7.7000
G01 X7.4079
G01 X7.7000 Y7.4079
G01 Y-7.4079
G01 X7.4079 Y-7.7000
G01 X-7.4079
G01 X-7.7000 Y-7.4079
G01 Y5.4000
G01 X-7.3550
G00 X-7.3550 Y5.4000 Z5.0000
G00 X-8.0000
G00 Z0.5000
G01 Z0.0000 F200
G01 Y7.4079 Z-0.7308
G01 X-8.1132 Y8.0812 Z-0.9793
G01 X-8.1270 Y8.1185 Z-0.9938
G01 X-8.1262 Y8.1287 Z-0.9975
G01 X-8.0810 Y8.1131 Z-1.0149
G01 X-7.4079 Y8.0000 Z-1.2634
G01 X5.6059 Z-6.0000
G01 X7.4079 F1900
G01 X8.0810 Y8.1131
G01 X8.1186 Y8.1271
G01 X8.1287 Y8.1262
G01 X8.1131 Y8.0811
G01 X8.0000 Y7.4079
G01 Y-7.4079
G01 X8.1131 Y-8.0811
G01 X8.1271 Y-8.1186
G01 X8.1263 Y-8.1288
G01 X8.0812 Y-8.1132
G01 X7.4079 Y-8.0000
G01 X-7.4079
G01 X-8.0812 Y-8.1132
G01 X-8.1288 Y-8.1264
G01 X-8.1132 Y-8.0812
G01 X-8.0000 Y-7.4079
G01 Y5.4000
G01 Y7.4079
G01 X-8.1132 Y8.0812
G01 X-8.1270 Y8.1185
G01 X-8.1262 Y8.1287
G01 X-8.0810 Y8.1131
G01 X-7.4079 Y8.0000
G01 X5.6059
G00 Z5.0000

(Nr. 3 Teil bearbeiten: Teil 1)
G00 X12.6661 Y17.9826 Z5.0000
G00 Z0.5000
G01 Z0.0000 F200
G03 X1.1334 Y21.9668 Z-4.5000 I-12.6680 J-17.9853
G03 X-21.9116 Y1.9754 I-1.1352 J-21.9695 F1900
G03 X9.2399 Y-19.9662 I21.9097 J-1.9782
G03 X12.6661 Y17.9826 I-9.2417 J19.9635
G03 X1.1334 Y21.9668 Z-9.0000 I-12.6680 J-17.9853 F200
G03 X-21.9116 Y1.9754 I-1.1352 J-21.9695 F1900
G03 X9.2399 Y-19.9662 I21.9097 J-1.9782
G03 X12.6661 Y17.9826 I-9.2417 J19.9635
G03 X3.8612 Y21.6543 Z-12.5000 I-12.6680 J-17.9853 F200
G03 X-21.9116 Y1.9754 I-3.8631 J-21.6570 F1900
G03 X9.2399 Y-19.9662 I21.9097 J-1.9782
G03 X12.6661 Y17.9826 I-9.2417 J19.9635
G03 X3.8612 Y21.6543 I-12.6680 J-17.9853
G00 Z5.0000
G00 X0.0000 Y0.0000

M05
